; AxisAthlete - Marlin 2.x
G90
M117 AxisAthlete Start
G28
G0 Z2.0 F1800.0
G0 X10 Y10 F7800.0
; --- Cycle 1 ---
G0 X210.0 F1380.0
G0 Y210.0
G0 X10
G0 Y10
G0 X210.0 Y210.0
G0 Z0.11 F1800.0
G0 X10 Y10 F1380.0
; --- Cycle 2 ---
G0 X210.0 F1380.0
G0 Y210.0
G0 X10
G0 Y10
G0 X210.0 Y210.0
G0 Z0.22 F1800.0
G0 X10 Y10 F1380.0
; --- Cycle 3 ---
G0 X210.0 F1380.0
G0 Y210.0
G0 X10
G0 Y10
G0 X210.0 Y210.0
G0 Z0.33 F1800.0
G0 X10 Y10 F1380.0
; --- Cycle 4 ---
G0 X210.0 F1380.0
G0 Y210.0
G0 X10
G0 Y10
G0 X210.0 Y210.0
G0 Z0.44 F1800.0
G0 X10 Y10 F1380.0
; --- Cycle 5 ---
G0 X210.0 F1380.0
G0 Y210.0
G0 X10
G0 Y10
G0 X210.0 Y210.0
G0 Z0.55 F1800.0
G0 X10 Y10 F1380.0
; --- Cycle 6 ---
G0 X210.0 F1380.0
G0 Y210.0
G0 X10
G0 Y10
G0 X210.0 Y210.0
G0 Z0.66 F1800.0
G0 X10 Y10 F1380.0
; --- Cycle 7 ---
G0 X210.0 F1380.0
G0 Y210.0
G0 X10
G0 Y10
G0 X210.0 Y210.0
G0 Z0.77 F1800.0
G0 X10 Y10 F1380.0
; --- Cycle 8 ---
G0 X210.0 F1380.0
G0 Y210.0
G0 X10
G0 Y10
G0 X210.0 Y210.0
G0 Z0.88 F1800.0
G0 X10 Y10 F1380.0
; --- Cycle 9 ---
G0 X210.0 F1380.0
G0 Y210.0
G0 X10
G0 Y10
G0 X210.0 Y210.0
G0 Z0.99 F1800.0
G0 X10 Y10 F1380.0
; --- Cycle 10 ---
G0 X210.0 F1380.0
G0 Y210.0
G0 X10
G0 Y10
G0 X210.0 Y210.0
G0 Z1.1 F1800.0
G0 X10 Y10 F1380.0
; --- Cycle 11 ---
G0 X210.0 F1380.0
G0 Y210.0
G0 X10
G0 Y10
G0 X210.0 Y210.0
G0 Z1.21 F1800.0
G0 X10 Y10 F1380.0
; --- Cycle 12 ---
G0 X210.0 F1380.0
G0 Y210.0
G0 X10
G0 Y10
G0 X210.0 Y210.0
G0 Z1.32 F1800.0
G0 X10 Y10 F1380.0
; --- Cycle 13 ---
G0 X210.0 F1380.0
G0 Y210.0
G0 X10
G0 Y10
G0 X210.0 Y210.0
G0 Z1.43 F1800.0
G0 X10 Y10 F1380.0
; --- Cycle 14 ---
G0 X210.0 F1380.0
G0 Y210.0
G0 X10
G0 Y10
G0 X210.0 Y210.0
G0 Z1.54 F1800.0
G0 X10 Y10 F1380.0
; --- Cycle 15 ---
G0 X210.0 F1380.0
G0 Y210.0
G0 X10
G0 Y10
G0 X210.0 Y210.0
G0 Z1.65 F1800.0
G0 X10 Y10 F1380.0
; --- Cycle 16 ---
G0 X210.0 F1380.0
G0 Y210.0
G0 X10
G0 Y10
G0 X210.0 Y210.0
G0 Z1.76 F1800.0
G0 X10 Y10 F1380.0
; --- Cycle 17 ---
G0 X210.0 F1380.0
G0 Y210.0
G0 X10
G0 Y10
G0 X210.0 Y210.0
G0 Z1.87 F1800.0
G0 X10 Y10 F1380.0
; --- Cycle 18 ---
G0 X210.0 F1380.0
G0 Y210.0
G0 X10
G0 Y10
G0 X210.0 Y210.0
G0 Z1.98 F1800.0
G0 X10 Y10 F1380.0
; --- Cycle 19 ---
G0 X210.0 F1380.0
G0 Y210.0
G0 X10
G0 Y10
G0 X210.0 Y210.0
G0 Z2.09 F1800.0
G0 X10 Y10 F1380.0
; --- Cycle 20 ---
G0 X210.0 F1380.0
G0 Y210.0
G0 X10
G0 Y10
G0 X210.0 Y210.0
G0 Z2.2 F1800.0
G0 X10 Y10 F1380.0
; --- Cycle 21 ---
G0 X210.0 F1380.0
G0 Y210.0
G0 X10
G0 Y10
G0 X210.0 Y210.0
G0 Z2.31 F1800.0
G0 X10 Y10 F1380.0
; --- Cycle 22 ---
G0 X210.0 F1380.0
G0 Y210.0
G0 X10
G0 Y10
G0 X210.0 Y210.0
G0 Z2.42 F1800.0
G0 X10 Y10 F1380.0
; --- Cycle 23 ---
G0 X210.0 F1380.0
G0 Y210.0
G0 X10
G0 Y10
G0 X210.0 Y210.0
G0 Z2.53 F1800.0
G0 X10 Y10 F1380.0
; --- Cycle 24 ---
G0 X210.0 F1380.0
G0 Y210.0
G0 X10
G0 Y10
G0 X210.0 Y210.0
G0 Z2.64 F1800.0
G0 X10 Y10 F1380.0
; --- Cycle 25 ---
G0 X210.0 F1380.0
G0 Y210.0
G0 X10
G0 Y10
G0 X210.0 Y210.0
G0 Z2.75 F1800.0
G0 X10 Y10 F1380.0
; --- Cycle 26 ---
G0 X210.0 F1380.0
G0 Y210.0
G0 X10
G0 Y10
G0 X210.0 Y210.0
G0 Z2.86 F1800.0
G0 X10 Y10 F1380.0
; --- Cycle 27 ---
G0 X210.0 F1380.0
G0 Y210.0
G0 X10
G0 Y10
G0 X210.0 Y210.0
G0 Z2.97 F1800.0
G0 X10 Y10 F1380.0
; --- Cycle 28 ---
G0 X210.0 F1380.0
G0 Y210.0
G0 X10
G0 Y10
G0 X210.0 Y210.0
G0 Z3.08 F1800.0
G0 X10 Y10 F1380.0
; --- Cycle 29 ---
G0 X210.0 F1380.0
G0 Y210.0
G0 X10
G0 Y10
G0 X210.0 Y210.0
G0 Z3.19 F1800.0
G0 X10 Y10 F1380.0
; --- Cycle 30 ---
G0 X210.0 F1380.0
G0 Y210.0
G0 X10
G0 Y10
G0 X210.0 Y210.0
G0 Z3.3 F1800.0
G0 X10 Y10 F1380.0
; --- Cycle 31 ---
G0 X210.0 F1380.0
G0 Y210.0
G0 X10
G0 Y10
G0 X210.0 Y210.0
G0 Z3.41 F1800.0
G0 X10 Y10 F1380.0
; --- Cycle 32 ---
G0 X210.0 F1380.0
G0 Y210.0
G0 X10
G0 Y10
G0 X210.0 Y210.0
G0 Z3.52 F1800.0
G0 X10 Y10 F1380.0
; --- Cycle 33 ---
G0 X210.0 F1380.0
G0 Y210.0
G0 X10
G0 Y10
G0 X210.0 Y210.0
G0 Z3.63 F1800.0
G0 X10 Y10 F1380.0
; --- Cycle 34 ---
G0 X210.0 F1380.0
G0 Y210.0
G0 X10
G0 Y10
G0 X210.0 Y210.0
G0 Z3.74 F1800.0
G0 X10 Y10 F1380.0
; --- Cycle 35 ---
G0 X210.0 F1380.0
G0 Y210.0
G0 X10
G0 Y10
G0 X210.0 Y210.0
G0 Z3.85 F1800.0
G0 X10 Y10 F1380.0
; --- Cycle 36 ---
G0 X210.0 F1380.0
G0 Y210.0
G0 X10
G0 Y10
G0 X210.0 Y210.0
G0 Z3.96 F1800.0
G0 X10 Y10 F1380.0
; --- Cycle 37 ---
G0 X210.0 F1380.0
G0 Y210.0
G0 X10
G0 Y10
G0 X210.0 Y210.0
G0 Z4.07 F1800.0
G0 X10 Y10 F1380.0
; --- Cycle 38 ---
G0 X210.0 F1380.0
G0 Y210.0
G0 X10
G0 Y10
G0 X210.0 Y210.0
G0 Z4.18 F1800.0
G0 X10 Y10 F1380.0
; --- Cycle 39 ---
G0 X210.0 F1380.0
G0 Y210.0
G0 X10
G0 Y10
G0 X210.0 Y210.0
G0 Z4.29 F1800.0
G0 X10 Y10 F1380.0
; --- Cycle 40 ---
G0 X210.0 F1380.0
G0 Y210.0
G0 X10
G0 Y10
G0 X210.0 Y210.0
G0 Z4.4 F1800.0
G0 X10 Y10 F1380.0
; --- Cycle 41 ---
G0 X210.0 F1380.0
G0 Y210.0
G0 X10
G0 Y10
G0 X210.0 Y210.0
G0 Z4.51 F1800.0
G0 X10 Y10 F1380.0
; --- Cycle 42 ---
G0 X210.0 F1380.0
G0 Y210.0
G0 X10
G0 Y10
G0 X210.0 Y210.0
G0 Z4.62 F1800.0
G0 X10 Y10 F1380.0
; --- Cycle 43 ---
G0 X210.0 F1380.0
G0 Y210.0
G0 X10
G0 Y10
G0 X210.0 Y210.0
G0 Z4.73 F1800.0
G0 X10 Y10 F1380.0
; --- Cycle 44 ---
G0 X210.0 F1380.0
G0 Y210.0
G0 X10
G0 Y10
G0 X210.0 Y210.0
G0 Z4.84 F1800.0
G0 X10 Y10 F1380.0
; --- Cycle 45 ---
G0 X210.0 F1380.0
G0 Y210.0
G0 X10
G0 Y10
G0 X210.0 Y210.0
G0 Z4.95 F1800.0
G0 X10 Y10 F1380.0
; --- Cycle 46 ---
G0 X210.0 F1380.0
G0 Y210.0
G0 X10
G0 Y10
G0 X210.0 Y210.0
G0 Z5.06 F1800.0
G0 X10 Y10 F1380.0
; --- Cycle 47 ---
G0 X210.0 F1380.0
G0 Y210.0
G0 X10
G0 Y10
G0 X210.0 Y210.0
G0 Z5.17 F1800.0
G0 X10 Y10 F1380.0
; --- Cycle 48 ---
G0 X210.0 F1380.0
G0 Y210.0
G0 X10
G0 Y10
G0 X210.0 Y210.0
G0 Z5.28 F1800.0
G0 X10 Y10 F1380.0
; --- Cycle 49 ---
G0 X210.0 F1380.0
G0 Y210.0
G0 X10
G0 Y10
G0 X210.0 Y210.0
G0 Z5.39 F1800.0
G0 X10 Y10 F1380.0
; --- Cycle 50 ---
G0 X210.0 F1380.0
G0 Y210.0
G0 X10
G0 Y10
G0 X210.0 Y210.0
G0 Z5.5 F1800.0
G0 X10 Y10 F1380.0
; --- Cycle 51 ---
G0 X210.0 F1380.0
G0 Y210.0
G0 X10
G0 Y10
G0 X210.0 Y210.0
G0 Z5.61 F1800.0
G0 X10 Y10 F1380.0
; --- Cycle 52 ---
G0 X210.0 F1380.0
G0 Y210.0
G0 X10
G0 Y10
G0 X210.0 Y210.0
G0 Z5.72 F1800.0
G0 X10 Y10 F1380.0
; --- Cycle 53 ---
G0 X210.0 F1380.0
G0 Y210.0
G0 X10
G0 Y10
G0 X210.0 Y210.0
G0 Z5.83 F1800.0
G0 X10 Y10 F1380.0
; --- Cycle 54 ---
G0 X210.0 F1380.0
G0 Y210.0
G0 X10
G0 Y10
G0 X210.0 Y210.0
G0 Z5.94 F1800.0
G0 X10 Y10 F1380.0
; --- Cycle 55 ---
G0 X210.0 F1380.0
G0 Y210.0
G0 X10
G0 Y10
G0 X210.0 Y210.0
G0 Z6.05 F1800.0
G0 X10 Y10 F1380.0
; --- Cycle 56 ---
G0 X210.0 F1380.0
G0 Y210.0
G0 X10
G0 Y10
G0 X210.0 Y210.0
G0 Z6.16 F1800.0
G0 X10 Y10 F1380.0
; --- Cycle 57 ---
G0 X210.0 F1380.0
G0 Y210.0
G0 X10
G0 Y10
G0 X210.0 Y210.0
G0 Z6.2700000000000005 F1800.0
G0 X10 Y10 F1380.0
; --- Cycle 58 ---
G0 X210.0 F1380.0
G0 Y210.0
G0 X10
G0 Y10
G0 X210.0 Y210.0
G0 Z6.38 F1800.0
G0 X10 Y10 F1380.0
; --- Cycle 59 ---
G0 X210.0 F1380.0
G0 Y210.0
G0 X10
G0 Y10
G0 X210.0 Y210.0
G0 Z6.49 F1800.0
G0 X10 Y10 F1380.0
; --- Cycle 60 ---
G0 X210.0 F1380.0
G0 Y210.0
G0 X10
G0 Y10
G0 X210.0 Y210.0
G0 Z6.6 F1800.0
G0 X10 Y10 F1380.0
; --- Cycle 61 ---
G0 X210.0 F1380.0
G0 Y210.0
G0 X10
G0 Y10
G0 X210.0 Y210.0
G0 Z6.71 F1800.0
G0 X10 Y10 F1380.0
; --- Cycle 62 ---
G0 X210.0 F1380.0
G0 Y210.0
G0 X10
G0 Y10
G0 X210.0 Y210.0
G0 Z6.82 F1800.0
G0 X10 Y10 F1380.0
; --- Cycle 63 ---
G0 X210.0 F1380.0
G0 Y210.0
G0 X10
G0 Y10
G0 X210.0 Y210.0
G0 Z6.93 F1800.0
G0 X10 Y10 F1380.0
; --- Cycle 64 ---
G0 X210.0 F1380.0
G0 Y210.0
G0 X10
G0 Y10
G0 X210.0 Y210.0
G0 Z7.04 F1800.0
G0 X10 Y10 F1380.0
; --- Cycle 65 ---
G0 X210.0 F1380.0
G0 Y210.0
G0 X10
G0 Y10
G0 X210.0 Y210.0
G0 Z7.15 F1800.0
G0 X10 Y10 F1380.0
; --- Cycle 66 ---
G0 X210.0 F1380.0
G0 Y210.0
G0 X10
G0 Y10
G0 X210.0 Y210.0
G0 Z7.26 F1800.0
G0 X10 Y10 F1380.0
; --- Cycle 67 ---
G0 X210.0 F1380.0
G0 Y210.0
G0 X10
G0 Y10
G0 X210.0 Y210.0
G0 Z7.37 F1800.0
G0 X10 Y10 F1380.0
; --- Cycle 68 ---
G0 X210.0 F1380.0
G0 Y210.0
G0 X10
G0 Y10
G0 X210.0 Y210.0
G0 Z7.48 F1800.0
G0 X10 Y10 F1380.0
; --- Cycle 69 ---
G0 X210.0 F1380.0
G0 Y210.0
G0 X10
G0 Y10
G0 X210.0 Y210.0
G0 Z7.59 F1800.0
G0 X10 Y10 F1380.0
; --- Cycle 70 ---
G0 X210.0 F1380.0
G0 Y210.0
G0 X10
G0 Y10
G0 X210.0 Y210.0
G0 Z7.7 F1800.0
G0 X10 Y10 F1380.0
; --- Cycle 71 ---
G0 X210.0 F1380.0
G0 Y210.0
G0 X10
G0 Y10
G0 X210.0 Y210.0
G0 Z7.81 F1800.0
G0 X10 Y10 F1380.0
; --- Cycle 72 ---
G0 X210.0 F1380.0
G0 Y210.0
G0 X10
G0 Y10
G0 X210.0 Y210.0
G0 Z7.92 F1800.0
G0 X10 Y10 F1380.0
; --- Cycle 73 ---
G0 X210.0 F1380.0
G0 Y210.0
G0 X10
G0 Y10
G0 X210.0 Y210.0
G0 Z8.03 F1800.0
G0 X10 Y10 F1380.0
; --- Cycle 74 ---
G0 X210.0 F1380.0
G0 Y210.0
G0 X10
G0 Y10
G0 X210.0 Y210.0
G0 Z8.14 F1800.0
G0 X10 Y10 F1380.0
; --- Cycle 75 ---
G0 X210.0 F1380.0
G0 Y210.0
G0 X10
G0 Y10
G0 X210.0 Y210.0
G0 Z8.25 F1800.0
G0 X10 Y10 F1380.0
; --- Cycle 76 ---
G0 X210.0 F1380.0
G0 Y210.0
G0 X10
G0 Y10
G0 X210.0 Y210.0
G0 Z8.36 F1800.0
G0 X10 Y10 F1380.0
; --- Cycle 77 ---
G0 X210.0 F1380.0
G0 Y210.0
G0 X10
G0 Y10
G0 X210.0 Y210.0
G0 Z8.47 F1800.0
G0 X10 Y10 F1380.0
; --- Cycle 78 ---
G0 X210.0 F1380.0
G0 Y210.0
G0 X10
G0 Y10
G0 X210.0 Y210.0
G0 Z8.58 F1800.0
G0 X10 Y10 F1380.0
; --- Cycle 79 ---
G0 X210.0 F1380.0
G0 Y210.0
G0 X10
G0 Y10
G0 X210.0 Y210.0
G0 Z8.69 F1800.0
G0 X10 Y10 F1380.0
; --- Cycle 80 ---
G0 X210.0 F1380.0
G0 Y210.0
G0 X10
G0 Y10
G0 X210.0 Y210.0
G0 Z8.8 F1800.0
G0 X10 Y10 F1380.0
; --- Cycle 81 ---
G0 X210.0 F1380.0
G0 Y210.0
G0 X10
G0 Y10
G0 X210.0 Y210.0
G0 Z8.91 F1800.0
G0 X10 Y10 F1380.0
; --- Cycle 82 ---
G0 X210.0 F1380.0
G0 Y210.0
G0 X10
G0 Y10
G0 X210.0 Y210.0
G0 Z9.02 F1800.0
G0 X10 Y10 F1380.0
; --- Cycle 83 ---
G0 X210.0 F1380.0
G0 Y210.0
G0 X10
G0 Y10
G0 X210.0 Y210.0
G0 Z9.13 F1800.0
G0 X10 Y10 F1380.0
; --- Cycle 84 ---
G0 X210.0 F1380.0
G0 Y210.0
G0 X10
G0 Y10
G0 X210.0 Y210.0
G0 Z9.24 F1800.0
G0 X10 Y10 F1380.0
; --- Cycle 85 ---
G0 X210.0 F1380.0
G0 Y210.0
G0 X10
G0 Y10
G0 X210.0 Y210.0
G0 Z9.35 F1800.0
G0 X10 Y10 F1380.0
; --- Cycle 86 ---
G0 X210.0 F1380.0
G0 Y210.0
G0 X10
G0 Y10
G0 X210.0 Y210.0
G0 Z9.46 F1800.0
G0 X10 Y10 F1380.0
; --- Cycle 87 ---
G0 X210.0 F1380.0
G0 Y210.0
G0 X10
G0 Y10
G0 X210.0 Y210.0
G0 Z9.57 F1800.0
G0 X10 Y10 F1380.0
; --- Cycle 88 ---
G0 X210.0 F1380.0
G0 Y210.0
G0 X10
G0 Y10
G0 X210.0 Y210.0
G0 Z9.68 F1800.0
G0 X10 Y10 F1380.0
; --- Cycle 89 ---
G0 X210.0 F1380.0
G0 Y210.0
G0 X10
G0 Y10
G0 X210.0 Y210.0
G0 Z9.790000000000001 F1800.0
G0 X10 Y10 F1380.0
; --- Cycle 90 ---
G0 X210.0 F1380.0
G0 Y210.0
G0 X10
G0 Y10
G0 X210.0 Y210.0
G0 Z9.9 F1800.0
G0 X10 Y10 F1380.0
; --- Cycle 91 ---
G0 X210.0 F1380.0
G0 Y210.0
G0 X10
G0 Y10
G0 X210.0 Y210.0
G0 Z10.01 F1800.0
G0 X10 Y10 F1380.0
; --- Cycle 92 ---
G0 X210.0 F1380.0
G0 Y210.0
G0 X10
G0 Y10
G0 X210.0 Y210.0
G0 Z10.12 F1800.0
G0 X10 Y10 F1380.0
; --- Cycle 93 ---
G0 X210.0 F1380.0
G0 Y210.0
G0 X10
G0 Y10
G0 X210.0 Y210.0
G0 Z10.23 F1800.0
G0 X10 Y10 F1380.0
; --- Cycle 94 ---
G0 X210.0 F1380.0
G0 Y210.0
G0 X10
G0 Y10
G0 X210.0 Y210.0
G0 Z10.34 F1800.0
G0 X10 Y10 F1380.0
; --- Cycle 95 ---
G0 X210.0 F1380.0
G0 Y210.0
G0 X10
G0 Y10
G0 X210.0 Y210.0
G0 Z10.45 F1800.0
G0 X10 Y10 F1380.0
; --- Cycle 96 ---
G0 X210.0 F1380.0
G0 Y210.0
G0 X10
G0 Y10
G0 X210.0 Y210.0
G0 Z10.56 F1800.0
G0 X10 Y10 F1380.0
; --- Cycle 97 ---
G0 X210.0 F1380.0
G0 Y210.0
G0 X10
G0 Y10
G0 X210.0 Y210.0
G0 Z10.67 F1800.0
G0 X10 Y10 F1380.0
; --- Cycle 98 ---
G0 X210.0 F1380.0
G0 Y210.0
G0 X10
G0 Y10
G0 X210.0 Y210.0
G0 Z10.78 F1800.0
G0 X10 Y10 F1380.0
; --- Cycle 99 ---
G0 X210.0 F1380.0
G0 Y210.0
G0 X10
G0 Y10
G0 X210.0 Y210.0
G0 Z10.89 F1800.0
G0 X10 Y10 F1380.0
; --- Cycle 100 ---
G0 X210.0 F1380.0
G0 Y210.0
G0 X10
G0 Y10
G0 X210.0 Y210.0
G0 Z11.0 F1800.0
G0 X10 Y10 F1380.0
; --- Cycle 101 ---
G0 X210.0 F1380.0
G0 Y210.0
G0 X10
G0 Y10
G0 X210.0 Y210.0
G0 Z11.11 F1800.0
G0 X10 Y10 F1380.0
; --- Cycle 102 ---
G0 X210.0 F1380.0
G0 Y210.0
G0 X10
G0 Y10
G0 X210.0 Y210.0
G0 Z11.22 F1800.0
G0 X10 Y10 F1380.0
; --- Cycle 103 ---
G0 X210.0 F1380.0
G0 Y210.0
G0 X10
G0 Y10
G0 X210.0 Y210.0
G0 Z11.33 F1800.0
G0 X10 Y10 F1380.0
; --- Cycle 104 ---
G0 X210.0 F1380.0
G0 Y210.0
G0 X10
G0 Y10
G0 X210.0 Y210.0
G0 Z11.44 F1800.0
G0 X10 Y10 F1380.0
; --- Cycle 105 ---
G0 X210.0 F1380.0
G0 Y210.0
G0 X10
G0 Y10
G0 X210.0 Y210.0
G0 Z11.55 F1800.0
G0 X10 Y10 F1380.0
; --- Cycle 106 ---
G0 X210.0 F1380.0
G0 Y210.0
G0 X10
G0 Y10
G0 X210.0 Y210.0
G0 Z11.66 F1800.0
G0 X10 Y10 F1380.0
; --- Cycle 107 ---
G0 X210.0 F1380.0
G0 Y210.0
G0 X10
G0 Y10
G0 X210.0 Y210.0
G0 Z11.77 F1800.0
G0 X10 Y10 F1380.0
; --- Cycle 108 ---
G0 X210.0 F1380.0
G0 Y210.0
G0 X10
G0 Y10
G0 X210.0 Y210.0
G0 Z11.88 F1800.0
G0 X10 Y10 F1380.0
; --- Cycle 109 ---
G0 X210.0 F1380.0
G0 Y210.0
G0 X10
G0 Y10
G0 X210.0 Y210.0
G0 Z11.99 F1800.0
G0 X10 Y10 F1380.0
; --- Cycle 110 ---
G0 X210.0 F1380.0
G0 Y210.0
G0 X10
G0 Y10
G0 X210.0 Y210.0
G0 Z12.1 F1800.0
G0 X10 Y10 F1380.0
; --- Cycle 111 ---
G0 X210.0 F1380.0
G0 Y210.0
G0 X10
G0 Y10
G0 X210.0 Y210.0
G0 Z12.21 F1800.0
G0 X10 Y10 F1380.0
; --- Cycle 112 ---
G0 X210.0 F1380.0
G0 Y210.0
G0 X10
G0 Y10
G0 X210.0 Y210.0
G0 Z12.32 F1800.0
G0 X10 Y10 F1380.0
; --- Cycle 113 ---
G0 X210.0 F1380.0
G0 Y210.0
G0 X10
G0 Y10
G0 X210.0 Y210.0
G0 Z12.43 F1800.0
G0 X10 Y10 F1380.0
; --- Cycle 114 ---
G0 X210.0 F1380.0
G0 Y210.0
G0 X10
G0 Y10
G0 X210.0 Y210.0
G0 Z12.540000000000001 F1800.0
G0 X10 Y10 F1380.0
; --- Cycle 115 ---
G0 X210.0 F1380.0
G0 Y210.0
G0 X10
G0 Y10
G0 X210.0 Y210.0
G0 Z12.65 F1800.0
G0 X10 Y10 F1380.0
; --- Cycle 116 ---
G0 X210.0 F1380.0
G0 Y210.0
G0 X10
G0 Y10
G0 X210.0 Y210.0
G0 Z12.76 F1800.0
G0 X10 Y10 F1380.0
; --- Cycle 117 ---
G0 X210.0 F1380.0
G0 Y210.0
G0 X10
G0 Y10
G0 X210.0 Y210.0
G0 Z12.87 F1800.0
G0 X10 Y10 F1380.0
; --- Cycle 118 ---
G0 X210.0 F1380.0
G0 Y210.0
G0 X10
G0 Y10
G0 X210.0 Y210.0
G0 Z12.98 F1800.0
G0 X10 Y10 F1380.0
; --- Cycle 119 ---
G0 X210.0 F1380.0
G0 Y210.0
G0 X10
G0 Y10
G0 X210.0 Y210.0
G0 Z13.09 F1800.0
G0 X10 Y10 F1380.0
; --- Cycle 120 ---
G0 X210.0 F1380.0
G0 Y210.0
G0 X10
G0 Y10
G0 X210.0 Y210.0
G0 Z13.2 F1800.0
G0 X10 Y10 F1380.0
; --- Cycle 121 ---
G0 X210.0 F1380.0
G0 Y210.0
G0 X10
G0 Y10
G0 X210.0 Y210.0
G0 Z13.31 F1800.0
G0 X10 Y10 F1380.0
; --- Cycle 122 ---
G0 X210.0 F1380.0
G0 Y210.0
G0 X10
G0 Y10
G0 X210.0 Y210.0
G0 Z13.42 F1800.0
G0 X10 Y10 F1380.0
; --- Cycle 123 ---
G0 X210.0 F1380.0
G0 Y210.0
G0 X10
G0 Y10
G0 X210.0 Y210.0
G0 Z13.53 F1800.0
G0 X10 Y10 F1380.0
; --- Cycle 124 ---
G0 X210.0 F1380.0
G0 Y210.0
G0 X10
G0 Y10
G0 X210.0 Y210.0
G0 Z13.64 F1800.0
G0 X10 Y10 F1380.0
; --- Cycle 125 ---
G0 X210.0 F1380.0
G0 Y210.0
G0 X10
G0 Y10
G0 X210.0 Y210.0
G0 Z13.75 F1800.0
G0 X10 Y10 F1380.0
; --- Cycle 126 ---
G0 X210.0 F1380.0
G0 Y210.0
G0 X10
G0 Y10
G0 X210.0 Y210.0
G0 Z13.86 F1800.0
G0 X10 Y10 F1380.0
; --- Cycle 127 ---
G0 X210.0 F1380.0
G0 Y210.0
G0 X10
G0 Y10
G0 X210.0 Y210.0
G0 Z13.97 F1800.0
G0 X10 Y10 F1380.0
; --- Cycle 128 ---
G0 X210.0 F1380.0
G0 Y210.0
G0 X10
G0 Y10
G0 X210.0 Y210.0
G0 Z14.08 F1800.0
G0 X10 Y10 F1380.0
; --- Cycle 129 ---
G0 X210.0 F1380.0
G0 Y210.0
G0 X10
G0 Y10
G0 X210.0 Y210.0
G0 Z14.19 F1800.0
G0 X10 Y10 F1380.0
; --- Cycle 130 ---
G0 X210.0 F1380.0
G0 Y210.0
G0 X10
G0 Y10
G0 X210.0 Y210.0
G0 Z14.3 F1800.0
G0 X10 Y10 F1380.0
; --- Cycle 131 ---
G0 X210.0 F1380.0
G0 Y210.0
G0 X10
G0 Y10
G0 X210.0 Y210.0
G0 Z14.41 F1800.0
G0 X10 Y10 F1380.0
; --- Cycle 132 ---
G0 X210.0 F1380.0
G0 Y210.0
G0 X10
G0 Y10
G0 X210.0 Y210.0
G0 Z14.52 F1800.0
G0 X10 Y10 F1380.0
; --- Cycle 133 ---
G0 X210.0 F1380.0
G0 Y210.0
G0 X10
G0 Y10
G0 X210.0 Y210.0
G0 Z14.63 F1800.0
G0 X10 Y10 F1380.0
; --- Cycle 134 ---
G0 X210.0 F1380.0
G0 Y210.0
G0 X10
G0 Y10
G0 X210.0 Y210.0
G0 Z14.74 F1800.0
G0 X10 Y10 F1380.0
; --- Cycle 135 ---
G0 X210.0 F1380.0
G0 Y210.0
G0 X10
G0 Y10
G0 X210.0 Y210.0
G0 Z14.85 F1800.0
G0 X10 Y10 F1380.0
; --- Cycle 136 ---
G0 X210.0 F1380.0
G0 Y210.0
G0 X10
G0 Y10
G0 X210.0 Y210.0
G0 Z14.96 F1800.0
G0 X10 Y10 F1380.0
; --- Cycle 137 ---
G0 X210.0 F1380.0
G0 Y210.0
G0 X10
G0 Y10
G0 X210.0 Y210.0
G0 Z15.07 F1800.0
G0 X10 Y10 F1380.0
; --- Cycle 138 ---
G0 X210.0 F1380.0
G0 Y210.0
G0 X10
G0 Y10
G0 X210.0 Y210.0
G0 Z15.18 F1800.0
G0 X10 Y10 F1380.0
; --- Cycle 139 ---
G0 X210.0 F1380.0
G0 Y210.0
G0 X10
G0 Y10
G0 X210.0 Y210.0
G0 Z15.290000000000001 F1800.0
G0 X10 Y10 F1380.0
; --- Cycle 140 ---
G0 X210.0 F1380.0
G0 Y210.0
G0 X10
G0 Y10
G0 X210.0 Y210.0
G0 Z15.4 F1800.0
G0 X10 Y10 F1380.0
; --- Cycle 141 ---
G0 X210.0 F1380.0
G0 Y210.0
G0 X10
G0 Y10
G0 X210.0 Y210.0
G0 Z15.51 F1800.0
G0 X10 Y10 F1380.0
; --- Cycle 142 ---
G0 X210.0 F1380.0
G0 Y210.0
G0 X10
G0 Y10
G0 X210.0 Y210.0
G0 Z15.62 F1800.0
G0 X10 Y10 F1380.0
; --- Cycle 143 ---
G0 X210.0 F1380.0
G0 Y210.0
G0 X10
G0 Y10
G0 X210.0 Y210.0
G0 Z15.73 F1800.0
G0 X10 Y10 F1380.0
; --- Cycle 144 ---
G0 X210.0 F1380.0
G0 Y210.0
G0 X10
G0 Y10
G0 X210.0 Y210.0
G0 Z15.84 F1800.0
G0 X10 Y10 F1380.0
; --- Cycle 145 ---
G0 X210.0 F1380.0
G0 Y210.0
G0 X10
G0 Y10
G0 X210.0 Y210.0
G0 Z15.95 F1800.0
G0 X10 Y10 F1380.0
; --- Cycle 146 ---
G0 X210.0 F1380.0
G0 Y210.0
G0 X10
G0 Y10
G0 X210.0 Y210.0
G0 Z16.06 F1800.0
G0 X10 Y10 F1380.0
; --- Cycle 147 ---
G0 X210.0 F1380.0
G0 Y210.0
G0 X10
G0 Y10
G0 X210.0 Y210.0
G0 Z16.17 F1800.0
G0 X10 Y10 F1380.0
; --- Cycle 148 ---
G0 X210.0 F1380.0
G0 Y210.0
G0 X10
G0 Y10
G0 X210.0 Y210.0
G0 Z16.28 F1800.0
G0 X10 Y10 F1380.0
; --- Cycle 149 ---
G0 X210.0 F1380.0
G0 Y210.0
G0 X10
G0 Y10
G0 X210.0 Y210.0
G0 Z16.39 F1800.0
G0 X10 Y10 F1380.0
; --- Cycle 150 ---
G0 X210.0 F1380.0
G0 Y210.0
G0 X10
G0 Y10
G0 X210.0 Y210.0
G0 Z16.5 F1800.0
G0 X10 Y10 F1380.0
; --- Cycle 151 ---
G0 X210.0 F1380.0
G0 Y210.0
G0 X10
G0 Y10
G0 X210.0 Y210.0
G0 Z16.61 F1800.0
G0 X10 Y10 F1380.0
; --- Cycle 152 ---
G0 X210.0 F1380.0
G0 Y210.0
G0 X10
G0 Y10
G0 X210.0 Y210.0
G0 Z16.72 F1800.0
G0 X10 Y10 F1380.0
; --- Cycle 153 ---
G0 X210.0 F1380.0
G0 Y210.0
G0 X10
G0 Y10
G0 X210.0 Y210.0
G0 Z16.830000000000002 F1800.0
G0 X10 Y10 F1380.0
; --- Cycle 154 ---
G0 X210.0 F1380.0
G0 Y210.0
G0 X10
G0 Y10
G0 X210.0 Y210.0
G0 Z16.94 F1800.0
G0 X10 Y10 F1380.0
; --- Cycle 155 ---
G0 X210.0 F1380.0
G0 Y210.0
G0 X10
G0 Y10
G0 X210.0 Y210.0
G0 Z17.05 F1800.0
G0 X10 Y10 F1380.0
; --- Cycle 156 ---
G0 X210.0 F1380.0
G0 Y210.0
G0 X10
G0 Y10
G0 X210.0 Y210.0
G0 Z17.16 F1800.0
G0 X10 Y10 F1380.0
; --- Cycle 157 ---
G0 X210.0 F1380.0
G0 Y210.0
G0 X10
G0 Y10
G0 X210.0 Y210.0
G0 Z17.27 F1800.0
G0 X10 Y10 F1380.0
; --- Cycle 158 ---
G0 X210.0 F1380.0
G0 Y210.0
G0 X10
G0 Y10
G0 X210.0 Y210.0
G0 Z17.38 F1800.0
G0 X10 Y10 F1380.0
; --- Cycle 159 ---
G0 X210.0 F1380.0
G0 Y210.0
G0 X10
G0 Y10
G0 X210.0 Y210.0
G0 Z17.49 F1800.0
G0 X10 Y10 F1380.0
; --- Cycle 160 ---
G0 X210.0 F1380.0
G0 Y210.0
G0 X10
G0 Y10
G0 X210.0 Y210.0
G0 Z17.6 F1800.0
G0 X10 Y10 F1380.0
; --- Cycle 161 ---
G0 X210.0 F1380.0
G0 Y210.0
G0 X10
G0 Y10
G0 X210.0 Y210.0
G0 Z17.71 F1800.0
G0 X10 Y10 F1380.0
; --- Cycle 162 ---
G0 X210.0 F1380.0
G0 Y210.0
G0 X10
G0 Y10
G0 X210.0 Y210.0
G0 Z17.82 F1800.0
G0 X10 Y10 F1380.0
; --- Cycle 163 ---
G0 X210.0 F1380.0
G0 Y210.0
G0 X10
G0 Y10
G0 X210.0 Y210.0
G0 Z17.93 F1800.0
G0 X10 Y10 F1380.0
; --- Cycle 164 ---
G0 X210.0 F1380.0
G0 Y210.0
G0 X10
G0 Y10
G0 X210.0 Y210.0
G0 Z18.04 F1800.0
G0 X10 Y10 F1380.0
; --- Cycle 165 ---
G0 X210.0 F1380.0
G0 Y210.0
G0 X10
G0 Y10
G0 X210.0 Y210.0
G0 Z18.15 F1800.0
G0 X10 Y10 F1380.0
; --- Cycle 166 ---
G0 X210.0 F1380.0
G0 Y210.0
G0 X10
G0 Y10
G0 X210.0 Y210.0
G0 Z18.26 F1800.0
G0 X10 Y10 F1380.0
; --- Cycle 167 ---
G0 X210.0 F1380.0
G0 Y210.0
G0 X10
G0 Y10
G0 X210.0 Y210.0
G0 Z18.37 F1800.0
G0 X10 Y10 F1380.0
; --- Cycle 168 ---
G0 X210.0 F1380.0
G0 Y210.0
G0 X10
G0 Y10
G0 X210.0 Y210.0
G0 Z18.48 F1800.0
G0 X10 Y10 F1380.0
; --- Cycle 169 ---
G0 X210.0 F1380.0
G0 Y210.0
G0 X10
G0 Y10
G0 X210.0 Y210.0
G0 Z18.59 F1800.0
G0 X10 Y10 F1380.0
; --- Cycle 170 ---
G0 X210.0 F1380.0
G0 Y210.0
G0 X10
G0 Y10
G0 X210.0 Y210.0
G0 Z18.7 F1800.0
G0 X10 Y10 F1380.0
; --- Cycle 171 ---
G0 X210.0 F1380.0
G0 Y210.0
G0 X10
G0 Y10
G0 X210.0 Y210.0
G0 Z18.81 F1800.0
G0 X10 Y10 F1380.0
; --- Cycle 172 ---
G0 X210.0 F1380.0
G0 Y210.0
G0 X10
G0 Y10
G0 X210.0 Y210.0
G0 Z18.92 F1800.0
G0 X10 Y10 F1380.0
; --- Cycle 173 ---
G0 X210.0 F1380.0
G0 Y210.0
G0 X10
G0 Y10
G0 X210.0 Y210.0
G0 Z19.03 F1800.0
G0 X10 Y10 F1380.0
; --- Cycle 174 ---
G0 X210.0 F1380.0
G0 Y210.0
G0 X10
G0 Y10
G0 X210.0 Y210.0
G0 Z19.14 F1800.0
G0 X10 Y10 F1380.0
; --- Cycle 175 ---
G0 X210.0 F1380.0
G0 Y210.0
G0 X10
G0 Y10
G0 X210.0 Y210.0
G0 Z19.25 F1800.0
G0 X10 Y10 F1380.0
; --- Cycle 176 ---
G0 X210.0 F1380.0
G0 Y210.0
G0 X10
G0 Y10
G0 X210.0 Y210.0
G0 Z19.36 F1800.0
G0 X10 Y10 F1380.0
; --- Cycle 177 ---
G0 X210.0 F1380.0
G0 Y210.0
G0 X10
G0 Y10
G0 X210.0 Y210.0
G0 Z19.47 F1800.0
G0 X10 Y10 F1380.0
; --- Cycle 178 ---
G0 X210.0 F1380.0
G0 Y210.0
G0 X10
G0 Y10
G0 X210.0 Y210.0
G0 Z19.580000000000002 F1800.0
G0 X10 Y10 F1380.0
; --- Cycle 179 ---
G0 X210.0 F1380.0
G0 Y210.0
G0 X10
G0 Y10
G0 X210.0 Y210.0
G0 Z19.69 F1800.0
G0 X10 Y10 F1380.0
; --- Cycle 180 ---
G0 X210.0 F1380.0
G0 Y210.0
G0 X10
G0 Y10
G0 X210.0 Y210.0
G0 Z19.8 F1800.0
G0 X10 Y10 F1380.0
; --- Cycle 181 ---
G0 X210.0 F1380.0
G0 Y210.0
G0 X10
G0 Y10
G0 X210.0 Y210.0
G0 Z19.91 F1800.0
G0 X10 Y10 F1380.0
; --- Cycle 182 ---
G0 X210.0 F1380.0
G0 Y210.0
G0 X10
G0 Y10
G0 X210.0 Y210.0
G0 Z20.02 F1800.0
G0 X10 Y10 F1380.0
; --- Cycle 183 ---
G0 X210.0 F1380.0
G0 Y210.0
G0 X10
G0 Y10
G0 X210.0 Y210.0
G0 Z20.13 F1800.0
G0 X10 Y10 F1380.0
; --- Cycle 184 ---
G0 X210.0 F1380.0
G0 Y210.0
G0 X10
G0 Y10
G0 X210.0 Y210.0
G0 Z20.24 F1800.0
G0 X10 Y10 F1380.0
; --- Cycle 185 ---
G0 X210.0 F1380.0
G0 Y210.0
G0 X10
G0 Y10
G0 X210.0 Y210.0
G0 Z20.35 F1800.0
G0 X10 Y10 F1380.0
; --- Cycle 186 ---
G0 X210.0 F1380.0
G0 Y210.0
G0 X10
G0 Y10
G0 X210.0 Y210.0
G0 Z20.46 F1800.0
G0 X10 Y10 F1380.0
; --- Cycle 187 ---
G0 X210.0 F1380.0
G0 Y210.0
G0 X10
G0 Y10
G0 X210.0 Y210.0
G0 Z20.57 F1800.0
G0 X10 Y10 F1380.0
; --- Cycle 188 ---
G0 X210.0 F1380.0
G0 Y210.0
G0 X10
G0 Y10
G0 X210.0 Y210.0
G0 Z20.68 F1800.0
G0 X10 Y10 F1380.0
; --- Cycle 189 ---
G0 X210.0 F1380.0
G0 Y210.0
G0 X10
G0 Y10
G0 X210.0 Y210.0
G0 Z20.79 F1800.0
G0 X10 Y10 F1380.0
; --- Cycle 190 ---
G0 X210.0 F1380.0
G0 Y210.0
G0 X10
G0 Y10
G0 X210.0 Y210.0
G0 Z20.9 F1800.0
G0 X10 Y10 F1380.0
; --- Cycle 191 ---
G0 X210.0 F1380.0
G0 Y210.0
G0 X10
G0 Y10
G0 X210.0 Y210.0
G0 Z21.01 F1800.0
G0 X10 Y10 F1380.0
; --- Cycle 192 ---
G0 X210.0 F1380.0
G0 Y210.0
G0 X10
G0 Y10
G0 X210.0 Y210.0
G0 Z21.12 F1800.0
G0 X10 Y10 F1380.0
; --- Cycle 193 ---
G0 X210.0 F1380.0
G0 Y210.0
G0 X10
G0 Y10
G0 X210.0 Y210.0
G0 Z21.23 F1800.0
G0 X10 Y10 F1380.0
; --- Cycle 194 ---
G0 X210.0 F1380.0
G0 Y210.0
G0 X10
G0 Y10
G0 X210.0 Y210.0
G0 Z21.34 F1800.0
G0 X10 Y10 F1380.0
; --- Cycle 195 ---
G0 X210.0 F1380.0
G0 Y210.0
G0 X10
G0 Y10
G0 X210.0 Y210.0
G0 Z21.45 F1800.0
G0 X10 Y10 F1380.0
; --- Cycle 196 ---
G0 X210.0 F1380.0
G0 Y210.0
G0 X10
G0 Y10
G0 X210.0 Y210.0
G0 Z21.56 F1800.0
G0 X10 Y10 F1380.0
; --- Cycle 197 ---
G0 X210.0 F1380.0
G0 Y210.0
G0 X10
G0 Y10
G0 X210.0 Y210.0
G0 Z21.67 F1800.0
G0 X10 Y10 F1380.0
; --- Cycle 198 ---
G0 X210.0 F1380.0
G0 Y210.0
G0 X10
G0 Y10
G0 X210.0 Y210.0
G0 Z21.78 F1800.0
G0 X10 Y10 F1380.0
; --- Cycle 199 ---
G0 X210.0 F1380.0
G0 Y210.0
G0 X10
G0 Y10
G0 X210.0 Y210.0
G0 Z21.89 F1800.0
G0 X10 Y10 F1380.0
; --- Cycle 200 ---
G0 X210.0 F1380.0
G0 Y210.0
G0 X10
G0 Y10
G0 X210.0 Y210.0
G0 Z22.0 F1800.0
G0 X10 Y10 F1380.0
; --- Cycle 201 ---
G0 X210.0 F1380.0
G0 Y210.0
G0 X10
G0 Y10
G0 X210.0 Y210.0
G0 Z22.11 F1800.0
G0 X10 Y10 F1380.0
; --- Cycle 202 ---
G0 X210.0 F1380.0
G0 Y210.0
G0 X10
G0 Y10
G0 X210.0 Y210.0
G0 Z22.22 F1800.0
G0 X10 Y10 F1380.0
; --- Cycle 203 ---
G0 X210.0 F1380.0
G0 Y210.0
G0 X10
G0 Y10
G0 X210.0 Y210.0
G0 Z22.330000000000002 F1800.0
G0 X10 Y10 F1380.0
; --- Cycle 204 ---
G0 X210.0 F1380.0
G0 Y210.0
G0 X10
G0 Y10
G0 X210.0 Y210.0
G0 Z22.44 F1800.0
G0 X10 Y10 F1380.0
; --- Cycle 205 ---
G0 X210.0 F1380.0
G0 Y210.0
G0 X10
G0 Y10
G0 X210.0 Y210.0
G0 Z22.55 F1800.0
G0 X10 Y10 F1380.0
; --- Cycle 206 ---
G0 X210.0 F1380.0
G0 Y210.0
G0 X10
G0 Y10
G0 X210.0 Y210.0
G0 Z22.66 F1800.0
G0 X10 Y10 F1380.0
; --- Cycle 207 ---
G0 X210.0 F1380.0
G0 Y210.0
G0 X10
G0 Y10
G0 X210.0 Y210.0
G0 Z22.77 F1800.0
G0 X10 Y10 F1380.0
; --- Cycle 208 ---
G0 X210.0 F1380.0
G0 Y210.0
G0 X10
G0 Y10
G0 X210.0 Y210.0
G0 Z22.88 F1800.0
G0 X10 Y10 F1380.0
; --- Cycle 209 ---
G0 X210.0 F1380.0
G0 Y210.0
G0 X10
G0 Y10
G0 X210.0 Y210.0
G0 Z22.99 F1800.0
G0 X10 Y10 F1380.0
; --- Cycle 210 ---
G0 X210.0 F1380.0
G0 Y210.0
G0 X10
G0 Y10
G0 X210.0 Y210.0
G0 Z23.1 F1800.0
G0 X10 Y10 F1380.0
; --- Cycle 211 ---
G0 X210.0 F1380.0
G0 Y210.0
G0 X10
G0 Y10
G0 X210.0 Y210.0
G0 Z23.21 F1800.0
G0 X10 Y10 F1380.0
; --- Cycle 212 ---
G0 X210.0 F1380.0
G0 Y210.0
G0 X10
G0 Y10
G0 X210.0 Y210.0
G0 Z23.32 F1800.0
G0 X10 Y10 F1380.0
; --- Cycle 213 ---
G0 X210.0 F1380.0
G0 Y210.0
G0 X10
G0 Y10
G0 X210.0 Y210.0
G0 Z23.43 F1800.0
G0 X10 Y10 F1380.0
; --- Cycle 214 ---
G0 X210.0 F1380.0
G0 Y210.0
G0 X10
G0 Y10
G0 X210.0 Y210.0
G0 Z23.54 F1800.0
G0 X10 Y10 F1380.0
; --- Cycle 215 ---
G0 X210.0 F1380.0
G0 Y210.0
G0 X10
G0 Y10
G0 X210.0 Y210.0
G0 Z23.65 F1800.0
G0 X10 Y10 F1380.0
; --- Cycle 216 ---
G0 X210.0 F1380.0
G0 Y210.0
G0 X10
G0 Y10
G0 X210.0 Y210.0
G0 Z23.76 F1800.0
G0 X10 Y10 F1380.0
; --- Cycle 217 ---
G0 X210.0 F1380.0
G0 Y210.0
G0 X10
G0 Y10
G0 X210.0 Y210.0
G0 Z23.87 F1800.0
G0 X10 Y10 F1380.0
; --- Cycle 218 ---
G0 X210.0 F1380.0
G0 Y210.0
G0 X10
G0 Y10
G0 X210.0 Y210.0
G0 Z23.98 F1800.0
G0 X10 Y10 F1380.0
; --- Cycle 219 ---
G0 X210.0 F1380.0
G0 Y210.0
G0 X10
G0 Y10
G0 X210.0 Y210.0
G0 Z24.09 F1800.0
G0 X10 Y10 F1380.0
; --- Cycle 220 ---
G0 X210.0 F1380.0
G0 Y210.0
G0 X10
G0 Y10
G0 X210.0 Y210.0
G0 Z24.2 F1800.0
G0 X10 Y10 F1380.0
; --- Cycle 221 ---
G0 X210.0 F1380.0
G0 Y210.0
G0 X10
G0 Y10
G0 X210.0 Y210.0
G0 Z24.31 F1800.0
G0 X10 Y10 F1380.0
; --- Cycle 222 ---
G0 X210.0 F1380.0
G0 Y210.0
G0 X10
G0 Y10
G0 X210.0 Y210.0
G0 Z24.42 F1800.0
G0 X10 Y10 F1380.0
; --- Cycle 223 ---
G0 X210.0 F1380.0
G0 Y210.0
G0 X10
G0 Y10
G0 X210.0 Y210.0
G0 Z24.53 F1800.0
G0 X10 Y10 F1380.0
; --- Cycle 224 ---
G0 X210.0 F1380.0
G0 Y210.0
G0 X10
G0 Y10
G0 X210.0 Y210.0
G0 Z24.64 F1800.0
G0 X10 Y10 F1380.0
; --- Cycle 225 ---
G0 X210.0 F1380.0
G0 Y210.0
G0 X10
G0 Y10
G0 X210.0 Y210.0
G0 Z24.75 F1800.0
G0 X10 Y10 F1380.0
; --- Cycle 226 ---
G0 X210.0 F1380.0
G0 Y210.0
G0 X10
G0 Y10
G0 X210.0 Y210.0
G0 Z24.86 F1800.0
G0 X10 Y10 F1380.0
; --- Cycle 227 ---
G0 X210.0 F1380.0
G0 Y210.0
G0 X10
G0 Y10
G0 X210.0 Y210.0
G0 Z24.97 F1800.0
G0 X10 Y10 F1380.0
; --- Cycle 228 ---
G0 X210.0 F1380.0
G0 Y210.0
G0 X10
G0 Y10
G0 X210.0 Y210.0
G0 Z25.080000000000002 F1800.0
G0 X10 Y10 F1380.0
; --- Cycle 229 ---
G0 X210.0 F1380.0
G0 Y210.0
G0 X10
G0 Y10
G0 X210.0 Y210.0
G0 Z25.19 F1800.0
G0 X10 Y10 F1380.0
; --- Cycle 230 ---
G0 X210.0 F1380.0
G0 Y210.0
G0 X10
G0 Y10
G0 X210.0 Y210.0
G0 Z25.3 F1800.0
G0 X10 Y10 F1380.0
; --- Cycle 231 ---
G0 X210.0 F1380.0
G0 Y210.0
G0 X10
G0 Y10
G0 X210.0 Y210.0
G0 Z25.41 F1800.0
G0 X10 Y10 F1380.0
; --- Cycle 232 ---
G0 X210.0 F1380.0
G0 Y210.0
G0 X10
G0 Y10
G0 X210.0 Y210.0
G0 Z25.52 F1800.0
G0 X10 Y10 F1380.0
; --- Cycle 233 ---
G0 X210.0 F1380.0
G0 Y210.0
G0 X10
G0 Y10
G0 X210.0 Y210.0
G0 Z25.63 F1800.0
G0 X10 Y10 F1380.0
; --- Cycle 234 ---
G0 X210.0 F1380.0
G0 Y210.0
G0 X10
G0 Y10
G0 X210.0 Y210.0
G0 Z25.74 F1800.0
G0 X10 Y10 F1380.0
; --- Cycle 235 ---
G0 X210.0 F1380.0
G0 Y210.0
G0 X10
G0 Y10
G0 X210.0 Y210.0
G0 Z25.85 F1800.0
G0 X10 Y10 F1380.0
; --- Cycle 236 ---
G0 X210.0 F1380.0
G0 Y210.0
G0 X10
G0 Y10
G0 X210.0 Y210.0
G0 Z25.96 F1800.0
G0 X10 Y10 F1380.0
; --- Cycle 237 ---
G0 X210.0 F1380.0
G0 Y210.0
G0 X10
G0 Y10
G0 X210.0 Y210.0
G0 Z26.07 F1800.0
G0 X10 Y10 F1380.0
; --- Cycle 238 ---
G0 X210.0 F1380.0
G0 Y210.0
G0 X10
G0 Y10
G0 X210.0 Y210.0
G0 Z26.18 F1800.0
G0 X10 Y10 F1380.0
; --- Cycle 239 ---
G0 X210.0 F1380.0
G0 Y210.0
G0 X10
G0 Y10
G0 X210.0 Y210.0
G0 Z26.29 F1800.0
G0 X10 Y10 F1380.0
; --- Cycle 240 ---
G0 X210.0 F1380.0
G0 Y210.0
G0 X10
G0 Y10
G0 X210.0 Y210.0
G0 Z26.4 F1800.0
G0 X10 Y10 F1380.0
; --- Cycle 241 ---
G0 X210.0 F1380.0
G0 Y210.0
G0 X10
G0 Y10
G0 X210.0 Y210.0
G0 Z26.51 F1800.0
G0 X10 Y10 F1380.0
; --- Cycle 242 ---
G0 X210.0 F1380.0
G0 Y210.0
G0 X10
G0 Y10
G0 X210.0 Y210.0
G0 Z26.62 F1800.0
G0 X10 Y10 F1380.0
; --- Cycle 243 ---
G0 X210.0 F1380.0
G0 Y210.0
G0 X10
G0 Y10
G0 X210.0 Y210.0
G0 Z26.73 F1800.0
G0 X10 Y10 F1380.0
; --- Cycle 244 ---
G0 X210.0 F1380.0
G0 Y210.0
G0 X10
G0 Y10
G0 X210.0 Y210.0
G0 Z26.84 F1800.0
G0 X10 Y10 F1380.0
; --- Cycle 245 ---
G0 X210.0 F1380.0
G0 Y210.0
G0 X10
G0 Y10
G0 X210.0 Y210.0
G0 Z26.95 F1800.0
G0 X10 Y10 F1380.0
; --- Cycle 246 ---
G0 X210.0 F1380.0
G0 Y210.0
G0 X10
G0 Y10
G0 X210.0 Y210.0
G0 Z27.06 F1800.0
G0 X10 Y10 F1380.0
; --- Cycle 247 ---
G0 X210.0 F1380.0
G0 Y210.0
G0 X10
G0 Y10
G0 X210.0 Y210.0
G0 Z27.17 F1800.0
G0 X10 Y10 F1380.0
; --- Cycle 248 ---
G0 X210.0 F1380.0
G0 Y210.0
G0 X10
G0 Y10
G0 X210.0 Y210.0
G0 Z27.28 F1800.0
G0 X10 Y10 F1380.0
; --- Cycle 249 ---
G0 X210.0 F1380.0
G0 Y210.0
G0 X10
G0 Y10
G0 X210.0 Y210.0
G0 Z27.39 F1800.0
G0 X10 Y10 F1380.0
; --- Cycle 250 ---
G0 X210.0 F1380.0
G0 Y210.0
G0 X10
G0 Y10
G0 X210.0 Y210.0
G0 Z27.5 F1800.0
G0 X10 Y10 F1380.0
; --- Cycle 251 ---
G0 X210.0 F1380.0
G0 Y210.0
G0 X10
G0 Y10
G0 X210.0 Y210.0
G0 Z27.61 F1800.0
G0 X10 Y10 F1380.0
; --- Cycle 252 ---
G0 X210.0 F1380.0
G0 Y210.0
G0 X10
G0 Y10
G0 X210.0 Y210.0
G0 Z27.72 F1800.0
G0 X10 Y10 F1380.0
; --- Cycle 253 ---
G0 X210.0 F1380.0
G0 Y210.0
G0 X10
G0 Y10
G0 X210.0 Y210.0
G0 Z27.830000000000002 F1800.0
G0 X10 Y10 F1380.0
; --- Cycle 254 ---
G0 X210.0 F1380.0
G0 Y210.0
G0 X10
G0 Y10
G0 X210.0 Y210.0
G0 Z27.94 F1800.0
G0 X10 Y10 F1380.0
; --- Cycle 255 ---
G0 X210.0 F1380.0
G0 Y210.0
G0 X10
G0 Y10
G0 X210.0 Y210.0
G0 Z28.05 F1800.0
G0 X10 Y10 F1380.0
; --- Cycle 256 ---
G0 X210.0 F1380.0
G0 Y210.0
G0 X10
G0 Y10
G0 X210.0 Y210.0
G0 Z28.16 F1800.0
G0 X10 Y10 F1380.0
; --- Cycle 257 ---
G0 X210.0 F1380.0
G0 Y210.0
G0 X10
G0 Y10
G0 X210.0 Y210.0
G0 Z28.27 F1800.0
G0 X10 Y10 F1380.0
; --- Cycle 258 ---
G0 X210.0 F1380.0
G0 Y210.0
G0 X10
G0 Y10
G0 X210.0 Y210.0
G0 Z28.38 F1800.0
G0 X10 Y10 F1380.0
; --- Cycle 259 ---
G0 X210.0 F1380.0
G0 Y210.0
G0 X10
G0 Y10
G0 X210.0 Y210.0
G0 Z28.49 F1800.0
G0 X10 Y10 F1380.0
; --- Cycle 260 ---
G0 X210.0 F1380.0
G0 Y210.0
G0 X10
G0 Y10
G0 X210.0 Y210.0
G0 Z28.6 F1800.0
G0 X10 Y10 F1380.0
; --- Cycle 261 ---
G0 X210.0 F1380.0
G0 Y210.0
G0 X10
G0 Y10
G0 X210.0 Y210.0
G0 Z28.71 F1800.0
G0 X10 Y10 F1380.0
; --- Cycle 262 ---
G0 X210.0 F1380.0
G0 Y210.0
G0 X10
G0 Y10
G0 X210.0 Y210.0
G0 Z28.82 F1800.0
G0 X10 Y10 F1380.0
; --- Cycle 263 ---
G0 X210.0 F1380.0
G0 Y210.0
G0 X10
G0 Y10
G0 X210.0 Y210.0
G0 Z28.93 F1800.0
G0 X10 Y10 F1380.0
; --- Cycle 264 ---
G0 X210.0 F1380.0
G0 Y210.0
G0 X10
G0 Y10
G0 X210.0 Y210.0
G0 Z29.04 F1800.0
G0 X10 Y10 F1380.0
; --- Cycle 265 ---
G0 X210.0 F1380.0
G0 Y210.0
G0 X10
G0 Y10
G0 X210.0 Y210.0
G0 Z29.15 F1800.0
G0 X10 Y10 F1380.0
; --- Cycle 266 ---
G0 X210.0 F1380.0
G0 Y210.0
G0 X10
G0 Y10
G0 X210.0 Y210.0
G0 Z29.26 F1800.0
G0 X10 Y10 F1380.0
; --- Cycle 267 ---
G0 X210.0 F1380.0
G0 Y210.0
G0 X10
G0 Y10
G0 X210.0 Y210.0
G0 Z29.37 F1800.0
G0 X10 Y10 F1380.0
; --- Cycle 268 ---
G0 X210.0 F1380.0
G0 Y210.0
G0 X10
G0 Y10
G0 X210.0 Y210.0
G0 Z29.48 F1800.0
G0 X10 Y10 F1380.0
; --- Cycle 269 ---
G0 X210.0 F1380.0
G0 Y210.0
G0 X10
G0 Y10
G0 X210.0 Y210.0
G0 Z29.59 F1800.0
G0 X10 Y10 F1380.0
; --- Cycle 270 ---
G0 X210.0 F1380.0
G0 Y210.0
G0 X10
G0 Y10
G0 X210.0 Y210.0
G0 Z29.7 F1800.0
G0 X10 Y10 F1380.0
; --- Cycle 271 ---
G0 X210.0 F1380.0
G0 Y210.0
G0 X10
G0 Y10
G0 X210.0 Y210.0
G0 Z29.81 F1800.0
G0 X10 Y10 F1380.0
; --- Cycle 272 ---
G0 X210.0 F1380.0
G0 Y210.0
G0 X10
G0 Y10
G0 X210.0 Y210.0
G0 Z29.92 F1800.0
G0 X10 Y10 F1380.0
; --- Cycle 273 ---
G0 X210.0 F1380.0
G0 Y210.0
G0 X10
G0 Y10
G0 X210.0 Y210.0
G0 Z30.03 F1800.0
G0 X10 Y10 F1380.0
; --- Cycle 274 ---
G0 X210.0 F1380.0
G0 Y210.0
G0 X10
G0 Y10
G0 X210.0 Y210.0
G0 Z30.14 F1800.0
G0 X10 Y10 F1380.0
; --- Cycle 275 ---
G0 X210.0 F1380.0
G0 Y210.0
G0 X10
G0 Y10
G0 X210.0 Y210.0
G0 Z30.25 F1800.0
G0 X10 Y10 F1380.0
; --- Cycle 276 ---
G0 X210.0 F1380.0
G0 Y210.0
G0 X10
G0 Y10
G0 X210.0 Y210.0
G0 Z30.36 F1800.0
G0 X10 Y10 F1380.0
; --- Cycle 277 ---
G0 X210.0 F1380.0
G0 Y210.0
G0 X10
G0 Y10
G0 X210.0 Y210.0
G0 Z30.47 F1800.0
G0 X10 Y10 F1380.0
; --- Cycle 278 ---
G0 X210.0 F1380.0
G0 Y210.0
G0 X10
G0 Y10
G0 X210.0 Y210.0
G0 Z30.580000000000002 F1800.0
G0 X10 Y10 F1380.0
; --- Cycle 279 ---
G0 X210.0 F1380.0
G0 Y210.0
G0 X10
G0 Y10
G0 X210.0 Y210.0
G0 Z30.69 F1800.0
G0 X10 Y10 F1380.0
; --- Cycle 280 ---
G0 X210.0 F1380.0
G0 Y210.0
G0 X10
G0 Y10
G0 X210.0 Y210.0
G0 Z30.8 F1800.0
G0 X10 Y10 F1380.0
; --- Cycle 281 ---
G0 X210.0 F1380.0
G0 Y210.0
G0 X10
G0 Y10
G0 X210.0 Y210.0
G0 Z30.91 F1800.0
G0 X10 Y10 F1380.0
; --- Cycle 282 ---
G0 X210.0 F1380.0
G0 Y210.0
G0 X10
G0 Y10
G0 X210.0 Y210.0
G0 Z31.02 F1800.0
G0 X10 Y10 F1380.0
; --- Cycle 283 ---
G0 X210.0 F1380.0
G0 Y210.0
G0 X10
G0 Y10
G0 X210.0 Y210.0
G0 Z31.13 F1800.0
G0 X10 Y10 F1380.0
; --- Cycle 284 ---
G0 X210.0 F1380.0
G0 Y210.0
G0 X10
G0 Y10
G0 X210.0 Y210.0
G0 Z31.24 F1800.0
G0 X10 Y10 F1380.0
; --- Cycle 285 ---
G0 X210.0 F1380.0
G0 Y210.0
G0 X10
G0 Y10
G0 X210.0 Y210.0
G0 Z31.35 F1800.0
G0 X10 Y10 F1380.0
; --- Cycle 286 ---
G0 X210.0 F1380.0
G0 Y210.0
G0 X10
G0 Y10
G0 X210.0 Y210.0
G0 Z31.46 F1800.0
G0 X10 Y10 F1380.0
; --- Cycle 287 ---
G0 X210.0 F1380.0
G0 Y210.0
G0 X10
G0 Y10
G0 X210.0 Y210.0
G0 Z31.57 F1800.0
G0 X10 Y10 F1380.0
; --- Cycle 288 ---
G0 X210.0 F1380.0
G0 Y210.0
G0 X10
G0 Y10
G0 X210.0 Y210.0
G0 Z31.68 F1800.0
G0 X10 Y10 F1380.0
; --- Cycle 289 ---
G0 X210.0 F1380.0
G0 Y210.0
G0 X10
G0 Y10
G0 X210.0 Y210.0
G0 Z31.79 F1800.0
G0 X10 Y10 F1380.0
; --- Cycle 290 ---
G0 X210.0 F1380.0
G0 Y210.0
G0 X10
G0 Y10
G0 X210.0 Y210.0
G0 Z31.9 F1800.0
G0 X10 Y10 F1380.0
; --- Cycle 291 ---
G0 X210.0 F1380.0
G0 Y210.0
G0 X10
G0 Y10
G0 X210.0 Y210.0
G0 Z32.01 F1800.0
G0 X10 Y10 F1380.0
; --- Cycle 292 ---
G0 X210.0 F1380.0
G0 Y210.0
G0 X10
G0 Y10
G0 X210.0 Y210.0
G0 Z32.12 F1800.0
G0 X10 Y10 F1380.0
; --- Cycle 293 ---
G0 X210.0 F1380.0
G0 Y210.0
G0 X10
G0 Y10
G0 X210.0 Y210.0
G0 Z32.23 F1800.0
G0 X10 Y10 F1380.0
; --- Cycle 294 ---
G0 X210.0 F1380.0
G0 Y210.0
G0 X10
G0 Y10
G0 X210.0 Y210.0
G0 Z32.34 F1800.0
G0 X10 Y10 F1380.0
; --- Cycle 295 ---
G0 X210.0 F1380.0
G0 Y210.0
G0 X10
G0 Y10
G0 X210.0 Y210.0
G0 Z32.45 F1800.0
G0 X10 Y10 F1380.0
; --- Cycle 296 ---
G0 X210.0 F1380.0
G0 Y210.0
G0 X10
G0 Y10
G0 X210.0 Y210.0
G0 Z32.56 F1800.0
G0 X10 Y10 F1380.0
; --- Cycle 297 ---
G0 X210.0 F1380.0
G0 Y210.0
G0 X10
G0 Y10
G0 X210.0 Y210.0
G0 Z32.67 F1800.0
G0 X10 Y10 F1380.0
; --- Cycle 298 ---
G0 X210.0 F1380.0
G0 Y210.0
G0 X10
G0 Y10
G0 X210.0 Y210.0
G0 Z32.78 F1800.0
G0 X10 Y10 F1380.0
; --- Cycle 299 ---
G0 X210.0 F1380.0
G0 Y210.0
G0 X10
G0 Y10
G0 X210.0 Y210.0
G0 Z32.89 F1800.0
G0 X10 Y10 F1380.0
; --- Cycle 300 ---
G0 X210.0 F1380.0
G0 Y210.0
G0 X10
G0 Y10
G0 X210.0 Y210.0
G0 Z33.0 F1800.0
G0 X10 Y10 F1380.0
; --- Cycle 301 ---
G0 X210.0 F1380.0
G0 Y210.0
G0 X10
G0 Y10
G0 X210.0 Y210.0
G0 Z33.11 F1800.0
G0 X10 Y10 F1380.0
; --- Cycle 302 ---
G0 X210.0 F1380.0
G0 Y210.0
G0 X10
G0 Y10
G0 X210.0 Y210.0
G0 Z33.22 F1800.0
G0 X10 Y10 F1380.0
; --- Cycle 303 ---
G0 X210.0 F1380.0
G0 Y210.0
G0 X10
G0 Y10
G0 X210.0 Y210.0
G0 Z33.33 F1800.0
G0 X10 Y10 F1380.0
; --- Cycle 304 ---
G0 X210.0 F1380.0
G0 Y210.0
G0 X10
G0 Y10
G0 X210.0 Y210.0
G0 Z33.44 F1800.0
G0 X10 Y10 F1380.0
; --- Cycle 305 ---
G0 X210.0 F1380.0
G0 Y210.0
G0 X10
G0 Y10
G0 X210.0 Y210.0
G0 Z33.55 F1800.0
G0 X10 Y10 F1380.0
; --- Cycle 306 ---
G0 X210.0 F1380.0
G0 Y210.0
G0 X10
G0 Y10
G0 X210.0 Y210.0
G0 Z33.660000000000004 F1800.0
G0 X10 Y10 F1380.0
; --- Cycle 307 ---
G0 X210.0 F1380.0
G0 Y210.0
G0 X10
G0 Y10
G0 X210.0 Y210.0
G0 Z33.77 F1800.0
G0 X10 Y10 F1380.0
; --- Cycle 308 ---
G0 X210.0 F1380.0
G0 Y210.0
G0 X10
G0 Y10
G0 X210.0 Y210.0
G0 Z33.88 F1800.0
G0 X10 Y10 F1380.0
; --- Cycle 309 ---
G0 X210.0 F1380.0
G0 Y210.0
G0 X10
G0 Y10
G0 X210.0 Y210.0
G0 Z33.99 F1800.0
G0 X10 Y10 F1380.0
; --- Cycle 310 ---
G0 X210.0 F1380.0
G0 Y210.0
G0 X10
G0 Y10
G0 X210.0 Y210.0
G0 Z34.1 F1800.0
G0 X10 Y10 F1380.0
; --- Cycle 311 ---
G0 X210.0 F1380.0
G0 Y210.0
G0 X10
G0 Y10
G0 X210.0 Y210.0
G0 Z34.21 F1800.0
G0 X10 Y10 F1380.0
; --- Cycle 312 ---
G0 X210.0 F1380.0
G0 Y210.0
G0 X10
G0 Y10
G0 X210.0 Y210.0
G0 Z34.32 F1800.0
G0 X10 Y10 F1380.0
; --- Cycle 313 ---
G0 X210.0 F1380.0
G0 Y210.0
G0 X10
G0 Y10
G0 X210.0 Y210.0
G0 Z34.43 F1800.0
G0 X10 Y10 F1380.0
; --- Cycle 314 ---
G0 X210.0 F1380.0
G0 Y210.0
G0 X10
G0 Y10
G0 X210.0 Y210.0
G0 Z34.54 F1800.0
G0 X10 Y10 F1380.0
; --- Cycle 315 ---
G0 X210.0 F1380.0
G0 Y210.0
G0 X10
G0 Y10
G0 X210.0 Y210.0
G0 Z34.65 F1800.0
G0 X10 Y10 F1380.0
; --- Cycle 316 ---
G0 X210.0 F1380.0
G0 Y210.0
G0 X10
G0 Y10
G0 X210.0 Y210.0
G0 Z34.76 F1800.0
G0 X10 Y10 F1380.0
; --- Cycle 317 ---
G0 X210.0 F1380.0
G0 Y210.0
G0 X10
G0 Y10
G0 X210.0 Y210.0
G0 Z34.87 F1800.0
G0 X10 Y10 F1380.0
; --- Cycle 318 ---
G0 X210.0 F1380.0
G0 Y210.0
G0 X10
G0 Y10
G0 X210.0 Y210.0
G0 Z34.98 F1800.0
G0 X10 Y10 F1380.0
; --- Cycle 319 ---
G0 X210.0 F1380.0
G0 Y210.0
G0 X10
G0 Y10
G0 X210.0 Y210.0
G0 Z35.09 F1800.0
G0 X10 Y10 F1380.0
; --- Cycle 320 ---
G0 X210.0 F1380.0
G0 Y210.0
G0 X10
G0 Y10
G0 X210.0 Y210.0
G0 Z35.2 F1800.0
G0 X10 Y10 F1380.0
; --- Cycle 321 ---
G0 X210.0 F1380.0
G0 Y210.0
G0 X10
G0 Y10
G0 X210.0 Y210.0
G0 Z35.31 F1800.0
G0 X10 Y10 F1380.0
; --- Cycle 322 ---
G0 X210.0 F1380.0
G0 Y210.0
G0 X10
G0 Y10
G0 X210.0 Y210.0
G0 Z35.42 F1800.0
G0 X10 Y10 F1380.0
; --- Cycle 323 ---
G0 X210.0 F1380.0
G0 Y210.0
G0 X10
G0 Y10
G0 X210.0 Y210.0
G0 Z35.53 F1800.0
G0 X10 Y10 F1380.0
; --- Cycle 324 ---
G0 X210.0 F1380.0
G0 Y210.0
G0 X10
G0 Y10
G0 X210.0 Y210.0
G0 Z35.64 F1800.0
G0 X10 Y10 F1380.0
; --- Cycle 325 ---
G0 X210.0 F1380.0
G0 Y210.0
G0 X10
G0 Y10
G0 X210.0 Y210.0
G0 Z35.75 F1800.0
G0 X10 Y10 F1380.0
; --- Cycle 326 ---
G0 X210.0 F1380.0
G0 Y210.0
G0 X10
G0 Y10
G0 X210.0 Y210.0
G0 Z35.86 F1800.0
G0 X10 Y10 F1380.0
; --- Cycle 327 ---
G0 X210.0 F1380.0
G0 Y210.0
G0 X10
G0 Y10
G0 X210.0 Y210.0
G0 Z35.97 F1800.0
G0 X10 Y10 F1380.0
; --- Cycle 328 ---
G0 X210.0 F1380.0
G0 Y210.0
G0 X10
G0 Y10
G0 X210.0 Y210.0
G0 Z36.08 F1800.0
G0 X10 Y10 F1380.0
; --- Cycle 329 ---
G0 X210.0 F1380.0
G0 Y210.0
G0 X10
G0 Y10
G0 X210.0 Y210.0
G0 Z36.19 F1800.0
G0 X10 Y10 F1380.0
; --- Cycle 330 ---
G0 X210.0 F1380.0
G0 Y210.0
G0 X10
G0 Y10
G0 X210.0 Y210.0
G0 Z36.3 F1800.0
G0 X10 Y10 F1380.0
; --- Cycle 331 ---
G0 X210.0 F1380.0
G0 Y210.0
G0 X10
G0 Y10
G0 X210.0 Y210.0
G0 Z36.410000000000004 F1800.0
G0 X10 Y10 F1380.0
; --- Cycle 332 ---
G0 X210.0 F1380.0
G0 Y210.0
G0 X10
G0 Y10
G0 X210.0 Y210.0
G0 Z36.52 F1800.0
G0 X10 Y10 F1380.0
; --- Cycle 333 ---
G0 X210.0 F1380.0
G0 Y210.0
G0 X10
G0 Y10
G0 X210.0 Y210.0
G0 Z36.63 F1800.0
G0 X10 Y10 F1380.0
; --- Cycle 334 ---
G0 X210.0 F1380.0
G0 Y210.0
G0 X10
G0 Y10
G0 X210.0 Y210.0
G0 Z36.74 F1800.0
G0 X10 Y10 F1380.0
; --- Cycle 335 ---
G0 X210.0 F1380.0
G0 Y210.0
G0 X10
G0 Y10
G0 X210.0 Y210.0
G0 Z36.85 F1800.0
G0 X10 Y10 F1380.0
; --- Cycle 336 ---
G0 X210.0 F1380.0
G0 Y210.0
G0 X10
G0 Y10
G0 X210.0 Y210.0
G0 Z36.96 F1800.0
G0 X10 Y10 F1380.0
; --- Cycle 337 ---
G0 X210.0 F1380.0
G0 Y210.0
G0 X10
G0 Y10
G0 X210.0 Y210.0
G0 Z37.07 F1800.0
G0 X10 Y10 F1380.0
; --- Cycle 338 ---
G0 X210.0 F1380.0
G0 Y210.0
G0 X10
G0 Y10
G0 X210.0 Y210.0
G0 Z37.18 F1800.0
G0 X10 Y10 F1380.0
; --- Cycle 339 ---
G0 X210.0 F1380.0
G0 Y210.0
G0 X10
G0 Y10
G0 X210.0 Y210.0
G0 Z37.29 F1800.0
G0 X10 Y10 F1380.0
; --- Cycle 340 ---
G0 X210.0 F1380.0
G0 Y210.0
G0 X10
G0 Y10
G0 X210.0 Y210.0
G0 Z37.4 F1800.0
G0 X10 Y10 F1380.0
; --- Cycle 341 ---
G0 X210.0 F1380.0
G0 Y210.0
G0 X10
G0 Y10
G0 X210.0 Y210.0
G0 Z37.51 F1800.0
G0 X10 Y10 F1380.0
; --- Cycle 342 ---
G0 X210.0 F1380.0
G0 Y210.0
G0 X10
G0 Y10
G0 X210.0 Y210.0
G0 Z37.62 F1800.0
G0 X10 Y10 F1380.0
; --- Cycle 343 ---
G0 X210.0 F1380.0
G0 Y210.0
G0 X10
G0 Y10
G0 X210.0 Y210.0
G0 Z37.73 F1800.0
G0 X10 Y10 F1380.0
; --- Cycle 344 ---
G0 X210.0 F1380.0
G0 Y210.0
G0 X10
G0 Y10
G0 X210.0 Y210.0
G0 Z37.84 F1800.0
G0 X10 Y10 F1380.0
; --- Cycle 345 ---
G0 X210.0 F1380.0
G0 Y210.0
G0 X10
G0 Y10
G0 X210.0 Y210.0
G0 Z37.95 F1800.0
G0 X10 Y10 F1380.0
; --- Cycle 346 ---
G0 X210.0 F1380.0
G0 Y210.0
G0 X10
G0 Y10
G0 X210.0 Y210.0
G0 Z38.06 F1800.0
G0 X10 Y10 F1380.0
; --- Cycle 347 ---
G0 X210.0 F1380.0
G0 Y210.0
G0 X10
G0 Y10
G0 X210.0 Y210.0
G0 Z38.17 F1800.0
G0 X10 Y10 F1380.0
; --- Cycle 348 ---
G0 X210.0 F1380.0
G0 Y210.0
G0 X10
G0 Y10
G0 X210.0 Y210.0
G0 Z38.28 F1800.0
G0 X10 Y10 F1380.0
; --- Cycle 349 ---
G0 X210.0 F1380.0
G0 Y210.0
G0 X10
G0 Y10
G0 X210.0 Y210.0
G0 Z38.39 F1800.0
G0 X10 Y10 F1380.0
; --- Cycle 350 ---
G0 X210.0 F1380.0
G0 Y210.0
G0 X10
G0 Y10
G0 X210.0 Y210.0
G0 Z38.5 F1800.0
G0 X10 Y10 F1380.0
; --- Cycle 351 ---
G0 X210.0 F1380.0
G0 Y210.0
G0 X10
G0 Y10
G0 X210.0 Y210.0
G0 Z38.61 F1800.0
G0 X10 Y10 F1380.0
; --- Cycle 352 ---
G0 X210.0 F1380.0
G0 Y210.0
G0 X10
G0 Y10
G0 X210.0 Y210.0
G0 Z38.72 F1800.0
G0 X10 Y10 F1380.0
; --- Cycle 353 ---
G0 X210.0 F1380.0
G0 Y210.0
G0 X10
G0 Y10
G0 X210.0 Y210.0
G0 Z38.83 F1800.0
G0 X10 Y10 F1380.0
; --- Cycle 354 ---
G0 X210.0 F1380.0
G0 Y210.0
G0 X10
G0 Y10
G0 X210.0 Y210.0
G0 Z38.94 F1800.0
G0 X10 Y10 F1380.0
; --- Cycle 355 ---
G0 X210.0 F1380.0
G0 Y210.0
G0 X10
G0 Y10
G0 X210.0 Y210.0
G0 Z39.05 F1800.0
G0 X10 Y10 F1380.0
; --- Cycle 356 ---
G0 X210.0 F1380.0
G0 Y210.0
G0 X10
G0 Y10
G0 X210.0 Y210.0
G0 Z39.160000000000004 F1800.0
G0 X10 Y10 F1380.0
; --- Cycle 357 ---
G0 X210.0 F1380.0
G0 Y210.0
G0 X10
G0 Y10
G0 X210.0 Y210.0
G0 Z39.27 F1800.0
G0 X10 Y10 F1380.0
; --- Cycle 358 ---
G0 X210.0 F1380.0
G0 Y210.0
G0 X10
G0 Y10
G0 X210.0 Y210.0
G0 Z39.38 F1800.0
G0 X10 Y10 F1380.0
; --- Cycle 359 ---
G0 X210.0 F1380.0
G0 Y210.0
G0 X10
G0 Y10
G0 X210.0 Y210.0
G0 Z39.49 F1800.0
G0 X10 Y10 F1380.0
; --- Cycle 360 ---
G0 X210.0 F1380.0
G0 Y210.0
G0 X10
G0 Y10
G0 X210.0 Y210.0
G0 Z39.6 F1800.0
G0 X10 Y10 F1380.0
; --- Cycle 361 ---
G0 X210.0 F1380.0
G0 Y210.0
G0 X10
G0 Y10
G0 X210.0 Y210.0
G0 Z39.71 F1800.0
G0 X10 Y10 F1380.0
; --- Cycle 362 ---
G0 X210.0 F1380.0
G0 Y210.0
G0 X10
G0 Y10
G0 X210.0 Y210.0
G0 Z39.82 F1800.0
G0 X10 Y10 F1380.0
; --- Cycle 363 ---
G0 X210.0 F1380.0
G0 Y210.0
G0 X10
G0 Y10
G0 X210.0 Y210.0
G0 Z39.93 F1800.0
G0 X10 Y10 F1380.0
; --- Cycle 364 ---
G0 X210.0 F1380.0
G0 Y210.0
G0 X10
G0 Y10
G0 X210.0 Y210.0
G0 Z40.04 F1800.0
G0 X10 Y10 F1380.0
; --- Cycle 365 ---
G0 X210.0 F1380.0
G0 Y210.0
G0 X10
G0 Y10
G0 X210.0 Y210.0
G0 Z40.15 F1800.0
G0 X10 Y10 F1380.0
; --- Cycle 366 ---
G0 X210.0 F1380.0
G0 Y210.0
G0 X10
G0 Y10
G0 X210.0 Y210.0
G0 Z40.26 F1800.0
G0 X10 Y10 F1380.0
; --- Cycle 367 ---
G0 X210.0 F1380.0
G0 Y210.0
G0 X10
G0 Y10
G0 X210.0 Y210.0
G0 Z40.37 F1800.0
G0 X10 Y10 F1380.0
; --- Cycle 368 ---
G0 X210.0 F1380.0
G0 Y210.0
G0 X10
G0 Y10
G0 X210.0 Y210.0
G0 Z40.48 F1800.0
G0 X10 Y10 F1380.0
; --- Cycle 369 ---
G0 X210.0 F1380.0
G0 Y210.0
G0 X10
G0 Y10
G0 X210.0 Y210.0
G0 Z40.59 F1800.0
G0 X10 Y10 F1380.0
; --- Cycle 370 ---
G0 X210.0 F1380.0
G0 Y210.0
G0 X10
G0 Y10
G0 X210.0 Y210.0
G0 Z40.7 F1800.0
G0 X10 Y10 F1380.0
; --- Cycle 371 ---
G0 X210.0 F1380.0
G0 Y210.0
G0 X10
G0 Y10
G0 X210.0 Y210.0
G0 Z40.81 F1800.0
G0 X10 Y10 F1380.0
; --- Cycle 372 ---
G0 X210.0 F1380.0
G0 Y210.0
G0 X10
G0 Y10
G0 X210.0 Y210.0
G0 Z40.92 F1800.0
G0 X10 Y10 F1380.0
; --- Cycle 373 ---
G0 X210.0 F1380.0
G0 Y210.0
G0 X10
G0 Y10
G0 X210.0 Y210.0
G0 Z41.03 F1800.0
G0 X10 Y10 F1380.0
; --- Cycle 374 ---
G0 X210.0 F1380.0
G0 Y210.0
G0 X10
G0 Y10
G0 X210.0 Y210.0
G0 Z41.14 F1800.0
G0 X10 Y10 F1380.0
; --- Cycle 375 ---
G0 X210.0 F1380.0
G0 Y210.0
G0 X10
G0 Y10
G0 X210.0 Y210.0
G0 Z41.25 F1800.0
G0 X10 Y10 F1380.0
; --- Cycle 376 ---
G0 X210.0 F1380.0
G0 Y210.0
G0 X10
G0 Y10
G0 X210.0 Y210.0
G0 Z41.36 F1800.0
G0 X10 Y10 F1380.0
; --- Cycle 377 ---
G0 X210.0 F1380.0
G0 Y210.0
G0 X10
G0 Y10
G0 X210.0 Y210.0
G0 Z41.47 F1800.0
G0 X10 Y10 F1380.0
; --- Cycle 378 ---
G0 X210.0 F1380.0
G0 Y210.0
G0 X10
G0 Y10
G0 X210.0 Y210.0
G0 Z41.58 F1800.0
G0 X10 Y10 F1380.0
; --- Cycle 379 ---
G0 X210.0 F1380.0
G0 Y210.0
G0 X10
G0 Y10
G0 X210.0 Y210.0
G0 Z41.69 F1800.0
G0 X10 Y10 F1380.0
; --- Cycle 380 ---
G0 X210.0 F1380.0
G0 Y210.0
G0 X10
G0 Y10
G0 X210.0 Y210.0
G0 Z41.8 F1800.0
G0 X10 Y10 F1380.0
; --- Cycle 381 ---
G0 X210.0 F1380.0
G0 Y210.0
G0 X10
G0 Y10
G0 X210.0 Y210.0
G0 Z41.910000000000004 F1800.0
G0 X10 Y10 F1380.0
; --- Cycle 382 ---
G0 X210.0 F1380.0
G0 Y210.0
G0 X10
G0 Y10
G0 X210.0 Y210.0
G0 Z42.02 F1800.0
G0 X10 Y10 F1380.0
; --- Cycle 383 ---
G0 X210.0 F1380.0
G0 Y210.0
G0 X10
G0 Y10
G0 X210.0 Y210.0
G0 Z42.13 F1800.0
G0 X10 Y10 F1380.0
; --- Cycle 384 ---
G0 X210.0 F1380.0
G0 Y210.0
G0 X10
G0 Y10
G0 X210.0 Y210.0
G0 Z42.24 F1800.0
G0 X10 Y10 F1380.0
; --- Cycle 385 ---
G0 X210.0 F1380.0
G0 Y210.0
G0 X10
G0 Y10
G0 X210.0 Y210.0
G0 Z42.35 F1800.0
G0 X10 Y10 F1380.0
; --- Cycle 386 ---
G0 X210.0 F1380.0
G0 Y210.0
G0 X10
G0 Y10
G0 X210.0 Y210.0
G0 Z42.46 F1800.0
G0 X10 Y10 F1380.0
; --- Cycle 387 ---
G0 X210.0 F1380.0
G0 Y210.0
G0 X10
G0 Y10
G0 X210.0 Y210.0
G0 Z42.57 F1800.0
G0 X10 Y10 F1380.0
; --- Cycle 388 ---
G0 X210.0 F1380.0
G0 Y210.0
G0 X10
G0 Y10
G0 X210.0 Y210.0
G0 Z42.68 F1800.0
G0 X10 Y10 F1380.0
; --- Cycle 389 ---
G0 X210.0 F1380.0
G0 Y210.0
G0 X10
G0 Y10
G0 X210.0 Y210.0
G0 Z42.79 F1800.0
G0 X10 Y10 F1380.0
; --- Cycle 390 ---
G0 X210.0 F1380.0
G0 Y210.0
G0 X10
G0 Y10
G0 X210.0 Y210.0
G0 Z42.9 F1800.0
G0 X10 Y10 F1380.0
; --- Cycle 391 ---
G0 X210.0 F1380.0
G0 Y210.0
G0 X10
G0 Y10
G0 X210.0 Y210.0
G0 Z43.01 F1800.0
G0 X10 Y10 F1380.0
; --- Cycle 392 ---
G0 X210.0 F1380.0
G0 Y210.0
G0 X10
G0 Y10
G0 X210.0 Y210.0
G0 Z43.12 F1800.0
G0 X10 Y10 F1380.0
; --- Cycle 393 ---
G0 X210.0 F1380.0
G0 Y210.0
G0 X10
G0 Y10
G0 X210.0 Y210.0
G0 Z43.23 F1800.0
G0 X10 Y10 F1380.0
; --- Cycle 394 ---
G0 X210.0 F1380.0
G0 Y210.0
G0 X10
G0 Y10
G0 X210.0 Y210.0
G0 Z43.34 F1800.0
G0 X10 Y10 F1380.0
; --- Cycle 395 ---
G0 X210.0 F1380.0
G0 Y210.0
G0 X10
G0 Y10
G0 X210.0 Y210.0
G0 Z43.45 F1800.0
G0 X10 Y10 F1380.0
; --- Cycle 396 ---
G0 X210.0 F1380.0
G0 Y210.0
G0 X10
G0 Y10
G0 X210.0 Y210.0
G0 Z43.56 F1800.0
G0 X10 Y10 F1380.0
; --- Cycle 397 ---
G0 X210.0 F1380.0
G0 Y210.0
G0 X10
G0 Y10
G0 X210.0 Y210.0
G0 Z43.67 F1800.0
G0 X10 Y10 F1380.0
; --- Cycle 398 ---
G0 X210.0 F1380.0
G0 Y210.0
G0 X10
G0 Y10
G0 X210.0 Y210.0
G0 Z43.78 F1800.0
G0 X10 Y10 F1380.0
; --- Cycle 399 ---
G0 X210.0 F1380.0
G0 Y210.0
G0 X10
G0 Y10
G0 X210.0 Y210.0
G0 Z43.89 F1800.0
G0 X10 Y10 F1380.0
; --- Cycle 400 ---
G0 X210.0 F1380.0
G0 Y210.0
G0 X10
G0 Y10
G0 X210.0 Y210.0
G0 Z44.0 F1800.0
G0 X10 Y10 F1380.0
; --- Cycle 401 ---
G0 X210.0 F1380.0
G0 Y210.0
G0 X10
G0 Y10
G0 X210.0 Y210.0
G0 Z44.11 F1800.0
G0 X10 Y10 F1380.0
; --- Cycle 402 ---
G0 X210.0 F1380.0
G0 Y210.0
G0 X10
G0 Y10
G0 X210.0 Y210.0
G0 Z44.22 F1800.0
G0 X10 Y10 F1380.0
; --- Cycle 403 ---
G0 X210.0 F1380.0
G0 Y210.0
G0 X10
G0 Y10
G0 X210.0 Y210.0
G0 Z44.33 F1800.0
G0 X10 Y10 F1380.0
; --- Cycle 404 ---
G0 X210.0 F1380.0
G0 Y210.0
G0 X10
G0 Y10
G0 X210.0 Y210.0
G0 Z44.44 F1800.0
G0 X10 Y10 F1380.0
; --- Cycle 405 ---
G0 X210.0 F1380.0
G0 Y210.0
G0 X10
G0 Y10
G0 X210.0 Y210.0
G0 Z44.55 F1800.0
G0 X10 Y10 F1380.0
; --- Cycle 406 ---
G0 X210.0 F1380.0
G0 Y210.0
G0 X10
G0 Y10
G0 X210.0 Y210.0
G0 Z44.660000000000004 F1800.0
G0 X10 Y10 F1380.0
; --- Cycle 407 ---
G0 X210.0 F1380.0
G0 Y210.0
G0 X10
G0 Y10
G0 X210.0 Y210.0
G0 Z44.77 F1800.0
G0 X10 Y10 F1380.0
; --- Cycle 408 ---
G0 X210.0 F1380.0
G0 Y210.0
G0 X10
G0 Y10
G0 X210.0 Y210.0
G0 Z44.88 F1800.0
G0 X10 Y10 F1380.0
; --- Cycle 409 ---
G0 X210.0 F1380.0
G0 Y210.0
G0 X10
G0 Y10
G0 X210.0 Y210.0
G0 Z44.99 F1800.0
G0 X10 Y10 F1380.0
; --- Cycle 410 ---
G0 X210.0 F1380.0
G0 Y210.0
G0 X10
G0 Y10
G0 X210.0 Y210.0
G0 Z45.1 F1800.0
G0 X10 Y10 F1380.0
; --- Cycle 411 ---
G0 X210.0 F1380.0
G0 Y210.0
G0 X10
G0 Y10
G0 X210.0 Y210.0
G0 Z45.21 F1800.0
G0 X10 Y10 F1380.0
; --- Cycle 412 ---
G0 X210.0 F1380.0
G0 Y210.0
G0 X10
G0 Y10
G0 X210.0 Y210.0
G0 Z45.32 F1800.0
G0 X10 Y10 F1380.0
; --- Cycle 413 ---
G0 X210.0 F1380.0
G0 Y210.0
G0 X10
G0 Y10
G0 X210.0 Y210.0
G0 Z45.43 F1800.0
G0 X10 Y10 F1380.0
; --- Cycle 414 ---
G0 X210.0 F1380.0
G0 Y210.0
G0 X10
G0 Y10
G0 X210.0 Y210.0
G0 Z45.54 F1800.0
G0 X10 Y10 F1380.0
; --- Cycle 415 ---
G0 X210.0 F1380.0
G0 Y210.0
G0 X10
G0 Y10
G0 X210.0 Y210.0
G0 Z45.65 F1800.0
G0 X10 Y10 F1380.0
; --- Cycle 416 ---
G0 X210.0 F1380.0
G0 Y210.0
G0 X10
G0 Y10
G0 X210.0 Y210.0
G0 Z45.76 F1800.0
G0 X10 Y10 F1380.0
; --- Cycle 417 ---
G0 X210.0 F1380.0
G0 Y210.0
G0 X10
G0 Y10
G0 X210.0 Y210.0
G0 Z45.87 F1800.0
G0 X10 Y10 F1380.0
; --- Cycle 418 ---
G0 X210.0 F1380.0
G0 Y210.0
G0 X10
G0 Y10
G0 X210.0 Y210.0
G0 Z45.98 F1800.0
G0 X10 Y10 F1380.0
; --- Cycle 419 ---
G0 X210.0 F1380.0
G0 Y210.0
G0 X10
G0 Y10
G0 X210.0 Y210.0
G0 Z46.09 F1800.0
G0 X10 Y10 F1380.0
; --- Cycle 420 ---
G0 X210.0 F1380.0
G0 Y210.0
G0 X10
G0 Y10
G0 X210.0 Y210.0
G0 Z46.2 F1800.0
G0 X10 Y10 F1380.0
; --- Cycle 421 ---
G0 X210.0 F1380.0
G0 Y210.0
G0 X10
G0 Y10
G0 X210.0 Y210.0
G0 Z46.31 F1800.0
G0 X10 Y10 F1380.0
; --- Cycle 422 ---
G0 X210.0 F1380.0
G0 Y210.0
G0 X10
G0 Y10
G0 X210.0 Y210.0
G0 Z46.42 F1800.0
G0 X10 Y10 F1380.0
; --- Cycle 423 ---
G0 X210.0 F1380.0
G0 Y210.0
G0 X10
G0 Y10
G0 X210.0 Y210.0
G0 Z46.53 F1800.0
G0 X10 Y10 F1380.0
; --- Cycle 424 ---
G0 X210.0 F1380.0
G0 Y210.0
G0 X10
G0 Y10
G0 X210.0 Y210.0
G0 Z46.64 F1800.0
G0 X10 Y10 F1380.0
; --- Cycle 425 ---
G0 X210.0 F1380.0
G0 Y210.0
G0 X10
G0 Y10
G0 X210.0 Y210.0
G0 Z46.75 F1800.0
G0 X10 Y10 F1380.0
; --- Cycle 426 ---
G0 X210.0 F1380.0
G0 Y210.0
G0 X10
G0 Y10
G0 X210.0 Y210.0
G0 Z46.86 F1800.0
G0 X10 Y10 F1380.0
; --- Cycle 427 ---
G0 X210.0 F1380.0
G0 Y210.0
G0 X10
G0 Y10
G0 X210.0 Y210.0
G0 Z46.97 F1800.0
G0 X10 Y10 F1380.0
; --- Cycle 428 ---
G0 X210.0 F1380.0
G0 Y210.0
G0 X10
G0 Y10
G0 X210.0 Y210.0
G0 Z47.08 F1800.0
G0 X10 Y10 F1380.0
; --- Cycle 429 ---
G0 X210.0 F1380.0
G0 Y210.0
G0 X10
G0 Y10
G0 X210.0 Y210.0
G0 Z47.19 F1800.0
G0 X10 Y10 F1380.0
; --- Cycle 430 ---
G0 X210.0 F1380.0
G0 Y210.0
G0 X10
G0 Y10
G0 X210.0 Y210.0
G0 Z47.3 F1800.0
G0 X10 Y10 F1380.0
; --- Cycle 431 ---
G0 X210.0 F1380.0
G0 Y210.0
G0 X10
G0 Y10
G0 X210.0 Y210.0
G0 Z47.410000000000004 F1800.0
G0 X10 Y10 F1380.0
; --- Cycle 432 ---
G0 X210.0 F1380.0
G0 Y210.0
G0 X10
G0 Y10
G0 X210.0 Y210.0
G0 Z47.52 F1800.0
G0 X10 Y10 F1380.0
; --- Cycle 433 ---
G0 X210.0 F1380.0
G0 Y210.0
G0 X10
G0 Y10
G0 X210.0 Y210.0
G0 Z47.63 F1800.0
G0 X10 Y10 F1380.0
; --- Cycle 434 ---
G0 X210.0 F1380.0
G0 Y210.0
G0 X10
G0 Y10
G0 X210.0 Y210.0
G0 Z47.74 F1800.0
G0 X10 Y10 F1380.0
; --- Cycle 435 ---
G0 X210.0 F1380.0
G0 Y210.0
G0 X10
G0 Y10
G0 X210.0 Y210.0
G0 Z47.85 F1800.0
G0 X10 Y10 F1380.0
; --- Cycle 436 ---
G0 X210.0 F1380.0
G0 Y210.0
G0 X10
G0 Y10
G0 X210.0 Y210.0
G0 Z47.96 F1800.0
G0 X10 Y10 F1380.0
; --- Cycle 437 ---
G0 X210.0 F1380.0
G0 Y210.0
G0 X10
G0 Y10
G0 X210.0 Y210.0
G0 Z48.07 F1800.0
G0 X10 Y10 F1380.0
; --- Cycle 438 ---
G0 X210.0 F1380.0
G0 Y210.0
G0 X10
G0 Y10
G0 X210.0 Y210.0
G0 Z48.18 F1800.0
G0 X10 Y10 F1380.0
; --- Cycle 439 ---
G0 X210.0 F1380.0
G0 Y210.0
G0 X10
G0 Y10
G0 X210.0 Y210.0
G0 Z48.29 F1800.0
G0 X10 Y10 F1380.0
; --- Cycle 440 ---
G0 X210.0 F1380.0
G0 Y210.0
G0 X10
G0 Y10
G0 X210.0 Y210.0
G0 Z48.4 F1800.0
G0 X10 Y10 F1380.0
; --- Cycle 441 ---
G0 X210.0 F1380.0
G0 Y210.0
G0 X10
G0 Y10
G0 X210.0 Y210.0
G0 Z48.51 F1800.0
G0 X10 Y10 F1380.0
; --- Cycle 442 ---
G0 X210.0 F1380.0
G0 Y210.0
G0 X10
G0 Y10
G0 X210.0 Y210.0
G0 Z48.62 F1800.0
G0 X10 Y10 F1380.0
; --- Cycle 443 ---
G0 X210.0 F1380.0
G0 Y210.0
G0 X10
G0 Y10
G0 X210.0 Y210.0
G0 Z48.73 F1800.0
G0 X10 Y10 F1380.0
; --- Cycle 444 ---
G0 X210.0 F1380.0
G0 Y210.0
G0 X10
G0 Y10
G0 X210.0 Y210.0
G0 Z48.84 F1800.0
G0 X10 Y10 F1380.0
; --- Cycle 445 ---
G0 X210.0 F1380.0
G0 Y210.0
G0 X10
G0 Y10
G0 X210.0 Y210.0
G0 Z48.95 F1800.0
G0 X10 Y10 F1380.0
; --- Cycle 446 ---
G0 X210.0 F1380.0
G0 Y210.0
G0 X10
G0 Y10
G0 X210.0 Y210.0
G0 Z49.06 F1800.0
G0 X10 Y10 F1380.0
; --- Cycle 447 ---
G0 X210.0 F1380.0
G0 Y210.0
G0 X10
G0 Y10
G0 X210.0 Y210.0
G0 Z49.17 F1800.0
G0 X10 Y10 F1380.0
; --- Cycle 448 ---
G0 X210.0 F1380.0
G0 Y210.0
G0 X10
G0 Y10
G0 X210.0 Y210.0
G0 Z49.28 F1800.0
G0 X10 Y10 F1380.0
; --- Cycle 449 ---
G0 X210.0 F1380.0
G0 Y210.0
G0 X10
G0 Y10
G0 X210.0 Y210.0
G0 Z49.39 F1800.0
G0 X10 Y10 F1380.0
; --- Cycle 450 ---
G0 X210.0 F1380.0
G0 Y210.0
G0 X10
G0 Y10
G0 X210.0 Y210.0
G0 Z49.5 F1800.0
G0 X10 Y10 F1380.0
; --- Cycle 451 ---
G0 X210.0 F1380.0
G0 Y210.0
G0 X10
G0 Y10
G0 X210.0 Y210.0
G0 Z49.61 F1800.0
G0 X10 Y10 F1380.0
; --- Cycle 452 ---
G0 X210.0 F1380.0
G0 Y210.0
G0 X10
G0 Y10
G0 X210.0 Y210.0
G0 Z49.72 F1800.0
G0 X10 Y10 F1380.0
; --- Cycle 453 ---
G0 X210.0 F1380.0
G0 Y210.0
G0 X10
G0 Y10
G0 X210.0 Y210.0
G0 Z49.83 F1800.0
G0 X10 Y10 F1380.0
; --- Cycle 454 ---
G0 X210.0 F1380.0
G0 Y210.0
G0 X10
G0 Y10
G0 X210.0 Y210.0
G0 Z49.94 F1800.0
G0 X10 Y10 F1380.0
; --- Cycle 455 ---
G0 X210.0 F1380.0
G0 Y210.0
G0 X10
G0 Y10
G0 X210.0 Y210.0
G0 Z50.05 F1800.0
G0 X10 Y10 F1380.0
; --- Cycle 456 ---
G0 X210.0 F1380.0
G0 Y210.0
G0 X10
G0 Y10
G0 X210.0 Y210.0
G0 Z50.160000000000004 F1800.0
G0 X10 Y10 F1380.0
; --- Cycle 457 ---
G0 X210.0 F1380.0
G0 Y210.0
G0 X10
G0 Y10
G0 X210.0 Y210.0
G0 Z50.27 F1800.0
G0 X10 Y10 F1380.0
; --- Cycle 458 ---
G0 X210.0 F1380.0
G0 Y210.0
G0 X10
G0 Y10
G0 X210.0 Y210.0
G0 Z50.38 F1800.0
G0 X10 Y10 F1380.0
; --- Cycle 459 ---
G0 X210.0 F1380.0
G0 Y210.0
G0 X10
G0 Y10
G0 X210.0 Y210.0
G0 Z50.49 F1800.0
G0 X10 Y10 F1380.0
; --- Cycle 460 ---
G0 X210.0 F1380.0
G0 Y210.0
G0 X10
G0 Y10
G0 X210.0 Y210.0
G0 Z50.6 F1800.0
G0 X10 Y10 F1380.0
; --- Cycle 461 ---
G0 X210.0 F1380.0
G0 Y210.0
G0 X10
G0 Y10
G0 X210.0 Y210.0
G0 Z50.71 F1800.0
G0 X10 Y10 F1380.0
; --- Cycle 462 ---
G0 X210.0 F1380.0
G0 Y210.0
G0 X10
G0 Y10
G0 X210.0 Y210.0
G0 Z50.82 F1800.0
G0 X10 Y10 F1380.0
; --- Cycle 463 ---
G0 X210.0 F1380.0
G0 Y210.0
G0 X10
G0 Y10
G0 X210.0 Y210.0
G0 Z50.93 F1800.0
G0 X10 Y10 F1380.0
; --- Cycle 464 ---
G0 X210.0 F1380.0
G0 Y210.0
G0 X10
G0 Y10
G0 X210.0 Y210.0
G0 Z51.04 F1800.0
G0 X10 Y10 F1380.0
; --- Cycle 465 ---
G0 X210.0 F1380.0
G0 Y210.0
G0 X10
G0 Y10
G0 X210.0 Y210.0
G0 Z51.15 F1800.0
G0 X10 Y10 F1380.0
; --- Cycle 466 ---
G0 X210.0 F1380.0
G0 Y210.0
G0 X10
G0 Y10
G0 X210.0 Y210.0
G0 Z51.26 F1800.0
G0 X10 Y10 F1380.0
; --- Cycle 467 ---
G0 X210.0 F1380.0
G0 Y210.0
G0 X10
G0 Y10
G0 X210.0 Y210.0
G0 Z51.37 F1800.0
G0 X10 Y10 F1380.0
; --- Cycle 468 ---
G0 X210.0 F1380.0
G0 Y210.0
G0 X10
G0 Y10
G0 X210.0 Y210.0
G0 Z51.48 F1800.0
G0 X10 Y10 F1380.0
; --- Cycle 469 ---
G0 X210.0 F1380.0
G0 Y210.0
G0 X10
G0 Y10
G0 X210.0 Y210.0
G0 Z51.59 F1800.0
G0 X10 Y10 F1380.0
; --- Cycle 470 ---
G0 X210.0 F1380.0
G0 Y210.0
G0 X10
G0 Y10
G0 X210.0 Y210.0
G0 Z51.7 F1800.0
G0 X10 Y10 F1380.0
; --- Cycle 471 ---
G0 X210.0 F1380.0
G0 Y210.0
G0 X10
G0 Y10
G0 X210.0 Y210.0
G0 Z51.81 F1800.0
G0 X10 Y10 F1380.0
; --- Cycle 472 ---
G0 X210.0 F1380.0
G0 Y210.0
G0 X10
G0 Y10
G0 X210.0 Y210.0
G0 Z51.92 F1800.0
G0 X10 Y10 F1380.0
; --- Cycle 473 ---
G0 X210.0 F1380.0
G0 Y210.0
G0 X10
G0 Y10
G0 X210.0 Y210.0
G0 Z52.03 F1800.0
G0 X10 Y10 F1380.0
; --- Cycle 474 ---
G0 X210.0 F1380.0
G0 Y210.0
G0 X10
G0 Y10
G0 X210.0 Y210.0
G0 Z52.14 F1800.0
G0 X10 Y10 F1380.0
; --- Cycle 475 ---
G0 X210.0 F1380.0
G0 Y210.0
G0 X10
G0 Y10
G0 X210.0 Y210.0
G0 Z52.25 F1800.0
G0 X10 Y10 F1380.0
; --- Cycle 476 ---
G0 X210.0 F1380.0
G0 Y210.0
G0 X10
G0 Y10
G0 X210.0 Y210.0
G0 Z52.36 F1800.0
G0 X10 Y10 F1380.0
; --- Cycle 477 ---
G0 X210.0 F1380.0
G0 Y210.0
G0 X10
G0 Y10
G0 X210.0 Y210.0
G0 Z52.47 F1800.0
G0 X10 Y10 F1380.0
; --- Cycle 478 ---
G0 X210.0 F1380.0
G0 Y210.0
G0 X10
G0 Y10
G0 X210.0 Y210.0
G0 Z52.58 F1800.0
G0 X10 Y10 F1380.0
; --- Cycle 479 ---
G0 X210.0 F1380.0
G0 Y210.0
G0 X10
G0 Y10
G0 X210.0 Y210.0
G0 Z52.69 F1800.0
G0 X10 Y10 F1380.0
; --- Cycle 480 ---
G0 X210.0 F1380.0
G0 Y210.0
G0 X10
G0 Y10
G0 X210.0 Y210.0
G0 Z52.8 F1800.0
G0 X10 Y10 F1380.0
; --- Cycle 481 ---
G0 X210.0 F1380.0
G0 Y210.0
G0 X10
G0 Y10
G0 X210.0 Y210.0
G0 Z52.910000000000004 F1800.0
G0 X10 Y10 F1380.0
; --- Cycle 482 ---
G0 X210.0 F1380.0
G0 Y210.0
G0 X10
G0 Y10
G0 X210.0 Y210.0
G0 Z53.02 F1800.0
G0 X10 Y10 F1380.0
; --- Cycle 483 ---
G0 X210.0 F1380.0
G0 Y210.0
G0 X10
G0 Y10
G0 X210.0 Y210.0
G0 Z53.13 F1800.0
G0 X10 Y10 F1380.0
; --- Cycle 484 ---
G0 X210.0 F1380.0
G0 Y210.0
G0 X10
G0 Y10
G0 X210.0 Y210.0
G0 Z53.24 F1800.0
G0 X10 Y10 F1380.0
; --- Cycle 485 ---
G0 X210.0 F1380.0
G0 Y210.0
G0 X10
G0 Y10
G0 X210.0 Y210.0
G0 Z53.35 F1800.0
G0 X10 Y10 F1380.0
; --- Cycle 486 ---
G0 X210.0 F1380.0
G0 Y210.0
G0 X10
G0 Y10
G0 X210.0 Y210.0
G0 Z53.46 F1800.0
G0 X10 Y10 F1380.0
; --- Cycle 487 ---
G0 X210.0 F1380.0
G0 Y210.0
G0 X10
G0 Y10
G0 X210.0 Y210.0
G0 Z53.57 F1800.0
G0 X10 Y10 F1380.0
; --- Cycle 488 ---
G0 X210.0 F1380.0
G0 Y210.0
G0 X10
G0 Y10
G0 X210.0 Y210.0
G0 Z53.68 F1800.0
G0 X10 Y10 F1380.0
; --- Cycle 489 ---
G0 X210.0 F1380.0
G0 Y210.0
G0 X10
G0 Y10
G0 X210.0 Y210.0
G0 Z53.79 F1800.0
G0 X10 Y10 F1380.0
; --- Cycle 490 ---
G0 X210.0 F1380.0
G0 Y210.0
G0 X10
G0 Y10
G0 X210.0 Y210.0
G0 Z53.9 F1800.0
G0 X10 Y10 F1380.0
; --- Cycle 491 ---
G0 X210.0 F1380.0
G0 Y210.0
G0 X10
G0 Y10
G0 X210.0 Y210.0
G0 Z54.01 F1800.0
G0 X10 Y10 F1380.0
; --- Cycle 492 ---
G0 X210.0 F1380.0
G0 Y210.0
G0 X10
G0 Y10
G0 X210.0 Y210.0
G0 Z54.12 F1800.0
G0 X10 Y10 F1380.0
; --- Cycle 493 ---
G0 X210.0 F1380.0
G0 Y210.0
G0 X10
G0 Y10
G0 X210.0 Y210.0
G0 Z54.23 F1800.0
G0 X10 Y10 F1380.0
; --- Cycle 494 ---
G0 X210.0 F1380.0
G0 Y210.0
G0 X10
G0 Y10
G0 X210.0 Y210.0
G0 Z54.34 F1800.0
G0 X10 Y10 F1380.0
; --- Cycle 495 ---
G0 X210.0 F1380.0
G0 Y210.0
G0 X10
G0 Y10
G0 X210.0 Y210.0
G0 Z54.45 F1800.0
G0 X10 Y10 F1380.0
; --- Cycle 496 ---
G0 X210.0 F1380.0
G0 Y210.0
G0 X10
G0 Y10
G0 X210.0 Y210.0
G0 Z54.56 F1800.0
G0 X10 Y10 F1380.0
; --- Cycle 497 ---
G0 X210.0 F1380.0
G0 Y210.0
G0 X10
G0 Y10
G0 X210.0 Y210.0
G0 Z54.67 F1800.0
G0 X10 Y10 F1380.0
; --- Cycle 498 ---
G0 X210.0 F1380.0
G0 Y210.0
G0 X10
G0 Y10
G0 X210.0 Y210.0
G0 Z54.78 F1800.0
G0 X10 Y10 F1380.0
; --- Cycle 499 ---
G0 X210.0 F1380.0
G0 Y210.0
G0 X10
G0 Y10
G0 X210.0 Y210.0
G0 Z54.89 F1800.0
G0 X10 Y10 F1380.0
; --- Cycle 500 ---
G0 X210.0 F1380.0
G0 Y210.0
G0 X10
G0 Y10
G0 X210.0 Y210.0
G0 Z55.0 F1800.0
G0 X10 Y10 F1380.0
; --- Cycle 501 ---
G0 X210.0 F1380.0
G0 Y210.0
G0 X10
G0 Y10
G0 X210.0 Y210.0
G0 Z55.11 F1800.0
G0 X10 Y10 F1380.0
; --- Cycle 502 ---
G0 X210.0 F1380.0
G0 Y210.0
G0 X10
G0 Y10
G0 X210.0 Y210.0
G0 Z55.22 F1800.0
G0 X10 Y10 F1380.0
; --- Cycle 503 ---
G0 X210.0 F1380.0
G0 Y210.0
G0 X10
G0 Y10
G0 X210.0 Y210.0
G0 Z55.33 F1800.0
G0 X10 Y10 F1380.0
; --- Cycle 504 ---
G0 X210.0 F1380.0
G0 Y210.0
G0 X10
G0 Y10
G0 X210.0 Y210.0
G0 Z55.44 F1800.0
G0 X10 Y10 F1380.0
; --- Cycle 505 ---
G0 X210.0 F1380.0
G0 Y210.0
G0 X10
G0 Y10
G0 X210.0 Y210.0
G0 Z55.55 F1800.0
G0 X10 Y10 F1380.0
; --- Cycle 506 ---
G0 X210.0 F1380.0
G0 Y210.0
G0 X10
G0 Y10
G0 X210.0 Y210.0
G0 Z55.660000000000004 F1800.0
G0 X10 Y10 F1380.0
; --- Cycle 507 ---
G0 X210.0 F1380.0
G0 Y210.0
G0 X10
G0 Y10
G0 X210.0 Y210.0
G0 Z55.77 F1800.0
G0 X10 Y10 F1380.0
; --- Cycle 508 ---
G0 X210.0 F1380.0
G0 Y210.0
G0 X10
G0 Y10
G0 X210.0 Y210.0
G0 Z55.88 F1800.0
G0 X10 Y10 F1380.0
; --- Cycle 509 ---
G0 X210.0 F1380.0
G0 Y210.0
G0 X10
G0 Y10
G0 X210.0 Y210.0
G0 Z55.99 F1800.0
G0 X10 Y10 F1380.0
; --- Cycle 510 ---
G0 X210.0 F1380.0
G0 Y210.0
G0 X10
G0 Y10
G0 X210.0 Y210.0
G0 Z56.1 F1800.0
G0 X10 Y10 F1380.0
; --- Cycle 511 ---
G0 X210.0 F1380.0
G0 Y210.0
G0 X10
G0 Y10
G0 X210.0 Y210.0
G0 Z56.21 F1800.0
G0 X10 Y10 F1380.0
; --- Cycle 512 ---
G0 X210.0 F1380.0
G0 Y210.0
G0 X10
G0 Y10
G0 X210.0 Y210.0
G0 Z56.32 F1800.0
G0 X10 Y10 F1380.0
; --- Cycle 513 ---
G0 X210.0 F1380.0
G0 Y210.0
G0 X10
G0 Y10
G0 X210.0 Y210.0
G0 Z56.43 F1800.0
G0 X10 Y10 F1380.0
; --- Cycle 514 ---
G0 X210.0 F1380.0
G0 Y210.0
G0 X10
G0 Y10
G0 X210.0 Y210.0
G0 Z56.54 F1800.0
G0 X10 Y10 F1380.0
; --- Cycle 515 ---
G0 X210.0 F1380.0
G0 Y210.0
G0 X10
G0 Y10
G0 X210.0 Y210.0
G0 Z56.65 F1800.0
G0 X10 Y10 F1380.0
; --- Cycle 516 ---
G0 X210.0 F1380.0
G0 Y210.0
G0 X10
G0 Y10
G0 X210.0 Y210.0
G0 Z56.76 F1800.0
G0 X10 Y10 F1380.0
; --- Cycle 517 ---
G0 X210.0 F1380.0
G0 Y210.0
G0 X10
G0 Y10
G0 X210.0 Y210.0
G0 Z56.87 F1800.0
G0 X10 Y10 F1380.0
; --- Cycle 518 ---
G0 X210.0 F1380.0
G0 Y210.0
G0 X10
G0 Y10
G0 X210.0 Y210.0
G0 Z56.98 F1800.0
G0 X10 Y10 F1380.0
; --- Cycle 519 ---
G0 X210.0 F1380.0
G0 Y210.0
G0 X10
G0 Y10
G0 X210.0 Y210.0
G0 Z57.09 F1800.0
G0 X10 Y10 F1380.0
; --- Cycle 520 ---
G0 X210.0 F1380.0
G0 Y210.0
G0 X10
G0 Y10
G0 X210.0 Y210.0
G0 Z57.2 F1800.0
G0 X10 Y10 F1380.0
; --- Cycle 521 ---
G0 X210.0 F1380.0
G0 Y210.0
G0 X10
G0 Y10
G0 X210.0 Y210.0
G0 Z57.31 F1800.0
G0 X10 Y10 F1380.0
; --- Cycle 522 ---
G0 X210.0 F1380.0
G0 Y210.0
G0 X10
G0 Y10
G0 X210.0 Y210.0
G0 Z57.42 F1800.0
G0 X10 Y10 F1380.0
; --- Cycle 523 ---
G0 X210.0 F1380.0
G0 Y210.0
G0 X10
G0 Y10
G0 X210.0 Y210.0
G0 Z57.53 F1800.0
G0 X10 Y10 F1380.0
; --- Cycle 524 ---
G0 X210.0 F1380.0
G0 Y210.0
G0 X10
G0 Y10
G0 X210.0 Y210.0
G0 Z57.64 F1800.0
G0 X10 Y10 F1380.0
; --- Cycle 525 ---
G0 X210.0 F1380.0
G0 Y210.0
G0 X10
G0 Y10
G0 X210.0 Y210.0
G0 Z57.75 F1800.0
G0 X10 Y10 F1380.0
; --- Cycle 526 ---
G0 X210.0 F1380.0
G0 Y210.0
G0 X10
G0 Y10
G0 X210.0 Y210.0
G0 Z57.86 F1800.0
G0 X10 Y10 F1380.0
; --- Cycle 527 ---
G0 X210.0 F1380.0
G0 Y210.0
G0 X10
G0 Y10
G0 X210.0 Y210.0
G0 Z57.97 F1800.0
G0 X10 Y10 F1380.0
; --- Cycle 528 ---
G0 X210.0 F1380.0
G0 Y210.0
G0 X10
G0 Y10
G0 X210.0 Y210.0
G0 Z58.08 F1800.0
G0 X10 Y10 F1380.0
; --- Cycle 529 ---
G0 X210.0 F1380.0
G0 Y210.0
G0 X10
G0 Y10
G0 X210.0 Y210.0
G0 Z58.19 F1800.0
G0 X10 Y10 F1380.0
; --- Cycle 530 ---
G0 X210.0 F1380.0
G0 Y210.0
G0 X10
G0 Y10
G0 X210.0 Y210.0
G0 Z58.3 F1800.0
G0 X10 Y10 F1380.0
; --- Cycle 531 ---
G0 X210.0 F1380.0
G0 Y210.0
G0 X10
G0 Y10
G0 X210.0 Y210.0
G0 Z58.410000000000004 F1800.0
G0 X10 Y10 F1380.0
; --- Cycle 532 ---
G0 X210.0 F1380.0
G0 Y210.0
G0 X10
G0 Y10
G0 X210.0 Y210.0
G0 Z58.52 F1800.0
G0 X10 Y10 F1380.0
; --- Cycle 533 ---
G0 X210.0 F1380.0
G0 Y210.0
G0 X10
G0 Y10
G0 X210.0 Y210.0
G0 Z58.63 F1800.0
G0 X10 Y10 F1380.0
; --- Cycle 534 ---
G0 X210.0 F1380.0
G0 Y210.0
G0 X10
G0 Y10
G0 X210.0 Y210.0
G0 Z58.74 F1800.0
G0 X10 Y10 F1380.0
; --- Cycle 535 ---
G0 X210.0 F1380.0
G0 Y210.0
G0 X10
G0 Y10
G0 X210.0 Y210.0
G0 Z58.85 F1800.0
G0 X10 Y10 F1380.0
; --- Cycle 536 ---
G0 X210.0 F1380.0
G0 Y210.0
G0 X10
G0 Y10
G0 X210.0 Y210.0
G0 Z58.96 F1800.0
G0 X10 Y10 F1380.0
; --- Cycle 537 ---
G0 X210.0 F1380.0
G0 Y210.0
G0 X10
G0 Y10
G0 X210.0 Y210.0
G0 Z59.07 F1800.0
G0 X10 Y10 F1380.0
; --- Cycle 538 ---
G0 X210.0 F1380.0
G0 Y210.0
G0 X10
G0 Y10
G0 X210.0 Y210.0
G0 Z59.18 F1800.0
G0 X10 Y10 F1380.0
; --- Cycle 539 ---
G0 X210.0 F1380.0
G0 Y210.0
G0 X10
G0 Y10
G0 X210.0 Y210.0
G0 Z59.29 F1800.0
G0 X10 Y10 F1380.0
; --- Cycle 540 ---
G0 X210.0 F1380.0
G0 Y210.0
G0 X10
G0 Y10
G0 X210.0 Y210.0
G0 Z59.4 F1800.0
G0 X10 Y10 F1380.0
; --- Cycle 541 ---
G0 X210.0 F1380.0
G0 Y210.0
G0 X10
G0 Y10
G0 X210.0 Y210.0
G0 Z59.51 F1800.0
G0 X10 Y10 F1380.0
; --- Cycle 542 ---
G0 X210.0 F1380.0
G0 Y210.0
G0 X10
G0 Y10
G0 X210.0 Y210.0
G0 Z59.62 F1800.0
G0 X10 Y10 F1380.0
; --- Cycle 543 ---
G0 X210.0 F1380.0
G0 Y210.0
G0 X10
G0 Y10
G0 X210.0 Y210.0
G0 Z59.73 F1800.0
G0 X10 Y10 F1380.0
; --- Cycle 544 ---
G0 X210.0 F1380.0
G0 Y210.0
G0 X10
G0 Y10
G0 X210.0 Y210.0
G0 Z59.84 F1800.0
G0 X10 Y10 F1380.0
; --- Cycle 545 ---
G0 X210.0 F1380.0
G0 Y210.0
G0 X10
G0 Y10
G0 X210.0 Y210.0
G0 Z59.95 F1800.0
G0 X10 Y10 F1380.0
; --- Cycle 546 ---
G0 X210.0 F1380.0
G0 Y210.0
G0 X10
G0 Y10
G0 X210.0 Y210.0
G0 Z60.06 F1800.0
G0 X10 Y10 F1380.0
; --- Cycle 547 ---
G0 X210.0 F1380.0
G0 Y210.0
G0 X10
G0 Y10
G0 X210.0 Y210.0
G0 Z60.17 F1800.0
G0 X10 Y10 F1380.0
; --- Cycle 548 ---
G0 X210.0 F1380.0
G0 Y210.0
G0 X10
G0 Y10
G0 X210.0 Y210.0
G0 Z60.28 F1800.0
G0 X10 Y10 F1380.0
; --- Cycle 549 ---
G0 X210.0 F1380.0
G0 Y210.0
G0 X10
G0 Y10
G0 X210.0 Y210.0
G0 Z60.39 F1800.0
G0 X10 Y10 F1380.0
; --- Cycle 550 ---
G0 X210.0 F1380.0
G0 Y210.0
G0 X10
G0 Y10
G0 X210.0 Y210.0
G0 Z60.5 F1800.0
G0 X10 Y10 F1380.0
; --- Cycle 551 ---
G0 X210.0 F1380.0
G0 Y210.0
G0 X10
G0 Y10
G0 X210.0 Y210.0
G0 Z60.61 F1800.0
G0 X10 Y10 F1380.0
; --- Cycle 552 ---
G0 X210.0 F1380.0
G0 Y210.0
G0 X10
G0 Y10
G0 X210.0 Y210.0
G0 Z60.72 F1800.0
G0 X10 Y10 F1380.0
; --- Cycle 553 ---
G0 X210.0 F1380.0
G0 Y210.0
G0 X10
G0 Y10
G0 X210.0 Y210.0
G0 Z60.83 F1800.0
G0 X10 Y10 F1380.0
; --- Cycle 554 ---
G0 X210.0 F1380.0
G0 Y210.0
G0 X10
G0 Y10
G0 X210.0 Y210.0
G0 Z60.94 F1800.0
G0 X10 Y10 F1380.0
; --- Cycle 555 ---
G0 X210.0 F1380.0
G0 Y210.0
G0 X10
G0 Y10
G0 X210.0 Y210.0
G0 Z61.05 F1800.0
G0 X10 Y10 F1380.0
; --- Cycle 556 ---
G0 X210.0 F1380.0
G0 Y210.0
G0 X10
G0 Y10
G0 X210.0 Y210.0
G0 Z61.160000000000004 F1800.0
G0 X10 Y10 F1380.0
; --- Cycle 557 ---
G0 X210.0 F1380.0
G0 Y210.0
G0 X10
G0 Y10
G0 X210.0 Y210.0
G0 Z61.27 F1800.0
G0 X10 Y10 F1380.0
; --- Cycle 558 ---
G0 X210.0 F1380.0
G0 Y210.0
G0 X10
G0 Y10
G0 X210.0 Y210.0
G0 Z61.38 F1800.0
G0 X10 Y10 F1380.0
; --- Cycle 559 ---
G0 X210.0 F1380.0
G0 Y210.0
G0 X10
G0 Y10
G0 X210.0 Y210.0
G0 Z61.49 F1800.0
G0 X10 Y10 F1380.0
; --- Cycle 560 ---
G0 X210.0 F1380.0
G0 Y210.0
G0 X10
G0 Y10
G0 X210.0 Y210.0
G0 Z61.6 F1800.0
G0 X10 Y10 F1380.0
; --- Cycle 561 ---
G0 X210.0 F1380.0
G0 Y210.0
G0 X10
G0 Y10
G0 X210.0 Y210.0
G0 Z61.71 F1800.0
G0 X10 Y10 F1380.0
; --- Cycle 562 ---
G0 X210.0 F1380.0
G0 Y210.0
G0 X10
G0 Y10
G0 X210.0 Y210.0
G0 Z61.82 F1800.0
G0 X10 Y10 F1380.0
; --- Cycle 563 ---
G0 X210.0 F1380.0
G0 Y210.0
G0 X10
G0 Y10
G0 X210.0 Y210.0
G0 Z61.93 F1800.0
G0 X10 Y10 F1380.0
; --- Cycle 564 ---
G0 X210.0 F1380.0
G0 Y210.0
G0 X10
G0 Y10
G0 X210.0 Y210.0
G0 Z62.04 F1800.0
G0 X10 Y10 F1380.0
; --- Cycle 565 ---
G0 X210.0 F1380.0
G0 Y210.0
G0 X10
G0 Y10
G0 X210.0 Y210.0
G0 Z62.15 F1800.0
G0 X10 Y10 F1380.0
; --- Cycle 566 ---
G0 X210.0 F1380.0
G0 Y210.0
G0 X10
G0 Y10
G0 X210.0 Y210.0
G0 Z62.26 F1800.0
G0 X10 Y10 F1380.0
; --- Cycle 567 ---
G0 X210.0 F1380.0
G0 Y210.0
G0 X10
G0 Y10
G0 X210.0 Y210.0
G0 Z62.37 F1800.0
G0 X10 Y10 F1380.0
; --- Cycle 568 ---
G0 X210.0 F1380.0
G0 Y210.0
G0 X10
G0 Y10
G0 X210.0 Y210.0
G0 Z62.48 F1800.0
G0 X10 Y10 F1380.0
; --- Cycle 569 ---
G0 X210.0 F1380.0
G0 Y210.0
G0 X10
G0 Y10
G0 X210.0 Y210.0
G0 Z62.59 F1800.0
G0 X10 Y10 F1380.0
; --- Cycle 570 ---
G0 X210.0 F1380.0
G0 Y210.0
G0 X10
G0 Y10
G0 X210.0 Y210.0
G0 Z62.7 F1800.0
G0 X10 Y10 F1380.0
; --- Cycle 571 ---
G0 X210.0 F1380.0
G0 Y210.0
G0 X10
G0 Y10
G0 X210.0 Y210.0
G0 Z62.81 F1800.0
G0 X10 Y10 F1380.0
; --- Cycle 572 ---
G0 X210.0 F1380.0
G0 Y210.0
G0 X10
G0 Y10
G0 X210.0 Y210.0
G0 Z62.92 F1800.0
G0 X10 Y10 F1380.0
; --- Cycle 573 ---
G0 X210.0 F1380.0
G0 Y210.0
G0 X10
G0 Y10
G0 X210.0 Y210.0
G0 Z63.03 F1800.0
G0 X10 Y10 F1380.0
; --- Cycle 574 ---
G0 X210.0 F1380.0
G0 Y210.0
G0 X10
G0 Y10
G0 X210.0 Y210.0
G0 Z63.14 F1800.0
G0 X10 Y10 F1380.0
; --- Cycle 575 ---
G0 X210.0 F1380.0
G0 Y210.0
G0 X10
G0 Y10
G0 X210.0 Y210.0
G0 Z63.25 F1800.0
G0 X10 Y10 F1380.0
; --- Cycle 576 ---
G0 X210.0 F1380.0
G0 Y210.0
G0 X10
G0 Y10
G0 X210.0 Y210.0
G0 Z63.36 F1800.0
G0 X10 Y10 F1380.0
; --- Cycle 577 ---
G0 X210.0 F1380.0
G0 Y210.0
G0 X10
G0 Y10
G0 X210.0 Y210.0
G0 Z63.47 F1800.0
G0 X10 Y10 F1380.0
; --- Cycle 578 ---
G0 X210.0 F1380.0
G0 Y210.0
G0 X10
G0 Y10
G0 X210.0 Y210.0
G0 Z63.58 F1800.0
G0 X10 Y10 F1380.0
; --- Cycle 579 ---
G0 X210.0 F1380.0
G0 Y210.0
G0 X10
G0 Y10
G0 X210.0 Y210.0
G0 Z63.69 F1800.0
G0 X10 Y10 F1380.0
; --- Cycle 580 ---
G0 X210.0 F1380.0
G0 Y210.0
G0 X10
G0 Y10
G0 X210.0 Y210.0
G0 Z63.8 F1800.0
G0 X10 Y10 F1380.0
; --- Cycle 581 ---
G0 X210.0 F1380.0
G0 Y210.0
G0 X10
G0 Y10
G0 X210.0 Y210.0
G0 Z63.910000000000004 F1800.0
G0 X10 Y10 F1380.0
; --- Cycle 582 ---
G0 X210.0 F1380.0
G0 Y210.0
G0 X10
G0 Y10
G0 X210.0 Y210.0
G0 Z64.02 F1800.0
G0 X10 Y10 F1380.0
; --- Cycle 583 ---
G0 X210.0 F1380.0
G0 Y210.0
G0 X10
G0 Y10
G0 X210.0 Y210.0
G0 Z64.13 F1800.0
G0 X10 Y10 F1380.0
; --- Cycle 584 ---
G0 X210.0 F1380.0
G0 Y210.0
G0 X10
G0 Y10
G0 X210.0 Y210.0
G0 Z64.24 F1800.0
G0 X10 Y10 F1380.0
; --- Cycle 585 ---
G0 X210.0 F1380.0
G0 Y210.0
G0 X10
G0 Y10
G0 X210.0 Y210.0
G0 Z64.35 F1800.0
G0 X10 Y10 F1380.0
; --- Cycle 586 ---
G0 X210.0 F1380.0
G0 Y210.0
G0 X10
G0 Y10
G0 X210.0 Y210.0
G0 Z64.46 F1800.0
G0 X10 Y10 F1380.0
; --- Cycle 587 ---
G0 X210.0 F1380.0
G0 Y210.0
G0 X10
G0 Y10
G0 X210.0 Y210.0
G0 Z64.57000000000001 F1800.0
G0 X10 Y10 F1380.0
; --- Cycle 588 ---
G0 X210.0 F1380.0
G0 Y210.0
G0 X10
G0 Y10
G0 X210.0 Y210.0
G0 Z64.68 F1800.0
G0 X10 Y10 F1380.0
; --- Cycle 589 ---
G0 X210.0 F1380.0
G0 Y210.0
G0 X10
G0 Y10
G0 X210.0 Y210.0
G0 Z64.79 F1800.0
G0 X10 Y10 F1380.0
; --- Cycle 590 ---
G0 X210.0 F1380.0
G0 Y210.0
G0 X10
G0 Y10
G0 X210.0 Y210.0
G0 Z64.9 F1800.0
G0 X10 Y10 F1380.0
; --- Cycle 591 ---
G0 X210.0 F1380.0
G0 Y210.0
G0 X10
G0 Y10
G0 X210.0 Y210.0
G0 Z65.01 F1800.0
G0 X10 Y10 F1380.0
; --- Cycle 592 ---
G0 X210.0 F1380.0
G0 Y210.0
G0 X10
G0 Y10
G0 X210.0 Y210.0
G0 Z65.12 F1800.0
G0 X10 Y10 F1380.0
; --- Cycle 593 ---
G0 X210.0 F1380.0
G0 Y210.0
G0 X10
G0 Y10
G0 X210.0 Y210.0
G0 Z65.23 F1800.0
G0 X10 Y10 F1380.0
; --- Cycle 594 ---
G0 X210.0 F1380.0
G0 Y210.0
G0 X10
G0 Y10
G0 X210.0 Y210.0
G0 Z65.34 F1800.0
G0 X10 Y10 F1380.0
; --- Cycle 595 ---
G0 X210.0 F1380.0
G0 Y210.0
G0 X10
G0 Y10
G0 X210.0 Y210.0
G0 Z65.45 F1800.0
G0 X10 Y10 F1380.0
; --- Cycle 596 ---
G0 X210.0 F1380.0
G0 Y210.0
G0 X10
G0 Y10
G0 X210.0 Y210.0
G0 Z65.56 F1800.0
G0 X10 Y10 F1380.0
; --- Cycle 597 ---
G0 X210.0 F1380.0
G0 Y210.0
G0 X10
G0 Y10
G0 X210.0 Y210.0
G0 Z65.67 F1800.0
G0 X10 Y10 F1380.0
; --- Cycle 598 ---
G0 X210.0 F1380.0
G0 Y210.0
G0 X10
G0 Y10
G0 X210.0 Y210.0
G0 Z65.78 F1800.0
G0 X10 Y10 F1380.0
; --- Cycle 599 ---
G0 X210.0 F1380.0
G0 Y210.0
G0 X10
G0 Y10
G0 X210.0 Y210.0
G0 Z65.89 F1800.0
G0 X10 Y10 F1380.0
; --- Cycle 600 ---
G0 X210.0 F1380.0
G0 Y210.0
G0 X10
G0 Y10
G0 X210.0 Y210.0
G0 Z66.0 F1800.0
G0 X10 Y10 F1380.0
; --- Cycle 601 ---
G0 X210.0 F1380.0
G0 Y210.0
G0 X10
G0 Y10
G0 X210.0 Y210.0
G0 Z66.11 F1800.0
G0 X10 Y10 F1380.0
; --- Cycle 602 ---
G0 X210.0 F1380.0
G0 Y210.0
G0 X10
G0 Y10
G0 X210.0 Y210.0
G0 Z66.22 F1800.0
G0 X10 Y10 F1380.0
; --- Cycle 603 ---
G0 X210.0 F1380.0
G0 Y210.0
G0 X10
G0 Y10
G0 X210.0 Y210.0
G0 Z66.33 F1800.0
G0 X10 Y10 F1380.0
; --- Cycle 604 ---
G0 X210.0 F1380.0
G0 Y210.0
G0 X10
G0 Y10
G0 X210.0 Y210.0
G0 Z66.44 F1800.0
G0 X10 Y10 F1380.0
; --- Cycle 605 ---
G0 X210.0 F1380.0
G0 Y210.0
G0 X10
G0 Y10
G0 X210.0 Y210.0
G0 Z66.55 F1800.0
G0 X10 Y10 F1380.0
; --- Cycle 606 ---
G0 X210.0 F1380.0
G0 Y210.0
G0 X10
G0 Y10
G0 X210.0 Y210.0
G0 Z66.66 F1800.0
G0 X10 Y10 F1380.0
; --- Cycle 607 ---
G0 X210.0 F1380.0
G0 Y210.0
G0 X10
G0 Y10
G0 X210.0 Y210.0
G0 Z66.77 F1800.0
G0 X10 Y10 F1380.0
; --- Cycle 608 ---
G0 X210.0 F1380.0
G0 Y210.0
G0 X10
G0 Y10
G0 X210.0 Y210.0
G0 Z66.88 F1800.0
G0 X10 Y10 F1380.0
; --- Cycle 609 ---
G0 X210.0 F1380.0
G0 Y210.0
G0 X10
G0 Y10
G0 X210.0 Y210.0
G0 Z66.99 F1800.0
G0 X10 Y10 F1380.0
; --- Cycle 610 ---
G0 X210.0 F1380.0
G0 Y210.0
G0 X10
G0 Y10
G0 X210.0 Y210.0
G0 Z67.1 F1800.0
G0 X10 Y10 F1380.0
; --- Cycle 611 ---
G0 X210.0 F1380.0
G0 Y210.0
G0 X10
G0 Y10
G0 X210.0 Y210.0
G0 Z67.21 F1800.0
G0 X10 Y10 F1380.0
; --- Cycle 612 ---
G0 X210.0 F1380.0
G0 Y210.0
G0 X10
G0 Y10
G0 X210.0 Y210.0
G0 Z67.32000000000001 F1800.0
G0 X10 Y10 F1380.0
; --- Cycle 613 ---
G0 X210.0 F1380.0
G0 Y210.0
G0 X10
G0 Y10
G0 X210.0 Y210.0
G0 Z67.43 F1800.0
G0 X10 Y10 F1380.0
; --- Cycle 614 ---
G0 X210.0 F1380.0
G0 Y210.0
G0 X10
G0 Y10
G0 X210.0 Y210.0
G0 Z67.54 F1800.0
G0 X10 Y10 F1380.0
; --- Cycle 615 ---
G0 X210.0 F1380.0
G0 Y210.0
G0 X10
G0 Y10
G0 X210.0 Y210.0
G0 Z67.65 F1800.0
G0 X10 Y10 F1380.0
; --- Cycle 616 ---
G0 X210.0 F1380.0
G0 Y210.0
G0 X10
G0 Y10
G0 X210.0 Y210.0
G0 Z67.76 F1800.0
G0 X10 Y10 F1380.0
; --- Cycle 617 ---
G0 X210.0 F1380.0
G0 Y210.0
G0 X10
G0 Y10
G0 X210.0 Y210.0
G0 Z67.87 F1800.0
G0 X10 Y10 F1380.0
; --- Cycle 618 ---
G0 X210.0 F1380.0
G0 Y210.0
G0 X10
G0 Y10
G0 X210.0 Y210.0
G0 Z67.98 F1800.0
G0 X10 Y10 F1380.0
; --- Cycle 619 ---
G0 X210.0 F1380.0
G0 Y210.0
G0 X10
G0 Y10
G0 X210.0 Y210.0
G0 Z68.09 F1800.0
G0 X10 Y10 F1380.0
; --- Cycle 620 ---
G0 X210.0 F1380.0
G0 Y210.0
G0 X10
G0 Y10
G0 X210.0 Y210.0
G0 Z68.2 F1800.0
G0 X10 Y10 F1380.0
; --- Cycle 621 ---
G0 X210.0 F1380.0
G0 Y210.0
G0 X10
G0 Y10
G0 X210.0 Y210.0
G0 Z68.31 F1800.0
G0 X10 Y10 F1380.0
; --- Cycle 622 ---
G0 X210.0 F1380.0
G0 Y210.0
G0 X10
G0 Y10
G0 X210.0 Y210.0
G0 Z68.42 F1800.0
G0 X10 Y10 F1380.0
; --- Cycle 623 ---
G0 X210.0 F1380.0
G0 Y210.0
G0 X10
G0 Y10
G0 X210.0 Y210.0
G0 Z68.53 F1800.0
G0 X10 Y10 F1380.0
; --- Cycle 624 ---
G0 X210.0 F1380.0
G0 Y210.0
G0 X10
G0 Y10
G0 X210.0 Y210.0
G0 Z68.64 F1800.0
G0 X10 Y10 F1380.0
; --- Cycle 625 ---
G0 X210.0 F1380.0
G0 Y210.0
G0 X10
G0 Y10
G0 X210.0 Y210.0
G0 Z68.75 F1800.0
G0 X10 Y10 F1380.0
; --- Cycle 626 ---
G0 X210.0 F1380.0
G0 Y210.0
G0 X10
G0 Y10
G0 X210.0 Y210.0
G0 Z68.86 F1800.0
G0 X10 Y10 F1380.0
; --- Cycle 627 ---
G0 X210.0 F1380.0
G0 Y210.0
G0 X10
G0 Y10
G0 X210.0 Y210.0
G0 Z68.97 F1800.0
G0 X10 Y10 F1380.0
; --- Cycle 628 ---
G0 X210.0 F1380.0
G0 Y210.0
G0 X10
G0 Y10
G0 X210.0 Y210.0
G0 Z69.08 F1800.0
G0 X10 Y10 F1380.0
; --- Cycle 629 ---
G0 X210.0 F1380.0
G0 Y210.0
G0 X10
G0 Y10
G0 X210.0 Y210.0
G0 Z69.19 F1800.0
G0 X10 Y10 F1380.0
; --- Cycle 630 ---
G0 X210.0 F1380.0
G0 Y210.0
G0 X10
G0 Y10
G0 X210.0 Y210.0
G0 Z69.3 F1800.0
G0 X10 Y10 F1380.0
; --- Cycle 631 ---
G0 X210.0 F1380.0
G0 Y210.0
G0 X10
G0 Y10
G0 X210.0 Y210.0
G0 Z69.41 F1800.0
G0 X10 Y10 F1380.0
; --- Cycle 632 ---
G0 X210.0 F1380.0
G0 Y210.0
G0 X10
G0 Y10
G0 X210.0 Y210.0
G0 Z69.52 F1800.0
G0 X10 Y10 F1380.0
; --- Cycle 633 ---
G0 X210.0 F1380.0
G0 Y210.0
G0 X10
G0 Y10
G0 X210.0 Y210.0
G0 Z69.63 F1800.0
G0 X10 Y10 F1380.0
; --- Cycle 634 ---
G0 X210.0 F1380.0
G0 Y210.0
G0 X10
G0 Y10
G0 X210.0 Y210.0
G0 Z69.74 F1800.0
G0 X10 Y10 F1380.0
; --- Cycle 635 ---
G0 X210.0 F1380.0
G0 Y210.0
G0 X10
G0 Y10
G0 X210.0 Y210.0
G0 Z69.85 F1800.0
G0 X10 Y10 F1380.0
; --- Cycle 636 ---
G0 X210.0 F1380.0
G0 Y210.0
G0 X10
G0 Y10
G0 X210.0 Y210.0
G0 Z69.96 F1800.0
G0 X10 Y10 F1380.0
; --- Cycle 637 ---
G0 X210.0 F1380.0
G0 Y210.0
G0 X10
G0 Y10
G0 X210.0 Y210.0
G0 Z70.07000000000001 F1800.0
G0 X10 Y10 F1380.0
; --- Cycle 638 ---
G0 X210.0 F1380.0
G0 Y210.0
G0 X10
G0 Y10
G0 X210.0 Y210.0
G0 Z70.18 F1800.0
G0 X10 Y10 F1380.0
; --- Cycle 639 ---
G0 X210.0 F1380.0
G0 Y210.0
G0 X10
G0 Y10
G0 X210.0 Y210.0
G0 Z70.29 F1800.0
G0 X10 Y10 F1380.0
; --- Cycle 640 ---
G0 X210.0 F1380.0
G0 Y210.0
G0 X10
G0 Y10
G0 X210.0 Y210.0
G0 Z70.4 F1800.0
G0 X10 Y10 F1380.0
; --- Cycle 641 ---
G0 X210.0 F1380.0
G0 Y210.0
G0 X10
G0 Y10
G0 X210.0 Y210.0
G0 Z70.51 F1800.0
G0 X10 Y10 F1380.0
; --- Cycle 642 ---
G0 X210.0 F1380.0
G0 Y210.0
G0 X10
G0 Y10
G0 X210.0 Y210.0
G0 Z70.62 F1800.0
G0 X10 Y10 F1380.0
; --- Cycle 643 ---
G0 X210.0 F1380.0
G0 Y210.0
G0 X10
G0 Y10
G0 X210.0 Y210.0
G0 Z70.73 F1800.0
G0 X10 Y10 F1380.0
; --- Cycle 644 ---
G0 X210.0 F1380.0
G0 Y210.0
G0 X10
G0 Y10
G0 X210.0 Y210.0
G0 Z70.84 F1800.0
G0 X10 Y10 F1380.0
; --- Cycle 645 ---
G0 X210.0 F1380.0
G0 Y210.0
G0 X10
G0 Y10
G0 X210.0 Y210.0
G0 Z70.95 F1800.0
G0 X10 Y10 F1380.0
; --- Cycle 646 ---
G0 X210.0 F1380.0
G0 Y210.0
G0 X10
G0 Y10
G0 X210.0 Y210.0
G0 Z71.06 F1800.0
G0 X10 Y10 F1380.0
; --- Cycle 647 ---
G0 X210.0 F1380.0
G0 Y210.0
G0 X10
G0 Y10
G0 X210.0 Y210.0
G0 Z71.17 F1800.0
G0 X10 Y10 F1380.0
; --- Cycle 648 ---
G0 X210.0 F1380.0
G0 Y210.0
G0 X10
G0 Y10
G0 X210.0 Y210.0
G0 Z71.28 F1800.0
G0 X10 Y10 F1380.0
; --- Cycle 649 ---
G0 X210.0 F1380.0
G0 Y210.0
G0 X10
G0 Y10
G0 X210.0 Y210.0
G0 Z71.39 F1800.0
G0 X10 Y10 F1380.0
; --- Cycle 650 ---
G0 X210.0 F1380.0
G0 Y210.0
G0 X10
G0 Y10
G0 X210.0 Y210.0
G0 Z71.5 F1800.0
G0 X10 Y10 F1380.0
; --- Cycle 651 ---
G0 X210.0 F1380.0
G0 Y210.0
G0 X10
G0 Y10
G0 X210.0 Y210.0
G0 Z71.61 F1800.0
G0 X10 Y10 F1380.0
; --- Cycle 652 ---
G0 X210.0 F1380.0
G0 Y210.0
G0 X10
G0 Y10
G0 X210.0 Y210.0
G0 Z71.72 F1800.0
G0 X10 Y10 F1380.0
; --- Cycle 653 ---
G0 X210.0 F1380.0
G0 Y210.0
G0 X10
G0 Y10
G0 X210.0 Y210.0
G0 Z71.83 F1800.0
G0 X10 Y10 F1380.0
; --- Cycle 654 ---
G0 X210.0 F1380.0
G0 Y210.0
G0 X10
G0 Y10
G0 X210.0 Y210.0
G0 Z71.94 F1800.0
G0 X10 Y10 F1380.0
; --- Cycle 655 ---
G0 X210.0 F1380.0
G0 Y210.0
G0 X10
G0 Y10
G0 X210.0 Y210.0
G0 Z72.05 F1800.0
G0 X10 Y10 F1380.0
; --- Cycle 656 ---
G0 X210.0 F1380.0
G0 Y210.0
G0 X10
G0 Y10
G0 X210.0 Y210.0
G0 Z72.16 F1800.0
G0 X10 Y10 F1380.0
; --- Cycle 657 ---
G0 X210.0 F1380.0
G0 Y210.0
G0 X10
G0 Y10
G0 X210.0 Y210.0
G0 Z72.27 F1800.0
G0 X10 Y10 F1380.0
; --- Cycle 658 ---
G0 X210.0 F1380.0
G0 Y210.0
G0 X10
G0 Y10
G0 X210.0 Y210.0
G0 Z72.38 F1800.0
G0 X10 Y10 F1380.0
; --- Cycle 659 ---
G0 X210.0 F1380.0
G0 Y210.0
G0 X10
G0 Y10
G0 X210.0 Y210.0
G0 Z72.49 F1800.0
G0 X10 Y10 F1380.0
; --- Cycle 660 ---
G0 X210.0 F1380.0
G0 Y210.0
G0 X10
G0 Y10
G0 X210.0 Y210.0
G0 Z72.6 F1800.0
G0 X10 Y10 F1380.0
; --- Cycle 661 ---
G0 X210.0 F1380.0
G0 Y210.0
G0 X10
G0 Y10
G0 X210.0 Y210.0
G0 Z72.71 F1800.0
G0 X10 Y10 F1380.0
; --- Cycle 662 ---
G0 X210.0 F1380.0
G0 Y210.0
G0 X10
G0 Y10
G0 X210.0 Y210.0
G0 Z72.82000000000001 F1800.0
G0 X10 Y10 F1380.0
; --- Cycle 663 ---
G0 X210.0 F1380.0
G0 Y210.0
G0 X10
G0 Y10
G0 X210.0 Y210.0
G0 Z72.93 F1800.0
G0 X10 Y10 F1380.0
; --- Cycle 664 ---
G0 X210.0 F1380.0
G0 Y210.0
G0 X10
G0 Y10
G0 X210.0 Y210.0
G0 Z73.04 F1800.0
G0 X10 Y10 F1380.0
; --- Cycle 665 ---
G0 X210.0 F1380.0
G0 Y210.0
G0 X10
G0 Y10
G0 X210.0 Y210.0
G0 Z73.15 F1800.0
G0 X10 Y10 F1380.0
; --- Cycle 666 ---
G0 X210.0 F1380.0
G0 Y210.0
G0 X10
G0 Y10
G0 X210.0 Y210.0
G0 Z73.26 F1800.0
G0 X10 Y10 F1380.0
; --- Cycle 667 ---
G0 X210.0 F1380.0
G0 Y210.0
G0 X10
G0 Y10
G0 X210.0 Y210.0
G0 Z73.37 F1800.0
G0 X10 Y10 F1380.0
; --- Cycle 668 ---
G0 X210.0 F1380.0
G0 Y210.0
G0 X10
G0 Y10
G0 X210.0 Y210.0
G0 Z73.48 F1800.0
G0 X10 Y10 F1380.0
; --- Cycle 669 ---
G0 X210.0 F1380.0
G0 Y210.0
G0 X10
G0 Y10
G0 X210.0 Y210.0
G0 Z73.59 F1800.0
G0 X10 Y10 F1380.0
; --- Cycle 670 ---
G0 X210.0 F1380.0
G0 Y210.0
G0 X10
G0 Y10
G0 X210.0 Y210.0
G0 Z73.7 F1800.0
G0 X10 Y10 F1380.0
; --- Cycle 671 ---
G0 X210.0 F1380.0
G0 Y210.0
G0 X10
G0 Y10
G0 X210.0 Y210.0
G0 Z73.81 F1800.0
G0 X10 Y10 F1380.0
; --- Cycle 672 ---
G0 X210.0 F1380.0
G0 Y210.0
G0 X10
G0 Y10
G0 X210.0 Y210.0
G0 Z73.92 F1800.0
G0 X10 Y10 F1380.0
; --- Cycle 673 ---
G0 X210.0 F1380.0
G0 Y210.0
G0 X10
G0 Y10
G0 X210.0 Y210.0
G0 Z74.03 F1800.0
G0 X10 Y10 F1380.0
; --- Cycle 674 ---
G0 X210.0 F1380.0
G0 Y210.0
G0 X10
G0 Y10
G0 X210.0 Y210.0
G0 Z74.14 F1800.0
G0 X10 Y10 F1380.0
; --- Cycle 675 ---
G0 X210.0 F1380.0
G0 Y210.0
G0 X10
G0 Y10
G0 X210.0 Y210.0
G0 Z74.25 F1800.0
G0 X10 Y10 F1380.0
; --- Cycle 676 ---
G0 X210.0 F1380.0
G0 Y210.0
G0 X10
G0 Y10
G0 X210.0 Y210.0
G0 Z74.36 F1800.0
G0 X10 Y10 F1380.0
; --- Cycle 677 ---
G0 X210.0 F1380.0
G0 Y210.0
G0 X10
G0 Y10
G0 X210.0 Y210.0
G0 Z74.47 F1800.0
G0 X10 Y10 F1380.0
; --- Cycle 678 ---
G0 X210.0 F1380.0
G0 Y210.0
G0 X10
G0 Y10
G0 X210.0 Y210.0
G0 Z74.58 F1800.0
G0 X10 Y10 F1380.0
; --- Cycle 679 ---
G0 X210.0 F1380.0
G0 Y210.0
G0 X10
G0 Y10
G0 X210.0 Y210.0
G0 Z74.69 F1800.0
G0 X10 Y10 F1380.0
; --- Cycle 680 ---
G0 X210.0 F1380.0
G0 Y210.0
G0 X10
G0 Y10
G0 X210.0 Y210.0
G0 Z74.8 F1800.0
G0 X10 Y10 F1380.0
; --- Cycle 681 ---
G0 X210.0 F1380.0
G0 Y210.0
G0 X10
G0 Y10
G0 X210.0 Y210.0
G0 Z74.91 F1800.0
G0 X10 Y10 F1380.0
; --- Cycle 682 ---
G0 X210.0 F1380.0
G0 Y210.0
G0 X10
G0 Y10
G0 X210.0 Y210.0
G0 Z75.02 F1800.0
G0 X10 Y10 F1380.0
; --- Cycle 683 ---
G0 X210.0 F1380.0
G0 Y210.0
G0 X10
G0 Y10
G0 X210.0 Y210.0
G0 Z75.13 F1800.0
G0 X10 Y10 F1380.0
; --- Cycle 684 ---
G0 X210.0 F1380.0
G0 Y210.0
G0 X10
G0 Y10
G0 X210.0 Y210.0
G0 Z75.24 F1800.0
G0 X10 Y10 F1380.0
; --- Cycle 685 ---
G0 X210.0 F1380.0
G0 Y210.0
G0 X10
G0 Y10
G0 X210.0 Y210.0
G0 Z75.35 F1800.0
G0 X10 Y10 F1380.0
; --- Cycle 686 ---
G0 X210.0 F1380.0
G0 Y210.0
G0 X10
G0 Y10
G0 X210.0 Y210.0
G0 Z75.46 F1800.0
G0 X10 Y10 F1380.0
; --- Cycle 687 ---
G0 X210.0 F1380.0
G0 Y210.0
G0 X10
G0 Y10
G0 X210.0 Y210.0
G0 Z75.57000000000001 F1800.0
G0 X10 Y10 F1380.0
; --- Cycle 688 ---
G0 X210.0 F1380.0
G0 Y210.0
G0 X10
G0 Y10
G0 X210.0 Y210.0
G0 Z75.68 F1800.0
G0 X10 Y10 F1380.0
; --- Cycle 689 ---
G0 X210.0 F1380.0
G0 Y210.0
G0 X10
G0 Y10
G0 X210.0 Y210.0
G0 Z75.79 F1800.0
G0 X10 Y10 F1380.0
; --- Cycle 690 ---
G0 X210.0 F1380.0
G0 Y210.0
G0 X10
G0 Y10
G0 X210.0 Y210.0
G0 Z75.9 F1800.0
G0 X10 Y10 F1380.0
; --- Cycle 691 ---
G0 X210.0 F1380.0
G0 Y210.0
G0 X10
G0 Y10
G0 X210.0 Y210.0
G0 Z76.01 F1800.0
G0 X10 Y10 F1380.0
; --- Cycle 692 ---
G0 X210.0 F1380.0
G0 Y210.0
G0 X10
G0 Y10
G0 X210.0 Y210.0
G0 Z76.12 F1800.0
G0 X10 Y10 F1380.0
; --- Cycle 693 ---
G0 X210.0 F1380.0
G0 Y210.0
G0 X10
G0 Y10
G0 X210.0 Y210.0
G0 Z76.23 F1800.0
G0 X10 Y10 F1380.0
; --- Cycle 694 ---
G0 X210.0 F1380.0
G0 Y210.0
G0 X10
G0 Y10
G0 X210.0 Y210.0
G0 Z76.34 F1800.0
G0 X10 Y10 F1380.0
; --- Cycle 695 ---
G0 X210.0 F1380.0
G0 Y210.0
G0 X10
G0 Y10
G0 X210.0 Y210.0
G0 Z76.45 F1800.0
G0 X10 Y10 F1380.0
; --- Cycle 696 ---
G0 X210.0 F1380.0
G0 Y210.0
G0 X10
G0 Y10
G0 X210.0 Y210.0
G0 Z76.56 F1800.0
G0 X10 Y10 F1380.0
; --- Cycle 697 ---
G0 X210.0 F1380.0
G0 Y210.0
G0 X10
G0 Y10
G0 X210.0 Y210.0
G0 Z76.67 F1800.0
G0 X10 Y10 F1380.0
; --- Cycle 698 ---
G0 X210.0 F1380.0
G0 Y210.0
G0 X10
G0 Y10
G0 X210.0 Y210.0
G0 Z76.78 F1800.0
G0 X10 Y10 F1380.0
; --- Cycle 699 ---
G0 X210.0 F1380.0
G0 Y210.0
G0 X10
G0 Y10
G0 X210.0 Y210.0
G0 Z76.89 F1800.0
G0 X10 Y10 F1380.0
; --- Cycle 700 ---
G0 X210.0 F1380.0
G0 Y210.0
G0 X10
G0 Y10
G0 X210.0 Y210.0
G0 Z77.0 F1800.0
G0 X10 Y10 F1380.0
; --- Cycle 701 ---
G0 X210.0 F1380.0
G0 Y210.0
G0 X10
G0 Y10
G0 X210.0 Y210.0
G0 Z77.11 F1800.0
G0 X10 Y10 F1380.0
; --- Cycle 702 ---
G0 X210.0 F1380.0
G0 Y210.0
G0 X10
G0 Y10
G0 X210.0 Y210.0
G0 Z77.22 F1800.0
G0 X10 Y10 F1380.0
; --- Cycle 703 ---
G0 X210.0 F1380.0
G0 Y210.0
G0 X10
G0 Y10
G0 X210.0 Y210.0
G0 Z77.33 F1800.0
G0 X10 Y10 F1380.0
; --- Cycle 704 ---
G0 X210.0 F1380.0
G0 Y210.0
G0 X10
G0 Y10
G0 X210.0 Y210.0
G0 Z77.44 F1800.0
G0 X10 Y10 F1380.0
; --- Cycle 705 ---
G0 X210.0 F1380.0
G0 Y210.0
G0 X10
G0 Y10
G0 X210.0 Y210.0
G0 Z77.55 F1800.0
G0 X10 Y10 F1380.0
; --- Cycle 706 ---
G0 X210.0 F1380.0
G0 Y210.0
G0 X10
G0 Y10
G0 X210.0 Y210.0
G0 Z77.66 F1800.0
G0 X10 Y10 F1380.0
; --- Cycle 707 ---
G0 X210.0 F1380.0
G0 Y210.0
G0 X10
G0 Y10
G0 X210.0 Y210.0
G0 Z77.77 F1800.0
G0 X10 Y10 F1380.0
; --- Cycle 708 ---
G0 X210.0 F1380.0
G0 Y210.0
G0 X10
G0 Y10
G0 X210.0 Y210.0
G0 Z77.88 F1800.0
G0 X10 Y10 F1380.0
; --- Cycle 709 ---
G0 X210.0 F1380.0
G0 Y210.0
G0 X10
G0 Y10
G0 X210.0 Y210.0
G0 Z77.99 F1800.0
G0 X10 Y10 F1380.0
; --- Cycle 710 ---
G0 X210.0 F1380.0
G0 Y210.0
G0 X10
G0 Y10
G0 X210.0 Y210.0
G0 Z78.1 F1800.0
G0 X10 Y10 F1380.0
; --- Cycle 711 ---
G0 X210.0 F1380.0
G0 Y210.0
G0 X10
G0 Y10
G0 X210.0 Y210.0
G0 Z78.21 F1800.0
G0 X10 Y10 F1380.0
; --- Cycle 712 ---
G0 X210.0 F1380.0
G0 Y210.0
G0 X10
G0 Y10
G0 X210.0 Y210.0
G0 Z78.32000000000001 F1800.0
G0 X10 Y10 F1380.0
; --- Cycle 713 ---
G0 X210.0 F1380.0
G0 Y210.0
G0 X10
G0 Y10
G0 X210.0 Y210.0
G0 Z78.43 F1800.0
G0 X10 Y10 F1380.0
; --- Cycle 714 ---
G0 X210.0 F1380.0
G0 Y210.0
G0 X10
G0 Y10
G0 X210.0 Y210.0
G0 Z78.54 F1800.0
G0 X10 Y10 F1380.0
; --- Cycle 715 ---
G0 X210.0 F1380.0
G0 Y210.0
G0 X10
G0 Y10
G0 X210.0 Y210.0
G0 Z78.65 F1800.0
G0 X10 Y10 F1380.0
; --- Cycle 716 ---
G0 X210.0 F1380.0
G0 Y210.0
G0 X10
G0 Y10
G0 X210.0 Y210.0
G0 Z78.76 F1800.0
G0 X10 Y10 F1380.0
; --- Cycle 717 ---
G0 X210.0 F1380.0
G0 Y210.0
G0 X10
G0 Y10
G0 X210.0 Y210.0
G0 Z78.87 F1800.0
G0 X10 Y10 F1380.0
; --- Cycle 718 ---
G0 X210.0 F1380.0
G0 Y210.0
G0 X10
G0 Y10
G0 X210.0 Y210.0
G0 Z78.98 F1800.0
G0 X10 Y10 F1380.0
; --- Cycle 719 ---
G0 X210.0 F1380.0
G0 Y210.0
G0 X10
G0 Y10
G0 X210.0 Y210.0
G0 Z79.09 F1800.0
G0 X10 Y10 F1380.0
; --- Cycle 720 ---
G0 X210.0 F1380.0
G0 Y210.0
G0 X10
G0 Y10
G0 X210.0 Y210.0
G0 Z79.2 F1800.0
G0 X10 Y10 F1380.0
; --- Cycle 721 ---
G0 X210.0 F1380.0
G0 Y210.0
G0 X10
G0 Y10
G0 X210.0 Y210.0
G0 Z79.31 F1800.0
G0 X10 Y10 F1380.0
; --- Cycle 722 ---
G0 X210.0 F1380.0
G0 Y210.0
G0 X10
G0 Y10
G0 X210.0 Y210.0
G0 Z79.42 F1800.0
G0 X10 Y10 F1380.0
; --- Cycle 723 ---
G0 X210.0 F1380.0
G0 Y210.0
G0 X10
G0 Y10
G0 X210.0 Y210.0
G0 Z79.53 F1800.0
G0 X10 Y10 F1380.0
; --- Cycle 724 ---
G0 X210.0 F1380.0
G0 Y210.0
G0 X10
G0 Y10
G0 X210.0 Y210.0
G0 Z79.64 F1800.0
G0 X10 Y10 F1380.0
; --- Cycle 725 ---
G0 X210.0 F1380.0
G0 Y210.0
G0 X10
G0 Y10
G0 X210.0 Y210.0
G0 Z79.75 F1800.0
G0 X10 Y10 F1380.0
; --- Cycle 726 ---
G0 X210.0 F1380.0
G0 Y210.0
G0 X10
G0 Y10
G0 X210.0 Y210.0
G0 Z79.86 F1800.0
G0 X10 Y10 F1380.0
; --- Cycle 727 ---
G0 X210.0 F1380.0
G0 Y210.0
G0 X10
G0 Y10
G0 X210.0 Y210.0
G0 Z79.97 F1800.0
G0 X10 Y10 F1380.0
; --- Cycle 728 ---
G0 X210.0 F1380.0
G0 Y210.0
G0 X10
G0 Y10
G0 X210.0 Y210.0
G0 Z80.08 F1800.0
G0 X10 Y10 F1380.0
; --- Cycle 729 ---
G0 X210.0 F1380.0
G0 Y210.0
G0 X10
G0 Y10
G0 X210.0 Y210.0
G0 Z80.19 F1800.0
G0 X10 Y10 F1380.0
; --- Cycle 730 ---
G0 X210.0 F1380.0
G0 Y210.0
G0 X10
G0 Y10
G0 X210.0 Y210.0
G0 Z80.3 F1800.0
G0 X10 Y10 F1380.0
; --- Cycle 731 ---
G0 X210.0 F1380.0
G0 Y210.0
G0 X10
G0 Y10
G0 X210.0 Y210.0
G0 Z80.41 F1800.0
G0 X10 Y10 F1380.0
; --- Cycle 732 ---
G0 X210.0 F1380.0
G0 Y210.0
G0 X10
G0 Y10
G0 X210.0 Y210.0
G0 Z80.52 F1800.0
G0 X10 Y10 F1380.0
; --- Cycle 733 ---
G0 X210.0 F1380.0
G0 Y210.0
G0 X10
G0 Y10
G0 X210.0 Y210.0
G0 Z80.63 F1800.0
G0 X10 Y10 F1380.0
; --- Cycle 734 ---
G0 X210.0 F1380.0
G0 Y210.0
G0 X10
G0 Y10
G0 X210.0 Y210.0
G0 Z80.74 F1800.0
G0 X10 Y10 F1380.0
; --- Cycle 735 ---
G0 X210.0 F1380.0
G0 Y210.0
G0 X10
G0 Y10
G0 X210.0 Y210.0
G0 Z80.85 F1800.0
G0 X10 Y10 F1380.0
; --- Cycle 736 ---
G0 X210.0 F1380.0
G0 Y210.0
G0 X10
G0 Y10
G0 X210.0 Y210.0
G0 Z80.96 F1800.0
G0 X10 Y10 F1380.0
; --- Cycle 737 ---
G0 X210.0 F1380.0
G0 Y210.0
G0 X10
G0 Y10
G0 X210.0 Y210.0
G0 Z81.07000000000001 F1800.0
G0 X10 Y10 F1380.0
; --- Cycle 738 ---
G0 X210.0 F1380.0
G0 Y210.0
G0 X10
G0 Y10
G0 X210.0 Y210.0
G0 Z81.18 F1800.0
G0 X10 Y10 F1380.0
; --- Cycle 739 ---
G0 X210.0 F1380.0
G0 Y210.0
G0 X10
G0 Y10
G0 X210.0 Y210.0
G0 Z81.29 F1800.0
G0 X10 Y10 F1380.0
; --- Cycle 740 ---
G0 X210.0 F1380.0
G0 Y210.0
G0 X10
G0 Y10
G0 X210.0 Y210.0
G0 Z81.4 F1800.0
G0 X10 Y10 F1380.0
; --- Cycle 741 ---
G0 X210.0 F1380.0
G0 Y210.0
G0 X10
G0 Y10
G0 X210.0 Y210.0
G0 Z81.51 F1800.0
G0 X10 Y10 F1380.0
; --- Cycle 742 ---
G0 X210.0 F1380.0
G0 Y210.0
G0 X10
G0 Y10
G0 X210.0 Y210.0
G0 Z81.62 F1800.0
G0 X10 Y10 F1380.0
; --- Cycle 743 ---
G0 X210.0 F1380.0
G0 Y210.0
G0 X10
G0 Y10
G0 X210.0 Y210.0
G0 Z81.73 F1800.0
G0 X10 Y10 F1380.0
; --- Cycle 744 ---
G0 X210.0 F1380.0
G0 Y210.0
G0 X10
G0 Y10
G0 X210.0 Y210.0
G0 Z81.84 F1800.0
G0 X10 Y10 F1380.0
; --- Cycle 745 ---
G0 X210.0 F1380.0
G0 Y210.0
G0 X10
G0 Y10
G0 X210.0 Y210.0
G0 Z81.95 F1800.0
G0 X10 Y10 F1380.0
; --- Cycle 746 ---
G0 X210.0 F1380.0
G0 Y210.0
G0 X10
G0 Y10
G0 X210.0 Y210.0
G0 Z82.06 F1800.0
G0 X10 Y10 F1380.0
; --- Cycle 747 ---
G0 X210.0 F1380.0
G0 Y210.0
G0 X10
G0 Y10
G0 X210.0 Y210.0
G0 Z82.17 F1800.0
G0 X10 Y10 F1380.0
; --- Cycle 748 ---
G0 X210.0 F1380.0
G0 Y210.0
G0 X10
G0 Y10
G0 X210.0 Y210.0
G0 Z82.28 F1800.0
G0 X10 Y10 F1380.0
; --- Cycle 749 ---
G0 X210.0 F1380.0
G0 Y210.0
G0 X10
G0 Y10
G0 X210.0 Y210.0
G0 Z82.39 F1800.0
G0 X10 Y10 F1380.0
; --- Cycle 750 ---
G0 X210.0 F1380.0
G0 Y210.0
G0 X10
G0 Y10
G0 X210.0 Y210.0
G0 Z82.5 F1800.0
G0 X10 Y10 F1380.0
; --- Cycle 751 ---
G0 X210.0 F1380.0
G0 Y210.0
G0 X10
G0 Y10
G0 X210.0 Y210.0
G0 Z82.61 F1800.0
G0 X10 Y10 F1380.0
; --- Cycle 752 ---
G0 X210.0 F1380.0
G0 Y210.0
G0 X10
G0 Y10
G0 X210.0 Y210.0
G0 Z82.72 F1800.0
G0 X10 Y10 F1380.0
; --- Cycle 753 ---
G0 X210.0 F1380.0
G0 Y210.0
G0 X10
G0 Y10
G0 X210.0 Y210.0
G0 Z82.83 F1800.0
G0 X10 Y10 F1380.0
; --- Cycle 754 ---
G0 X210.0 F1380.0
G0 Y210.0
G0 X10
G0 Y10
G0 X210.0 Y210.0
G0 Z82.94 F1800.0
G0 X10 Y10 F1380.0
; --- Cycle 755 ---
G0 X210.0 F1380.0
G0 Y210.0
G0 X10
G0 Y10
G0 X210.0 Y210.0
G0 Z83.05 F1800.0
G0 X10 Y10 F1380.0
; --- Cycle 756 ---
G0 X210.0 F1380.0
G0 Y210.0
G0 X10
G0 Y10
G0 X210.0 Y210.0
G0 Z83.16 F1800.0
G0 X10 Y10 F1380.0
; --- Cycle 757 ---
G0 X210.0 F1380.0
G0 Y210.0
G0 X10
G0 Y10
G0 X210.0 Y210.0
G0 Z83.27 F1800.0
G0 X10 Y10 F1380.0
; --- Cycle 758 ---
G0 X210.0 F1380.0
G0 Y210.0
G0 X10
G0 Y10
G0 X210.0 Y210.0
G0 Z83.38 F1800.0
G0 X10 Y10 F1380.0
; --- Cycle 759 ---
G0 X210.0 F1380.0
G0 Y210.0
G0 X10
G0 Y10
G0 X210.0 Y210.0
G0 Z83.49 F1800.0
G0 X10 Y10 F1380.0
; --- Cycle 760 ---
G0 X210.0 F1380.0
G0 Y210.0
G0 X10
G0 Y10
G0 X210.0 Y210.0
G0 Z83.6 F1800.0
G0 X10 Y10 F1380.0
; --- Cycle 761 ---
G0 X210.0 F1380.0
G0 Y210.0
G0 X10
G0 Y10
G0 X210.0 Y210.0
G0 Z83.71 F1800.0
G0 X10 Y10 F1380.0
; --- Cycle 762 ---
G0 X210.0 F1380.0
G0 Y210.0
G0 X10
G0 Y10
G0 X210.0 Y210.0
G0 Z83.82000000000001 F1800.0
G0 X10 Y10 F1380.0
; --- Cycle 763 ---
G0 X210.0 F1380.0
G0 Y210.0
G0 X10
G0 Y10
G0 X210.0 Y210.0
G0 Z83.93 F1800.0
G0 X10 Y10 F1380.0
; --- Cycle 764 ---
G0 X210.0 F1380.0
G0 Y210.0
G0 X10
G0 Y10
G0 X210.0 Y210.0
G0 Z84.04 F1800.0
G0 X10 Y10 F1380.0
; --- Cycle 765 ---
G0 X210.0 F1380.0
G0 Y210.0
G0 X10
G0 Y10
G0 X210.0 Y210.0
G0 Z84.15 F1800.0
G0 X10 Y10 F1380.0
; --- Cycle 766 ---
G0 X210.0 F1380.0
G0 Y210.0
G0 X10
G0 Y10
G0 X210.0 Y210.0
G0 Z84.26 F1800.0
G0 X10 Y10 F1380.0
; --- Cycle 767 ---
G0 X210.0 F1380.0
G0 Y210.0
G0 X10
G0 Y10
G0 X210.0 Y210.0
G0 Z84.37 F1800.0
G0 X10 Y10 F1380.0
; --- Cycle 768 ---
G0 X210.0 F1380.0
G0 Y210.0
G0 X10
G0 Y10
G0 X210.0 Y210.0
G0 Z84.48 F1800.0
G0 X10 Y10 F1380.0
; --- Cycle 769 ---
G0 X210.0 F1380.0
G0 Y210.0
G0 X10
G0 Y10
G0 X210.0 Y210.0
G0 Z84.59 F1800.0
G0 X10 Y10 F1380.0
; --- Cycle 770 ---
G0 X210.0 F1380.0
G0 Y210.0
G0 X10
G0 Y10
G0 X210.0 Y210.0
G0 Z84.7 F1800.0
G0 X10 Y10 F1380.0
; --- Cycle 771 ---
G0 X210.0 F1380.0
G0 Y210.0
G0 X10
G0 Y10
G0 X210.0 Y210.0
G0 Z84.81 F1800.0
G0 X10 Y10 F1380.0
; --- Cycle 772 ---
G0 X210.0 F1380.0
G0 Y210.0
G0 X10
G0 Y10
G0 X210.0 Y210.0
G0 Z84.92 F1800.0
G0 X10 Y10 F1380.0
; --- Cycle 773 ---
G0 X210.0 F1380.0
G0 Y210.0
G0 X10
G0 Y10
G0 X210.0 Y210.0
G0 Z85.03 F1800.0
G0 X10 Y10 F1380.0
; --- Cycle 774 ---
G0 X210.0 F1380.0
G0 Y210.0
G0 X10
G0 Y10
G0 X210.0 Y210.0
G0 Z85.14 F1800.0
G0 X10 Y10 F1380.0
; --- Cycle 775 ---
G0 X210.0 F1380.0
G0 Y210.0
G0 X10
G0 Y10
G0 X210.0 Y210.0
G0 Z85.25 F1800.0
G0 X10 Y10 F1380.0
; --- Cycle 776 ---
G0 X210.0 F1380.0
G0 Y210.0
G0 X10
G0 Y10
G0 X210.0 Y210.0
G0 Z85.36 F1800.0
G0 X10 Y10 F1380.0
; --- Cycle 777 ---
G0 X210.0 F1380.0
G0 Y210.0
G0 X10
G0 Y10
G0 X210.0 Y210.0
G0 Z85.47 F1800.0
G0 X10 Y10 F1380.0
; --- Cycle 778 ---
G0 X210.0 F1380.0
G0 Y210.0
G0 X10
G0 Y10
G0 X210.0 Y210.0
G0 Z85.58 F1800.0
G0 X10 Y10 F1380.0
; --- Cycle 779 ---
G0 X210.0 F1380.0
G0 Y210.0
G0 X10
G0 Y10
G0 X210.0 Y210.0
G0 Z85.69 F1800.0
G0 X10 Y10 F1380.0
; --- Cycle 780 ---
G0 X210.0 F1380.0
G0 Y210.0
G0 X10
G0 Y10
G0 X210.0 Y210.0
G0 Z85.8 F1800.0
G0 X10 Y10 F1380.0
; --- Cycle 781 ---
G0 X210.0 F1380.0
G0 Y210.0
G0 X10
G0 Y10
G0 X210.0 Y210.0
G0 Z85.91 F1800.0
G0 X10 Y10 F1380.0
; --- Cycle 782 ---
G0 X210.0 F1380.0
G0 Y210.0
G0 X10
G0 Y10
G0 X210.0 Y210.0
G0 Z86.02 F1800.0
G0 X10 Y10 F1380.0
; --- Cycle 783 ---
G0 X210.0 F1380.0
G0 Y210.0
G0 X10
G0 Y10
G0 X210.0 Y210.0
G0 Z86.13 F1800.0
G0 X10 Y10 F1380.0
; --- Cycle 784 ---
G0 X210.0 F1380.0
G0 Y210.0
G0 X10
G0 Y10
G0 X210.0 Y210.0
G0 Z86.24 F1800.0
G0 X10 Y10 F1380.0
; --- Cycle 785 ---
G0 X210.0 F1380.0
G0 Y210.0
G0 X10
G0 Y10
G0 X210.0 Y210.0
G0 Z86.35 F1800.0
G0 X10 Y10 F1380.0
; --- Cycle 786 ---
G0 X210.0 F1380.0
G0 Y210.0
G0 X10
G0 Y10
G0 X210.0 Y210.0
G0 Z86.46 F1800.0
G0 X10 Y10 F1380.0
; --- Cycle 787 ---
G0 X210.0 F1380.0
G0 Y210.0
G0 X10
G0 Y10
G0 X210.0 Y210.0
G0 Z86.57000000000001 F1800.0
G0 X10 Y10 F1380.0
; --- Cycle 788 ---
G0 X210.0 F1380.0
G0 Y210.0
G0 X10
G0 Y10
G0 X210.0 Y210.0
G0 Z86.68 F1800.0
G0 X10 Y10 F1380.0
; --- Cycle 789 ---
G0 X210.0 F1380.0
G0 Y210.0
G0 X10
G0 Y10
G0 X210.0 Y210.0
G0 Z86.79 F1800.0
G0 X10 Y10 F1380.0
; --- Cycle 790 ---
G0 X210.0 F1380.0
G0 Y210.0
G0 X10
G0 Y10
G0 X210.0 Y210.0
G0 Z86.9 F1800.0
G0 X10 Y10 F1380.0
; --- Cycle 791 ---
G0 X210.0 F1380.0
G0 Y210.0
G0 X10
G0 Y10
G0 X210.0 Y210.0
G0 Z87.01 F1800.0
G0 X10 Y10 F1380.0
; --- Cycle 792 ---
G0 X210.0 F1380.0
G0 Y210.0
G0 X10
G0 Y10
G0 X210.0 Y210.0
G0 Z87.12 F1800.0
G0 X10 Y10 F1380.0
; --- Cycle 793 ---
G0 X210.0 F1380.0
G0 Y210.0
G0 X10
G0 Y10
G0 X210.0 Y210.0
G0 Z87.23 F1800.0
G0 X10 Y10 F1380.0
; --- Cycle 794 ---
G0 X210.0 F1380.0
G0 Y210.0
G0 X10
G0 Y10
G0 X210.0 Y210.0
G0 Z87.34 F1800.0
G0 X10 Y10 F1380.0
; --- Cycle 795 ---
G0 X210.0 F1380.0
G0 Y210.0
G0 X10
G0 Y10
G0 X210.0 Y210.0
G0 Z87.45 F1800.0
G0 X10 Y10 F1380.0
; --- Cycle 796 ---
G0 X210.0 F1380.0
G0 Y210.0
G0 X10
G0 Y10
G0 X210.0 Y210.0
G0 Z87.56 F1800.0
G0 X10 Y10 F1380.0
; --- Cycle 797 ---
G0 X210.0 F1380.0
G0 Y210.0
G0 X10
G0 Y10
G0 X210.0 Y210.0
G0 Z87.67 F1800.0
G0 X10 Y10 F1380.0
; --- Cycle 798 ---
G0 X210.0 F1380.0
G0 Y210.0
G0 X10
G0 Y10
G0 X210.0 Y210.0
G0 Z87.78 F1800.0
G0 X10 Y10 F1380.0
; --- Cycle 799 ---
G0 X210.0 F1380.0
G0 Y210.0
G0 X10
G0 Y10
G0 X210.0 Y210.0
G0 Z87.89 F1800.0
G0 X10 Y10 F1380.0
; --- Cycle 800 ---
G0 X210.0 F1380.0
G0 Y210.0
G0 X10
G0 Y10
G0 X210.0 Y210.0
G0 Z88.0 F1800.0
G0 X10 Y10 F1380.0
; --- Cycle 801 ---
G0 X210.0 F1380.0
G0 Y210.0
G0 X10
G0 Y10
G0 X210.0 Y210.0
G0 Z88.11 F1800.0
G0 X10 Y10 F1380.0
; --- Cycle 802 ---
G0 X210.0 F1380.0
G0 Y210.0
G0 X10
G0 Y10
G0 X210.0 Y210.0
G0 Z88.22 F1800.0
G0 X10 Y10 F1380.0
; --- Cycle 803 ---
G0 X210.0 F1380.0
G0 Y210.0
G0 X10
G0 Y10
G0 X210.0 Y210.0
G0 Z88.33 F1800.0
G0 X10 Y10 F1380.0
; --- Cycle 804 ---
G0 X210.0 F1380.0
G0 Y210.0
G0 X10
G0 Y10
G0 X210.0 Y210.0
G0 Z88.44 F1800.0
G0 X10 Y10 F1380.0
; --- Cycle 805 ---
G0 X210.0 F1380.0
G0 Y210.0
G0 X10
G0 Y10
G0 X210.0 Y210.0
G0 Z88.55 F1800.0
G0 X10 Y10 F1380.0
; --- Cycle 806 ---
G0 X210.0 F1380.0
G0 Y210.0
G0 X10
G0 Y10
G0 X210.0 Y210.0
G0 Z88.66 F1800.0
G0 X10 Y10 F1380.0
; --- Cycle 807 ---
G0 X210.0 F1380.0
G0 Y210.0
G0 X10
G0 Y10
G0 X210.0 Y210.0
G0 Z88.77 F1800.0
G0 X10 Y10 F1380.0
; --- Cycle 808 ---
G0 X210.0 F1380.0
G0 Y210.0
G0 X10
G0 Y10
G0 X210.0 Y210.0
G0 Z88.88 F1800.0
G0 X10 Y10 F1380.0
; --- Cycle 809 ---
G0 X210.0 F1380.0
G0 Y210.0
G0 X10
G0 Y10
G0 X210.0 Y210.0
G0 Z88.99 F1800.0
G0 X10 Y10 F1380.0
; --- Cycle 810 ---
G0 X210.0 F1380.0
G0 Y210.0
G0 X10
G0 Y10
G0 X210.0 Y210.0
G0 Z89.1 F1800.0
G0 X10 Y10 F1380.0
; --- Cycle 811 ---
G0 X210.0 F1380.0
G0 Y210.0
G0 X10
G0 Y10
G0 X210.0 Y210.0
G0 Z89.21 F1800.0
G0 X10 Y10 F1380.0
; --- Cycle 812 ---
G0 X210.0 F1380.0
G0 Y210.0
G0 X10
G0 Y10
G0 X210.0 Y210.0
G0 Z89.32000000000001 F1800.0
G0 X10 Y10 F1380.0
; --- Cycle 813 ---
G0 X210.0 F1380.0
G0 Y210.0
G0 X10
G0 Y10
G0 X210.0 Y210.0
G0 Z89.43 F1800.0
G0 X10 Y10 F1380.0
; --- Cycle 814 ---
G0 X210.0 F1380.0
G0 Y210.0
G0 X10
G0 Y10
G0 X210.0 Y210.0
G0 Z89.54 F1800.0
G0 X10 Y10 F1380.0
; --- Cycle 815 ---
G0 X210.0 F1380.0
G0 Y210.0
G0 X10
G0 Y10
G0 X210.0 Y210.0
G0 Z89.65 F1800.0
G0 X10 Y10 F1380.0
; --- Cycle 816 ---
G0 X210.0 F1380.0
G0 Y210.0
G0 X10
G0 Y10
G0 X210.0 Y210.0
G0 Z89.76 F1800.0
G0 X10 Y10 F1380.0
; --- Cycle 817 ---
G0 X210.0 F1380.0
G0 Y210.0
G0 X10
G0 Y10
G0 X210.0 Y210.0
G0 Z89.87 F1800.0
G0 X10 Y10 F1380.0
; --- Cycle 818 ---
G0 X210.0 F1380.0
G0 Y210.0
G0 X10
G0 Y10
G0 X210.0 Y210.0
G0 Z89.98 F1800.0
G0 X10 Y10 F1380.0
; --- Cycle 819 ---
G0 X210.0 F1380.0
G0 Y210.0
G0 X10
G0 Y10
G0 X210.0 Y210.0
G0 Z90.09 F1800.0
G0 X10 Y10 F1380.0
; --- Cycle 820 ---
G0 X210.0 F1380.0
G0 Y210.0
G0 X10
G0 Y10
G0 X210.0 Y210.0
G0 Z90.2 F1800.0
G0 X10 Y10 F1380.0
; --- Cycle 821 ---
G0 X210.0 F1380.0
G0 Y210.0
G0 X10
G0 Y10
G0 X210.0 Y210.0
G0 Z90.31 F1800.0
G0 X10 Y10 F1380.0
; --- Cycle 822 ---
G0 X210.0 F1380.0
G0 Y210.0
G0 X10
G0 Y10
G0 X210.0 Y210.0
G0 Z90.42 F1800.0
G0 X10 Y10 F1380.0
; --- Cycle 823 ---
G0 X210.0 F1380.0
G0 Y210.0
G0 X10
G0 Y10
G0 X210.0 Y210.0
G0 Z90.53 F1800.0
G0 X10 Y10 F1380.0
; --- Cycle 824 ---
G0 X210.0 F1380.0
G0 Y210.0
G0 X10
G0 Y10
G0 X210.0 Y210.0
G0 Z90.64 F1800.0
G0 X10 Y10 F1380.0
; --- Cycle 825 ---
G0 X210.0 F1380.0
G0 Y210.0
G0 X10
G0 Y10
G0 X210.0 Y210.0
G0 Z90.75 F1800.0
G0 X10 Y10 F1380.0
; --- Cycle 826 ---
G0 X210.0 F1380.0
G0 Y210.0
G0 X10
G0 Y10
G0 X210.0 Y210.0
G0 Z90.86 F1800.0
G0 X10 Y10 F1380.0
; --- Cycle 827 ---
G0 X210.0 F1380.0
G0 Y210.0
G0 X10
G0 Y10
G0 X210.0 Y210.0
G0 Z90.97 F1800.0
G0 X10 Y10 F1380.0
; --- Cycle 828 ---
G0 X210.0 F1380.0
G0 Y210.0
G0 X10
G0 Y10
G0 X210.0 Y210.0
G0 Z91.08 F1800.0
G0 X10 Y10 F1380.0
; --- Cycle 829 ---
G0 X210.0 F1380.0
G0 Y210.0
G0 X10
G0 Y10
G0 X210.0 Y210.0
G0 Z91.19 F1800.0
G0 X10 Y10 F1380.0
; --- Cycle 830 ---
G0 X210.0 F1380.0
G0 Y210.0
G0 X10
G0 Y10
G0 X210.0 Y210.0
G0 Z91.3 F1800.0
G0 X10 Y10 F1380.0
; --- Cycle 831 ---
G0 X210.0 F1380.0
G0 Y210.0
G0 X10
G0 Y10
G0 X210.0 Y210.0
G0 Z91.41 F1800.0
G0 X10 Y10 F1380.0
; --- Cycle 832 ---
G0 X210.0 F1380.0
G0 Y210.0
G0 X10
G0 Y10
G0 X210.0 Y210.0
G0 Z91.52 F1800.0
G0 X10 Y10 F1380.0
; --- Cycle 833 ---
G0 X210.0 F1380.0
G0 Y210.0
G0 X10
G0 Y10
G0 X210.0 Y210.0
G0 Z91.63 F1800.0
G0 X10 Y10 F1380.0
; --- Cycle 834 ---
G0 X210.0 F1380.0
G0 Y210.0
G0 X10
G0 Y10
G0 X210.0 Y210.0
G0 Z91.74 F1800.0
G0 X10 Y10 F1380.0
; --- Cycle 835 ---
G0 X210.0 F1380.0
G0 Y210.0
G0 X10
G0 Y10
G0 X210.0 Y210.0
G0 Z91.85 F1800.0
G0 X10 Y10 F1380.0
; --- Cycle 836 ---
G0 X210.0 F1380.0
G0 Y210.0
G0 X10
G0 Y10
G0 X210.0 Y210.0
G0 Z91.96 F1800.0
G0 X10 Y10 F1380.0
; --- Cycle 837 ---
G0 X210.0 F1380.0
G0 Y210.0
G0 X10
G0 Y10
G0 X210.0 Y210.0
G0 Z92.07000000000001 F1800.0
G0 X10 Y10 F1380.0
; --- Cycle 838 ---
G0 X210.0 F1380.0
G0 Y210.0
G0 X10
G0 Y10
G0 X210.0 Y210.0
G0 Z92.18 F1800.0
G0 X10 Y10 F1380.0
; --- Cycle 839 ---
G0 X210.0 F1380.0
G0 Y210.0
G0 X10
G0 Y10
G0 X210.0 Y210.0
G0 Z92.29 F1800.0
G0 X10 Y10 F1380.0
; --- Cycle 840 ---
G0 X210.0 F1380.0
G0 Y210.0
G0 X10
G0 Y10
G0 X210.0 Y210.0
G0 Z92.4 F1800.0
G0 X10 Y10 F1380.0
; --- Cycle 841 ---
G0 X210.0 F1380.0
G0 Y210.0
G0 X10
G0 Y10
G0 X210.0 Y210.0
G0 Z92.51 F1800.0
G0 X10 Y10 F1380.0
; --- Cycle 842 ---
G0 X210.0 F1380.0
G0 Y210.0
G0 X10
G0 Y10
G0 X210.0 Y210.0
G0 Z92.62 F1800.0
G0 X10 Y10 F1380.0
; --- Cycle 843 ---
G0 X210.0 F1380.0
G0 Y210.0
G0 X10
G0 Y10
G0 X210.0 Y210.0
G0 Z92.73 F1800.0
G0 X10 Y10 F1380.0
; --- Cycle 844 ---
G0 X210.0 F1380.0
G0 Y210.0
G0 X10
G0 Y10
G0 X210.0 Y210.0
G0 Z92.84 F1800.0
G0 X10 Y10 F1380.0
; --- Cycle 845 ---
G0 X210.0 F1380.0
G0 Y210.0
G0 X10
G0 Y10
G0 X210.0 Y210.0
G0 Z92.95 F1800.0
G0 X10 Y10 F1380.0
; --- Cycle 846 ---
G0 X210.0 F1380.0
G0 Y210.0
G0 X10
G0 Y10
G0 X210.0 Y210.0
G0 Z93.06 F1800.0
G0 X10 Y10 F1380.0
; --- Cycle 847 ---
G0 X210.0 F1380.0
G0 Y210.0
G0 X10
G0 Y10
G0 X210.0 Y210.0
G0 Z93.17 F1800.0
G0 X10 Y10 F1380.0
; --- Cycle 848 ---
G0 X210.0 F1380.0
G0 Y210.0
G0 X10
G0 Y10
G0 X210.0 Y210.0
G0 Z93.28 F1800.0
G0 X10 Y10 F1380.0
; --- Cycle 849 ---
G0 X210.0 F1380.0
G0 Y210.0
G0 X10
G0 Y10
G0 X210.0 Y210.0
G0 Z93.39 F1800.0
G0 X10 Y10 F1380.0
; --- Cycle 850 ---
G0 X210.0 F1380.0
G0 Y210.0
G0 X10
G0 Y10
G0 X210.0 Y210.0
G0 Z93.5 F1800.0
G0 X10 Y10 F1380.0
; --- Cycle 851 ---
G0 X210.0 F1380.0
G0 Y210.0
G0 X10
G0 Y10
G0 X210.0 Y210.0
G0 Z93.61 F1800.0
G0 X10 Y10 F1380.0
; --- Cycle 852 ---
G0 X210.0 F1380.0
G0 Y210.0
G0 X10
G0 Y10
G0 X210.0 Y210.0
G0 Z93.72 F1800.0
G0 X10 Y10 F1380.0
; --- Cycle 853 ---
G0 X210.0 F1380.0
G0 Y210.0
G0 X10
G0 Y10
G0 X210.0 Y210.0
G0 Z93.83 F1800.0
G0 X10 Y10 F1380.0
; --- Cycle 854 ---
G0 X210.0 F1380.0
G0 Y210.0
G0 X10
G0 Y10
G0 X210.0 Y210.0
G0 Z93.94 F1800.0
G0 X10 Y10 F1380.0
; --- Cycle 855 ---
G0 X210.0 F1380.0
G0 Y210.0
G0 X10
G0 Y10
G0 X210.0 Y210.0
G0 Z94.05 F1800.0
G0 X10 Y10 F1380.0
; --- Cycle 856 ---
G0 X210.0 F1380.0
G0 Y210.0
G0 X10
G0 Y10
G0 X210.0 Y210.0
G0 Z94.16 F1800.0
G0 X10 Y10 F1380.0
; --- Cycle 857 ---
G0 X210.0 F1380.0
G0 Y210.0
G0 X10
G0 Y10
G0 X210.0 Y210.0
G0 Z94.27 F1800.0
G0 X10 Y10 F1380.0
; --- Cycle 858 ---
G0 X210.0 F1380.0
G0 Y210.0
G0 X10
G0 Y10
G0 X210.0 Y210.0
G0 Z94.38 F1800.0
G0 X10 Y10 F1380.0
; --- Cycle 859 ---
G0 X210.0 F1380.0
G0 Y210.0
G0 X10
G0 Y10
G0 X210.0 Y210.0
G0 Z94.49 F1800.0
G0 X10 Y10 F1380.0
; --- Cycle 860 ---
G0 X210.0 F1380.0
G0 Y210.0
G0 X10
G0 Y10
G0 X210.0 Y210.0
G0 Z94.6 F1800.0
G0 X10 Y10 F1380.0
