; G-Code Motion System
; Generated by G-Code Generator
; Print Dimensions: 220.0mm x 220.0mm x 220.0mm
; Cycles: 500
; Feed Rate: 100.0 mm/min
; 
G90 ; Absolute positioning
G21 ; Metric units
G28 ; Home all axes
F100.0 ; Set feed rate

G0 X10.0 Y10.0 Z5.0 ; Move to start position

; === CYCLE 1 ===
G1 X230.0 Y10.0 Z5.0 ; Corner 1
G1 X230.0 Y230.0 Z5.0 ; Corner 2
G1 X10.0 Y230.0 Z5.0 ; Corner 3
G1 X10.0 Y10.0 Z5.0 ; Corner 4
G0 Z7.0 ; Z-Hop

; === CYCLE 2 ===
G1 X230.0 Y10.0 Z5.0 ; Corner 1
G1 X230.0 Y230.0 Z5.0 ; Corner 2
G1 X10.0 Y230.0 Z5.0 ; Corner 3
G1 X10.0 Y10.0 Z5.0 ; Corner 4
G0 Z7.0 ; Z-Hop

; === CYCLE 3 ===
G1 X230.0 Y10.0 Z5.0 ; Corner 1
G1 X230.0 Y230.0 Z5.0 ; Corner 2
G1 X10.0 Y230.0 Z5.0 ; Corner 3
G1 X10.0 Y10.0 Z5.0 ; Corner 4
G0 Z7.0 ; Z-Hop

; === CYCLE 4 ===
G1 X230.0 Y10.0 Z5.0 ; Corner 1
G1 X230.0 Y230.0 Z5.0 ; Corner 2
G1 X10.0 Y230.0 Z5.0 ; Corner 3
G1 X10.0 Y10.0 Z5.0 ; Corner 4
G0 Z7.0 ; Z-Hop

; === CYCLE 5 ===
G1 X230.0 Y10.0 Z5.0 ; Corner 1
G1 X230.0 Y230.0 Z5.0 ; Corner 2
G1 X10.0 Y230.0 Z5.0 ; Corner 3
G1 X10.0 Y10.0 Z5.0 ; Corner 4
G0 Z7.0 ; Z-Hop

; === CYCLE 6 ===
G1 X230.0 Y10.0 Z5.0 ; Corner 1
G1 X230.0 Y230.0 Z5.0 ; Corner 2
G1 X10.0 Y230.0 Z5.0 ; Corner 3
G1 X10.0 Y10.0 Z5.0 ; Corner 4
G0 Z7.0 ; Z-Hop

; === CYCLE 7 ===
G1 X230.0 Y10.0 Z5.0 ; Corner 1
G1 X230.0 Y230.0 Z5.0 ; Corner 2
G1 X10.0 Y230.0 Z5.0 ; Corner 3
G1 X10.0 Y10.0 Z5.0 ; Corner 4
G0 Z7.0 ; Z-Hop

; === CYCLE 8 ===
G1 X230.0 Y10.0 Z5.0 ; Corner 1
G1 X230.0 Y230.0 Z5.0 ; Corner 2
G1 X10.0 Y230.0 Z5.0 ; Corner 3
G1 X10.0 Y10.0 Z5.0 ; Corner 4
G0 Z7.0 ; Z-Hop

; === CYCLE 9 ===
G1 X230.0 Y10.0 Z5.0 ; Corner 1
G1 X230.0 Y230.0 Z5.0 ; Corner 2
G1 X10.0 Y230.0 Z5.0 ; Corner 3
G1 X10.0 Y10.0 Z5.0 ; Corner 4
G0 Z7.0 ; Z-Hop

; === CYCLE 10 ===
G1 X230.0 Y10.0 Z5.0 ; Corner 1
G1 X230.0 Y230.0 Z5.0 ; Corner 2
G1 X10.0 Y230.0 Z5.0 ; Corner 3
G1 X10.0 Y10.0 Z5.0 ; Corner 4
G0 Z7.0 ; Z-Hop

; === CYCLE 11 ===
G1 X230.0 Y10.0 Z5.0 ; Corner 1
G1 X230.0 Y230.0 Z5.0 ; Corner 2
G1 X10.0 Y230.0 Z5.0 ; Corner 3
G1 X10.0 Y10.0 Z5.0 ; Corner 4
G0 Z7.0 ; Z-Hop

; === CYCLE 12 ===
G1 X230.0 Y10.0 Z5.0 ; Corner 1
G1 X230.0 Y230.0 Z5.0 ; Corner 2
G1 X10.0 Y230.0 Z5.0 ; Corner 3
G1 X10.0 Y10.0 Z5.0 ; Corner 4
G0 Z7.0 ; Z-Hop

; === CYCLE 13 ===
G1 X230.0 Y10.0 Z5.0 ; Corner 1
G1 X230.0 Y230.0 Z5.0 ; Corner 2
G1 X10.0 Y230.0 Z5.0 ; Corner 3
G1 X10.0 Y10.0 Z5.0 ; Corner 4
G0 Z7.0 ; Z-Hop

; === CYCLE 14 ===
G1 X230.0 Y10.0 Z5.0 ; Corner 1
G1 X230.0 Y230.0 Z5.0 ; Corner 2
G1 X10.0 Y230.0 Z5.0 ; Corner 3
G1 X10.0 Y10.0 Z5.0 ; Corner 4
G0 Z7.0 ; Z-Hop

; === CYCLE 15 ===
G1 X230.0 Y10.0 Z5.0 ; Corner 1
G1 X230.0 Y230.0 Z5.0 ; Corner 2
G1 X10.0 Y230.0 Z5.0 ; Corner 3
G1 X10.0 Y10.0 Z5.0 ; Corner 4
G0 Z7.0 ; Z-Hop

; === CYCLE 16 ===
G1 X230.0 Y10.0 Z5.0 ; Corner 1
G1 X230.0 Y230.0 Z5.0 ; Corner 2
G1 X10.0 Y230.0 Z5.0 ; Corner 3
G1 X10.0 Y10.0 Z5.0 ; Corner 4
G0 Z7.0 ; Z-Hop

; === CYCLE 17 ===
G1 X230.0 Y10.0 Z5.0 ; Corner 1
G1 X230.0 Y230.0 Z5.0 ; Corner 2
G1 X10.0 Y230.0 Z5.0 ; Corner 3
G1 X10.0 Y10.0 Z5.0 ; Corner 4
G0 Z7.0 ; Z-Hop

; === CYCLE 18 ===
G1 X230.0 Y10.0 Z5.0 ; Corner 1
G1 X230.0 Y230.0 Z5.0 ; Corner 2
G1 X10.0 Y230.0 Z5.0 ; Corner 3
G1 X10.0 Y10.0 Z5.0 ; Corner 4
G0 Z7.0 ; Z-Hop

; === CYCLE 19 ===
G1 X230.0 Y10.0 Z5.0 ; Corner 1
G1 X230.0 Y230.0 Z5.0 ; Corner 2
G1 X10.0 Y230.0 Z5.0 ; Corner 3
G1 X10.0 Y10.0 Z5.0 ; Corner 4
G0 Z7.0 ; Z-Hop

; === CYCLE 20 ===
G1 X230.0 Y10.0 Z5.0 ; Corner 1
G1 X230.0 Y230.0 Z5.0 ; Corner 2
G1 X10.0 Y230.0 Z5.0 ; Corner 3
G1 X10.0 Y10.0 Z5.0 ; Corner 4
G0 Z7.0 ; Z-Hop

; === CYCLE 21 ===
G1 X230.0 Y10.0 Z5.0 ; Corner 1
G1 X230.0 Y230.0 Z5.0 ; Corner 2
G1 X10.0 Y230.0 Z5.0 ; Corner 3
G1 X10.0 Y10.0 Z5.0 ; Corner 4
G0 Z7.0 ; Z-Hop

; === CYCLE 22 ===
G1 X230.0 Y10.0 Z5.0 ; Corner 1
G1 X230.0 Y230.0 Z5.0 ; Corner 2
G1 X10.0 Y230.0 Z5.0 ; Corner 3
G1 X10.0 Y10.0 Z5.0 ; Corner 4
G0 Z7.0 ; Z-Hop

; === CYCLE 23 ===
G1 X230.0 Y10.0 Z5.0 ; Corner 1
G1 X230.0 Y230.0 Z5.0 ; Corner 2
G1 X10.0 Y230.0 Z5.0 ; Corner 3
G1 X10.0 Y10.0 Z5.0 ; Corner 4
G0 Z7.0 ; Z-Hop

; === CYCLE 24 ===
G1 X230.0 Y10.0 Z5.0 ; Corner 1
G1 X230.0 Y230.0 Z5.0 ; Corner 2
G1 X10.0 Y230.0 Z5.0 ; Corner 3
G1 X10.0 Y10.0 Z5.0 ; Corner 4
G0 Z7.0 ; Z-Hop

; === CYCLE 25 ===
G1 X230.0 Y10.0 Z5.0 ; Corner 1
G1 X230.0 Y230.0 Z5.0 ; Corner 2
G1 X10.0 Y230.0 Z5.0 ; Corner 3
G1 X10.0 Y10.0 Z5.0 ; Corner 4
G0 Z7.0 ; Z-Hop

; === CYCLE 26 ===
G1 X230.0 Y10.0 Z5.0 ; Corner 1
G1 X230.0 Y230.0 Z5.0 ; Corner 2
G1 X10.0 Y230.0 Z5.0 ; Corner 3
G1 X10.0 Y10.0 Z5.0 ; Corner 4
G0 Z7.0 ; Z-Hop

; === CYCLE 27 ===
G1 X230.0 Y10.0 Z5.0 ; Corner 1
G1 X230.0 Y230.0 Z5.0 ; Corner 2
G1 X10.0 Y230.0 Z5.0 ; Corner 3
G1 X10.0 Y10.0 Z5.0 ; Corner 4
G0 Z7.0 ; Z-Hop

; === CYCLE 28 ===
G1 X230.0 Y10.0 Z5.0 ; Corner 1
G1 X230.0 Y230.0 Z5.0 ; Corner 2
G1 X10.0 Y230.0 Z5.0 ; Corner 3
G1 X10.0 Y10.0 Z5.0 ; Corner 4
G0 Z7.0 ; Z-Hop

; === CYCLE 29 ===
G1 X230.0 Y10.0 Z5.0 ; Corner 1
G1 X230.0 Y230.0 Z5.0 ; Corner 2
G1 X10.0 Y230.0 Z5.0 ; Corner 3
G1 X10.0 Y10.0 Z5.0 ; Corner 4
G0 Z7.0 ; Z-Hop

; === CYCLE 30 ===
G1 X230.0 Y10.0 Z5.0 ; Corner 1
G1 X230.0 Y230.0 Z5.0 ; Corner 2
G1 X10.0 Y230.0 Z5.0 ; Corner 3
G1 X10.0 Y10.0 Z5.0 ; Corner 4
G0 Z7.0 ; Z-Hop

; === CYCLE 31 ===
G1 X230.0 Y10.0 Z5.0 ; Corner 1
G1 X230.0 Y230.0 Z5.0 ; Corner 2
G1 X10.0 Y230.0 Z5.0 ; Corner 3
G1 X10.0 Y10.0 Z5.0 ; Corner 4
G0 Z7.0 ; Z-Hop

; === CYCLE 32 ===
G1 X230.0 Y10.0 Z5.0 ; Corner 1
G1 X230.0 Y230.0 Z5.0 ; Corner 2
G1 X10.0 Y230.0 Z5.0 ; Corner 3
G1 X10.0 Y10.0 Z5.0 ; Corner 4
G0 Z7.0 ; Z-Hop

; === CYCLE 33 ===
G1 X230.0 Y10.0 Z5.0 ; Corner 1
G1 X230.0 Y230.0 Z5.0 ; Corner 2
G1 X10.0 Y230.0 Z5.0 ; Corner 3
G1 X10.0 Y10.0 Z5.0 ; Corner 4
G0 Z7.0 ; Z-Hop

; === CYCLE 34 ===
G1 X230.0 Y10.0 Z5.0 ; Corner 1
G1 X230.0 Y230.0 Z5.0 ; Corner 2
G1 X10.0 Y230.0 Z5.0 ; Corner 3
G1 X10.0 Y10.0 Z5.0 ; Corner 4
G0 Z7.0 ; Z-Hop

; === CYCLE 35 ===
G1 X230.0 Y10.0 Z5.0 ; Corner 1
G1 X230.0 Y230.0 Z5.0 ; Corner 2
G1 X10.0 Y230.0 Z5.0 ; Corner 3
G1 X10.0 Y10.0 Z5.0 ; Corner 4
G0 Z7.0 ; Z-Hop

; === CYCLE 36 ===
G1 X230.0 Y10.0 Z5.0 ; Corner 1
G1 X230.0 Y230.0 Z5.0 ; Corner 2
G1 X10.0 Y230.0 Z5.0 ; Corner 3
G1 X10.0 Y10.0 Z5.0 ; Corner 4
G0 Z7.0 ; Z-Hop

; === CYCLE 37 ===
G1 X230.0 Y10.0 Z5.0 ; Corner 1
G1 X230.0 Y230.0 Z5.0 ; Corner 2
G1 X10.0 Y230.0 Z5.0 ; Corner 3
G1 X10.0 Y10.0 Z5.0 ; Corner 4
G0 Z7.0 ; Z-Hop

; === CYCLE 38 ===
G1 X230.0 Y10.0 Z5.0 ; Corner 1
G1 X230.0 Y230.0 Z5.0 ; Corner 2
G1 X10.0 Y230.0 Z5.0 ; Corner 3
G1 X10.0 Y10.0 Z5.0 ; Corner 4
G0 Z7.0 ; Z-Hop

; === CYCLE 39 ===
G1 X230.0 Y10.0 Z5.0 ; Corner 1
G1 X230.0 Y230.0 Z5.0 ; Corner 2
G1 X10.0 Y230.0 Z5.0 ; Corner 3
G1 X10.0 Y10.0 Z5.0 ; Corner 4
G0 Z7.0 ; Z-Hop

; === CYCLE 40 ===
G1 X230.0 Y10.0 Z5.0 ; Corner 1
G1 X230.0 Y230.0 Z5.0 ; Corner 2
G1 X10.0 Y230.0 Z5.0 ; Corner 3
G1 X10.0 Y10.0 Z5.0 ; Corner 4
G0 Z7.0 ; Z-Hop

; === CYCLE 41 ===
G1 X230.0 Y10.0 Z5.0 ; Corner 1
G1 X230.0 Y230.0 Z5.0 ; Corner 2
G1 X10.0 Y230.0 Z5.0 ; Corner 3
G1 X10.0 Y10.0 Z5.0 ; Corner 4
G0 Z7.0 ; Z-Hop

; === CYCLE 42 ===
G1 X230.0 Y10.0 Z5.0 ; Corner 1
G1 X230.0 Y230.0 Z5.0 ; Corner 2
G1 X10.0 Y230.0 Z5.0 ; Corner 3
G1 X10.0 Y10.0 Z5.0 ; Corner 4
G0 Z7.0 ; Z-Hop

; === CYCLE 43 ===
G1 X230.0 Y10.0 Z5.0 ; Corner 1
G1 X230.0 Y230.0 Z5.0 ; Corner 2
G1 X10.0 Y230.0 Z5.0 ; Corner 3
G1 X10.0 Y10.0 Z5.0 ; Corner 4
G0 Z7.0 ; Z-Hop

; === CYCLE 44 ===
G1 X230.0 Y10.0 Z5.0 ; Corner 1
G1 X230.0 Y230.0 Z5.0 ; Corner 2
G1 X10.0 Y230.0 Z5.0 ; Corner 3
G1 X10.0 Y10.0 Z5.0 ; Corner 4
G0 Z7.0 ; Z-Hop

; === CYCLE 45 ===
G1 X230.0 Y10.0 Z5.0 ; Corner 1
G1 X230.0 Y230.0 Z5.0 ; Corner 2
G1 X10.0 Y230.0 Z5.0 ; Corner 3
G1 X10.0 Y10.0 Z5.0 ; Corner 4
G0 Z7.0 ; Z-Hop

; === CYCLE 46 ===
G1 X230.0 Y10.0 Z5.0 ; Corner 1
G1 X230.0 Y230.0 Z5.0 ; Corner 2
G1 X10.0 Y230.0 Z5.0 ; Corner 3
G1 X10.0 Y10.0 Z5.0 ; Corner 4
G0 Z7.0 ; Z-Hop

; === CYCLE 47 ===
G1 X230.0 Y10.0 Z5.0 ; Corner 1
G1 X230.0 Y230.0 Z5.0 ; Corner 2
G1 X10.0 Y230.0 Z5.0 ; Corner 3
G1 X10.0 Y10.0 Z5.0 ; Corner 4
G0 Z7.0 ; Z-Hop

; === CYCLE 48 ===
G1 X230.0 Y10.0 Z5.0 ; Corner 1
G1 X230.0 Y230.0 Z5.0 ; Corner 2
G1 X10.0 Y230.0 Z5.0 ; Corner 3
G1 X10.0 Y10.0 Z5.0 ; Corner 4
G0 Z7.0 ; Z-Hop

; === CYCLE 49 ===
G1 X230.0 Y10.0 Z5.0 ; Corner 1
G1 X230.0 Y230.0 Z5.0 ; Corner 2
G1 X10.0 Y230.0 Z5.0 ; Corner 3
G1 X10.0 Y10.0 Z5.0 ; Corner 4
G0 Z7.0 ; Z-Hop

; === CYCLE 50 ===
G1 X230.0 Y10.0 Z5.0 ; Corner 1
G1 X230.0 Y230.0 Z5.0 ; Corner 2
G1 X10.0 Y230.0 Z5.0 ; Corner 3
G1 X10.0 Y10.0 Z5.0 ; Corner 4
G0 Z7.0 ; Z-Hop

; === CYCLE 51 ===
G1 X230.0 Y10.0 Z5.0 ; Corner 1
G1 X230.0 Y230.0 Z5.0 ; Corner 2
G1 X10.0 Y230.0 Z5.0 ; Corner 3
G1 X10.0 Y10.0 Z5.0 ; Corner 4
G0 Z7.0 ; Z-Hop

; === CYCLE 52 ===
G1 X230.0 Y10.0 Z5.0 ; Corner 1
G1 X230.0 Y230.0 Z5.0 ; Corner 2
G1 X10.0 Y230.0 Z5.0 ; Corner 3
G1 X10.0 Y10.0 Z5.0 ; Corner 4
G0 Z7.0 ; Z-Hop

; === CYCLE 53 ===
G1 X230.0 Y10.0 Z5.0 ; Corner 1
G1 X230.0 Y230.0 Z5.0 ; Corner 2
G1 X10.0 Y230.0 Z5.0 ; Corner 3
G1 X10.0 Y10.0 Z5.0 ; Corner 4
G0 Z7.0 ; Z-Hop

; === CYCLE 54 ===
G1 X230.0 Y10.0 Z5.0 ; Corner 1
G1 X230.0 Y230.0 Z5.0 ; Corner 2
G1 X10.0 Y230.0 Z5.0 ; Corner 3
G1 X10.0 Y10.0 Z5.0 ; Corner 4
G0 Z7.0 ; Z-Hop

; === CYCLE 55 ===
G1 X230.0 Y10.0 Z5.0 ; Corner 1
G1 X230.0 Y230.0 Z5.0 ; Corner 2
G1 X10.0 Y230.0 Z5.0 ; Corner 3
G1 X10.0 Y10.0 Z5.0 ; Corner 4
G0 Z7.0 ; Z-Hop

; === CYCLE 56 ===
G1 X230.0 Y10.0 Z5.0 ; Corner 1
G1 X230.0 Y230.0 Z5.0 ; Corner 2
G1 X10.0 Y230.0 Z5.0 ; Corner 3
G1 X10.0 Y10.0 Z5.0 ; Corner 4
G0 Z7.0 ; Z-Hop

; === CYCLE 57 ===
G1 X230.0 Y10.0 Z5.0 ; Corner 1
G1 X230.0 Y230.0 Z5.0 ; Corner 2
G1 X10.0 Y230.0 Z5.0 ; Corner 3
G1 X10.0 Y10.0 Z5.0 ; Corner 4
G0 Z7.0 ; Z-Hop

; === CYCLE 58 ===
G1 X230.0 Y10.0 Z5.0 ; Corner 1
G1 X230.0 Y230.0 Z5.0 ; Corner 2
G1 X10.0 Y230.0 Z5.0 ; Corner 3
G1 X10.0 Y10.0 Z5.0 ; Corner 4
G0 Z7.0 ; Z-Hop

; === CYCLE 59 ===
G1 X230.0 Y10.0 Z5.0 ; Corner 1
G1 X230.0 Y230.0 Z5.0 ; Corner 2
G1 X10.0 Y230.0 Z5.0 ; Corner 3
G1 X10.0 Y10.0 Z5.0 ; Corner 4
G0 Z7.0 ; Z-Hop

; === CYCLE 60 ===
G1 X230.0 Y10.0 Z5.0 ; Corner 1
G1 X230.0 Y230.0 Z5.0 ; Corner 2
G1 X10.0 Y230.0 Z5.0 ; Corner 3
G1 X10.0 Y10.0 Z5.0 ; Corner 4
G0 Z7.0 ; Z-Hop

; === CYCLE 61 ===
G1 X230.0 Y10.0 Z5.0 ; Corner 1
G1 X230.0 Y230.0 Z5.0 ; Corner 2
G1 X10.0 Y230.0 Z5.0 ; Corner 3
G1 X10.0 Y10.0 Z5.0 ; Corner 4
G0 Z7.0 ; Z-Hop

; === CYCLE 62 ===
G1 X230.0 Y10.0 Z5.0 ; Corner 1
G1 X230.0 Y230.0 Z5.0 ; Corner 2
G1 X10.0 Y230.0 Z5.0 ; Corner 3
G1 X10.0 Y10.0 Z5.0 ; Corner 4
G0 Z7.0 ; Z-Hop

; === CYCLE 63 ===
G1 X230.0 Y10.0 Z5.0 ; Corner 1
G1 X230.0 Y230.0 Z5.0 ; Corner 2
G1 X10.0 Y230.0 Z5.0 ; Corner 3
G1 X10.0 Y10.0 Z5.0 ; Corner 4
G0 Z7.0 ; Z-Hop

; === CYCLE 64 ===
G1 X230.0 Y10.0 Z5.0 ; Corner 1
G1 X230.0 Y230.0 Z5.0 ; Corner 2
G1 X10.0 Y230.0 Z5.0 ; Corner 3
G1 X10.0 Y10.0 Z5.0 ; Corner 4
G0 Z7.0 ; Z-Hop

; === CYCLE 65 ===
G1 X230.0 Y10.0 Z5.0 ; Corner 1
G1 X230.0 Y230.0 Z5.0 ; Corner 2
G1 X10.0 Y230.0 Z5.0 ; Corner 3
G1 X10.0 Y10.0 Z5.0 ; Corner 4
G0 Z7.0 ; Z-Hop

; === CYCLE 66 ===
G1 X230.0 Y10.0 Z5.0 ; Corner 1
G1 X230.0 Y230.0 Z5.0 ; Corner 2
G1 X10.0 Y230.0 Z5.0 ; Corner 3
G1 X10.0 Y10.0 Z5.0 ; Corner 4
G0 Z7.0 ; Z-Hop

; === CYCLE 67 ===
G1 X230.0 Y10.0 Z5.0 ; Corner 1
G1 X230.0 Y230.0 Z5.0 ; Corner 2
G1 X10.0 Y230.0 Z5.0 ; Corner 3
G1 X10.0 Y10.0 Z5.0 ; Corner 4
G0 Z7.0 ; Z-Hop

; === CYCLE 68 ===
G1 X230.0 Y10.0 Z5.0 ; Corner 1
G1 X230.0 Y230.0 Z5.0 ; Corner 2
G1 X10.0 Y230.0 Z5.0 ; Corner 3
G1 X10.0 Y10.0 Z5.0 ; Corner 4
G0 Z7.0 ; Z-Hop

; === CYCLE 69 ===
G1 X230.0 Y10.0 Z5.0 ; Corner 1
G1 X230.0 Y230.0 Z5.0 ; Corner 2
G1 X10.0 Y230.0 Z5.0 ; Corner 3
G1 X10.0 Y10.0 Z5.0 ; Corner 4
G0 Z7.0 ; Z-Hop

; === CYCLE 70 ===
G1 X230.0 Y10.0 Z5.0 ; Corner 1
G1 X230.0 Y230.0 Z5.0 ; Corner 2
G1 X10.0 Y230.0 Z5.0 ; Corner 3
G1 X10.0 Y10.0 Z5.0 ; Corner 4
G0 Z7.0 ; Z-Hop

; === CYCLE 71 ===
G1 X230.0 Y10.0 Z5.0 ; Corner 1
G1 X230.0 Y230.0 Z5.0 ; Corner 2
G1 X10.0 Y230.0 Z5.0 ; Corner 3
G1 X10.0 Y10.0 Z5.0 ; Corner 4
G0 Z7.0 ; Z-Hop

; === CYCLE 72 ===
G1 X230.0 Y10.0 Z5.0 ; Corner 1
G1 X230.0 Y230.0 Z5.0 ; Corner 2
G1 X10.0 Y230.0 Z5.0 ; Corner 3
G1 X10.0 Y10.0 Z5.0 ; Corner 4
G0 Z7.0 ; Z-Hop

; === CYCLE 73 ===
G1 X230.0 Y10.0 Z5.0 ; Corner 1
G1 X230.0 Y230.0 Z5.0 ; Corner 2
G1 X10.0 Y230.0 Z5.0 ; Corner 3
G1 X10.0 Y10.0 Z5.0 ; Corner 4
G0 Z7.0 ; Z-Hop

; === CYCLE 74 ===
G1 X230.0 Y10.0 Z5.0 ; Corner 1
G1 X230.0 Y230.0 Z5.0 ; Corner 2
G1 X10.0 Y230.0 Z5.0 ; Corner 3
G1 X10.0 Y10.0 Z5.0 ; Corner 4
G0 Z7.0 ; Z-Hop

; === CYCLE 75 ===
G1 X230.0 Y10.0 Z5.0 ; Corner 1
G1 X230.0 Y230.0 Z5.0 ; Corner 2
G1 X10.0 Y230.0 Z5.0 ; Corner 3
G1 X10.0 Y10.0 Z5.0 ; Corner 4
G0 Z7.0 ; Z-Hop

; === CYCLE 76 ===
G1 X230.0 Y10.0 Z5.0 ; Corner 1
G1 X230.0 Y230.0 Z5.0 ; Corner 2
G1 X10.0 Y230.0 Z5.0 ; Corner 3
G1 X10.0 Y10.0 Z5.0 ; Corner 4
G0 Z7.0 ; Z-Hop

; === CYCLE 77 ===
G1 X230.0 Y10.0 Z5.0 ; Corner 1
G1 X230.0 Y230.0 Z5.0 ; Corner 2
G1 X10.0 Y230.0 Z5.0 ; Corner 3
G1 X10.0 Y10.0 Z5.0 ; Corner 4
G0 Z7.0 ; Z-Hop

; === CYCLE 78 ===
G1 X230.0 Y10.0 Z5.0 ; Corner 1
G1 X230.0 Y230.0 Z5.0 ; Corner 2
G1 X10.0 Y230.0 Z5.0 ; Corner 3
G1 X10.0 Y10.0 Z5.0 ; Corner 4
G0 Z7.0 ; Z-Hop

; === CYCLE 79 ===
G1 X230.0 Y10.0 Z5.0 ; Corner 1
G1 X230.0 Y230.0 Z5.0 ; Corner 2
G1 X10.0 Y230.0 Z5.0 ; Corner 3
G1 X10.0 Y10.0 Z5.0 ; Corner 4
G0 Z7.0 ; Z-Hop

; === CYCLE 80 ===
G1 X230.0 Y10.0 Z5.0 ; Corner 1
G1 X230.0 Y230.0 Z5.0 ; Corner 2
G1 X10.0 Y230.0 Z5.0 ; Corner 3
G1 X10.0 Y10.0 Z5.0 ; Corner 4
G0 Z7.0 ; Z-Hop

; === CYCLE 81 ===
G1 X230.0 Y10.0 Z5.0 ; Corner 1
G1 X230.0 Y230.0 Z5.0 ; Corner 2
G1 X10.0 Y230.0 Z5.0 ; Corner 3
G1 X10.0 Y10.0 Z5.0 ; Corner 4
G0 Z7.0 ; Z-Hop

; === CYCLE 82 ===
G1 X230.0 Y10.0 Z5.0 ; Corner 1
G1 X230.0 Y230.0 Z5.0 ; Corner 2
G1 X10.0 Y230.0 Z5.0 ; Corner 3
G1 X10.0 Y10.0 Z5.0 ; Corner 4
G0 Z7.0 ; Z-Hop

; === CYCLE 83 ===
G1 X230.0 Y10.0 Z5.0 ; Corner 1
G1 X230.0 Y230.0 Z5.0 ; Corner 2
G1 X10.0 Y230.0 Z5.0 ; Corner 3
G1 X10.0 Y10.0 Z5.0 ; Corner 4
G0 Z7.0 ; Z-Hop

; === CYCLE 84 ===
G1 X230.0 Y10.0 Z5.0 ; Corner 1
G1 X230.0 Y230.0 Z5.0 ; Corner 2
G1 X10.0 Y230.0 Z5.0 ; Corner 3
G1 X10.0 Y10.0 Z5.0 ; Corner 4
G0 Z7.0 ; Z-Hop

; === CYCLE 85 ===
G1 X230.0 Y10.0 Z5.0 ; Corner 1
G1 X230.0 Y230.0 Z5.0 ; Corner 2
G1 X10.0 Y230.0 Z5.0 ; Corner 3
G1 X10.0 Y10.0 Z5.0 ; Corner 4
G0 Z7.0 ; Z-Hop

; === CYCLE 86 ===
G1 X230.0 Y10.0 Z5.0 ; Corner 1
G1 X230.0 Y230.0 Z5.0 ; Corner 2
G1 X10.0 Y230.0 Z5.0 ; Corner 3
G1 X10.0 Y10.0 Z5.0 ; Corner 4
G0 Z7.0 ; Z-Hop

; === CYCLE 87 ===
G1 X230.0 Y10.0 Z5.0 ; Corner 1
G1 X230.0 Y230.0 Z5.0 ; Corner 2
G1 X10.0 Y230.0 Z5.0 ; Corner 3
G1 X10.0 Y10.0 Z5.0 ; Corner 4
G0 Z7.0 ; Z-Hop

; === CYCLE 88 ===
G1 X230.0 Y10.0 Z5.0 ; Corner 1
G1 X230.0 Y230.0 Z5.0 ; Corner 2
G1 X10.0 Y230.0 Z5.0 ; Corner 3
G1 X10.0 Y10.0 Z5.0 ; Corner 4
G0 Z7.0 ; Z-Hop

; === CYCLE 89 ===
G1 X230.0 Y10.0 Z5.0 ; Corner 1
G1 X230.0 Y230.0 Z5.0 ; Corner 2
G1 X10.0 Y230.0 Z5.0 ; Corner 3
G1 X10.0 Y10.0 Z5.0 ; Corner 4
G0 Z7.0 ; Z-Hop

; === CYCLE 90 ===
G1 X230.0 Y10.0 Z5.0 ; Corner 1
G1 X230.0 Y230.0 Z5.0 ; Corner 2
G1 X10.0 Y230.0 Z5.0 ; Corner 3
G1 X10.0 Y10.0 Z5.0 ; Corner 4
G0 Z7.0 ; Z-Hop

; === CYCLE 91 ===
G1 X230.0 Y10.0 Z5.0 ; Corner 1
G1 X230.0 Y230.0 Z5.0 ; Corner 2
G1 X10.0 Y230.0 Z5.0 ; Corner 3
G1 X10.0 Y10.0 Z5.0 ; Corner 4
G0 Z7.0 ; Z-Hop

; === CYCLE 92 ===
G1 X230.0 Y10.0 Z5.0 ; Corner 1
G1 X230.0 Y230.0 Z5.0 ; Corner 2
G1 X10.0 Y230.0 Z5.0 ; Corner 3
G1 X10.0 Y10.0 Z5.0 ; Corner 4
G0 Z7.0 ; Z-Hop

; === CYCLE 93 ===
G1 X230.0 Y10.0 Z5.0 ; Corner 1
G1 X230.0 Y230.0 Z5.0 ; Corner 2
G1 X10.0 Y230.0 Z5.0 ; Corner 3
G1 X10.0 Y10.0 Z5.0 ; Corner 4
G0 Z7.0 ; Z-Hop

; === CYCLE 94 ===
G1 X230.0 Y10.0 Z5.0 ; Corner 1
G1 X230.0 Y230.0 Z5.0 ; Corner 2
G1 X10.0 Y230.0 Z5.0 ; Corner 3
G1 X10.0 Y10.0 Z5.0 ; Corner 4
G0 Z7.0 ; Z-Hop

; === CYCLE 95 ===
G1 X230.0 Y10.0 Z5.0 ; Corner 1
G1 X230.0 Y230.0 Z5.0 ; Corner 2
G1 X10.0 Y230.0 Z5.0 ; Corner 3
G1 X10.0 Y10.0 Z5.0 ; Corner 4
G0 Z7.0 ; Z-Hop

; === CYCLE 96 ===
G1 X230.0 Y10.0 Z5.0 ; Corner 1
G1 X230.0 Y230.0 Z5.0 ; Corner 2
G1 X10.0 Y230.0 Z5.0 ; Corner 3
G1 X10.0 Y10.0 Z5.0 ; Corner 4
